M106 S255 (Fan on.)
G0 x100 y100 f2000 (  Set origin and speed.  )
( pcb2gcode 1.2.2 )
( Software-independent Gcode )





S10000 ( RPM spindle speed. )
G64 P0.00200 ( set maximum deviation from commanded toolpath )
F2000.00000 ( Feedrate. )

F2000.00000 ( Feedrate. )
M400
M5
M42 P13 S0 (OFF - LASER)
G00 Z0.25000 ( retract )

G00 X120.47240 Y118.06702 F2000 (rapid move to begin)
F1000.00000
G01 Z0.00000
F2000.00000
G0 X120.47240 Y118.06702 F240
G0 X120.47240 Y116.77162 F240
G0 X119.35480 Y116.77162 F240
G0 X119.35480 Y118.09242 F240
G0 X120.47240 Y118.09242 F240
G0 X120.47240 Y118.06702 F240
M400
M5
M42 P13 S0 (OFF - LASER)
G00 Z0.25000 ( retract )

G00 X122.27580 Y118.06702 F2000 (rapid move to begin)
F1000.00000
G01 Z0.00000
F2000.00000
G0 X122.27580 Y118.06702 F240
G0 X122.27580 Y116.77162 F240
G0 X121.15820 Y116.77162 F240
G0 X121.15820 Y118.09242 F240
G0 X122.27580 Y118.09242 F240
G0 X122.27580 Y118.06702 F240
M400
M5
M42 P13 S0 (OFF - LASER)
G00 Z0.25000 ( retract )

G00 X124.96820 Y118.65122 F2000 (rapid move to begin)
F1000.00000
G01 Z0.00000
F2000.00000
G0 X124.96820 Y118.65122 F240
G0 X124.96820 Y116.16202 F240
G0 X123.85060 Y116.16202 F240
G0 X123.85060 Y118.67662 F240
G0 X124.96820 Y118.67662 F240
G0 X124.96820 Y118.65122 F240
M400
M5
M42 P13 S0 (OFF - LASER)
G00 Z0.25000 ( retract )

G00 X127.96540 Y118.65122 F2000 (rapid move to begin)
F1000.00000
G01 Z0.00000
F2000.00000
G0 X127.96540 Y118.65122 F240
G0 X127.96540 Y116.16202 F240
G0 X126.84780 Y116.16202 F240
G0 X126.84780 Y118.67662 F240
G0 X127.96540 Y118.67662 F240
G0 X127.96540 Y118.65122 F240

M400
M5
M42 P13 S0 (OFF - LASER)
G00 Z0.25000 ( retract )

M5 ( Spindle off. )
M9 ( Coolant off. )

M106 S0 (Fan off.)
