( pcb2gcode 1.2.2 )

( This file uses a mill head of 0.03000inch to drill the 11bit sizes. )
( Bit sizes: [0.03500] [0.03800] [0.12800] [0.06300] [0.03000] [0.05000] [0.06000] [0.13000] [0.18700] [0.02000] [0.03500] )

G94       (Inches per minute feed rate.)
G20       (Units == INCHES.)
G90       (Absolute coordinates.)
S10000    (RPM spindle speed.)
M3
G91.1
G0 Z0.10000
F1.00000 (Feedrate)

G00 Z0.02000
G0 X0.49210 Y0.64510
G1 Z[-0.10000+12*0.00800]
G2 I-0.00250 J0
G1 Z[-0.10000+11*0.00800]
G2 I-0.00250 J0
G1 Z[-0.10000+10*0.00800]
G2 I-0.00250 J0
G1 Z[-0.10000+9*0.00800]
G2 I-0.00250 J0
G1 Z[-0.10000+8*0.00800]
G2 I-0.00250 J0
G1 Z[-0.10000+7*0.00800]
G2 I-0.00250 J0
G1 Z[-0.10000+6*0.00800]
G2 I-0.00250 J0
G1 Z[-0.10000+5*0.00800]
G2 I-0.00250 J0
G1 Z[-0.10000+4*0.00800]
G2 I-0.00250 J0
G1 Z[-0.10000+3*0.00800]
G2 I-0.00250 J0
G1 Z[-0.10000+2*0.00800]
G2 I-0.00250 J0
G1 Z[-0.10000+1*0.00800]
G2 I-0.00250 J0
G0 Z0.02000

G0 X0.59210 Y0.64510
G1 Z[-0.10000+12*0.00800]
G2 I-0.00250 J0
G1 Z[-0.10000+11*0.00800]
G2 I-0.00250 J0
G1 Z[-0.10000+10*0.00800]
G2 I-0.00250 J0
G1 Z[-0.10000+9*0.00800]
G2 I-0.00250 J0
G1 Z[-0.10000+8*0.00800]
G2 I-0.00250 J0
G1 Z[-0.10000+7*0.00800]
G2 I-0.00250 J0
G1 Z[-0.10000+6*0.00800]
G2 I-0.00250 J0
G1 Z[-0.10000+5*0.00800]
G2 I-0.00250 J0
G1 Z[-0.10000+4*0.00800]
G2 I-0.00250 J0
G1 Z[-0.10000+3*0.00800]
G2 I-0.00250 J0
G1 Z[-0.10000+2*0.00800]
G2 I-0.00250 J0
G1 Z[-0.10000+1*0.00800]
G2 I-0.00250 J0
G0 Z0.02000

G0 X0.69210 Y0.64510
G1 Z[-0.10000+12*0.00800]
G2 I-0.00250 J0
G1 Z[-0.10000+11*0.00800]
G2 I-0.00250 J0
G1 Z[-0.10000+10*0.00800]
G2 I-0.00250 J0
G1 Z[-0.10000+9*0.00800]
G2 I-0.00250 J0
G1 Z[-0.10000+8*0.00800]
G2 I-0.00250 J0
G1 Z[-0.10000+7*0.00800]
G2 I-0.00250 J0
G1 Z[-0.10000+6*0.00800]
G2 I-0.00250 J0
G1 Z[-0.10000+5*0.00800]
G2 I-0.00250 J0
G1 Z[-0.10000+4*0.00800]
G2 I-0.00250 J0
G1 Z[-0.10000+3*0.00800]
G2 I-0.00250 J0
G1 Z[-0.10000+2*0.00800]
G2 I-0.00250 J0
G1 Z[-0.10000+1*0.00800]
G2 I-0.00250 J0
G0 Z0.02000

G0 X0.79210 Y0.64510
G1 Z[-0.10000+12*0.00800]
G2 I-0.00250 J0
G1 Z[-0.10000+11*0.00800]
G2 I-0.00250 J0
G1 Z[-0.10000+10*0.00800]
G2 I-0.00250 J0
G1 Z[-0.10000+9*0.00800]
G2 I-0.00250 J0
G1 Z[-0.10000+8*0.00800]
G2 I-0.00250 J0
G1 Z[-0.10000+7*0.00800]
G2 I-0.00250 J0
G1 Z[-0.10000+6*0.00800]
G2 I-0.00250 J0
G1 Z[-0.10000+5*0.00800]
G2 I-0.00250 J0
G1 Z[-0.10000+4*0.00800]
G2 I-0.00250 J0
G1 Z[-0.10000+3*0.00800]
G2 I-0.00250 J0
G1 Z[-0.10000+2*0.00800]
G2 I-0.00250 J0
G1 Z[-0.10000+1*0.00800]
G2 I-0.00250 J0
G0 Z0.02000

G0 X0.74210 Y0.74510
G1 Z[-0.10000+12*0.00800]
G2 I-0.00250 J0
G1 Z[-0.10000+11*0.00800]
G2 I-0.00250 J0
G1 Z[-0.10000+10*0.00800]
G2 I-0.00250 J0
G1 Z[-0.10000+9*0.00800]
G2 I-0.00250 J0
G1 Z[-0.10000+8*0.00800]
G2 I-0.00250 J0
G1 Z[-0.10000+7*0.00800]
G2 I-0.00250 J0
G1 Z[-0.10000+6*0.00800]
G2 I-0.00250 J0
G1 Z[-0.10000+5*0.00800]
G2 I-0.00250 J0
G1 Z[-0.10000+4*0.00800]
G2 I-0.00250 J0
G1 Z[-0.10000+3*0.00800]
G2 I-0.00250 J0
G1 Z[-0.10000+2*0.00800]
G2 I-0.00250 J0
G1 Z[-0.10000+1*0.00800]
G2 I-0.00250 J0
G0 Z0.02000

G0 X0.64210 Y0.74510
G1 Z[-0.10000+12*0.00800]
G2 I-0.00250 J0
G1 Z[-0.10000+11*0.00800]
G2 I-0.00250 J0
G1 Z[-0.10000+10*0.00800]
G2 I-0.00250 J0
G1 Z[-0.10000+9*0.00800]
G2 I-0.00250 J0
G1 Z[-0.10000+8*0.00800]
G2 I-0.00250 J0
G1 Z[-0.10000+7*0.00800]
G2 I-0.00250 J0
G1 Z[-0.10000+6*0.00800]
G2 I-0.00250 J0
G1 Z[-0.10000+5*0.00800]
G2 I-0.00250 J0
G1 Z[-0.10000+4*0.00800]
G2 I-0.00250 J0
G1 Z[-0.10000+3*0.00800]
G2 I-0.00250 J0
G1 Z[-0.10000+2*0.00800]
G2 I-0.00250 J0
G1 Z[-0.10000+1*0.00800]
G2 I-0.00250 J0
G0 Z0.02000

G0 X0.54210 Y0.74510
G1 Z[-0.10000+12*0.00800]
G2 I-0.00250 J0
G1 Z[-0.10000+11*0.00800]
G2 I-0.00250 J0
G1 Z[-0.10000+10*0.00800]
G2 I-0.00250 J0
G1 Z[-0.10000+9*0.00800]
G2 I-0.00250 J0
G1 Z[-0.10000+8*0.00800]
G2 I-0.00250 J0
G1 Z[-0.10000+7*0.00800]
G2 I-0.00250 J0
G1 Z[-0.10000+6*0.00800]
G2 I-0.00250 J0
G1 Z[-0.10000+5*0.00800]
G2 I-0.00250 J0
G1 Z[-0.10000+4*0.00800]
G2 I-0.00250 J0
G1 Z[-0.10000+3*0.00800]
G2 I-0.00250 J0
G1 Z[-0.10000+2*0.00800]
G2 I-0.00250 J0
G1 Z[-0.10000+1*0.00800]
G2 I-0.00250 J0
G0 Z0.02000

G0 X0.44210 Y0.74510
G1 Z[-0.10000+12*0.00800]
G2 I-0.00250 J0
G1 Z[-0.10000+11*0.00800]
G2 I-0.00250 J0
G1 Z[-0.10000+10*0.00800]
G2 I-0.00250 J0
G1 Z[-0.10000+9*0.00800]
G2 I-0.00250 J0
G1 Z[-0.10000+8*0.00800]
G2 I-0.00250 J0
G1 Z[-0.10000+7*0.00800]
G2 I-0.00250 J0
G1 Z[-0.10000+6*0.00800]
G2 I-0.00250 J0
G1 Z[-0.10000+5*0.00800]
G2 I-0.00250 J0
G1 Z[-0.10000+4*0.00800]
G2 I-0.00250 J0
G1 Z[-0.10000+3*0.00800]
G2 I-0.00250 J0
G1 Z[-0.10000+2*0.00800]
G2 I-0.00250 J0
G1 Z[-0.10000+1*0.00800]
G2 I-0.00250 J0
G0 Z0.02000

G0 X1.92750 Y0.74500
G1 Z[-0.10000+12*0.00800]
G2 I-0.00250 J0
G1 Z[-0.10000+11*0.00800]
G2 I-0.00250 J0
G1 Z[-0.10000+10*0.00800]
G2 I-0.00250 J0
G1 Z[-0.10000+9*0.00800]
G2 I-0.00250 J0
G1 Z[-0.10000+8*0.00800]
G2 I-0.00250 J0
G1 Z[-0.10000+7*0.00800]
G2 I-0.00250 J0
G1 Z[-0.10000+6*0.00800]
G2 I-0.00250 J0
G1 Z[-0.10000+5*0.00800]
G2 I-0.00250 J0
G1 Z[-0.10000+4*0.00800]
G2 I-0.00250 J0
G1 Z[-0.10000+3*0.00800]
G2 I-0.00250 J0
G1 Z[-0.10000+2*0.00800]
G2 I-0.00250 J0
G1 Z[-0.10000+1*0.00800]
G2 I-0.00250 J0
G0 Z0.02000

G0 X2.02750 Y0.74500
G1 Z[-0.10000+12*0.00800]
G2 I-0.00250 J0
G1 Z[-0.10000+11*0.00800]
G2 I-0.00250 J0
G1 Z[-0.10000+10*0.00800]
G2 I-0.00250 J0
G1 Z[-0.10000+9*0.00800]
G2 I-0.00250 J0
G1 Z[-0.10000+8*0.00800]
G2 I-0.00250 J0
G1 Z[-0.10000+7*0.00800]
G2 I-0.00250 J0
G1 Z[-0.10000+6*0.00800]
G2 I-0.00250 J0
G1 Z[-0.10000+5*0.00800]
G2 I-0.00250 J0
G1 Z[-0.10000+4*0.00800]
G2 I-0.00250 J0
G1 Z[-0.10000+3*0.00800]
G2 I-0.00250 J0
G1 Z[-0.10000+2*0.00800]
G2 I-0.00250 J0
G1 Z[-0.10000+1*0.00800]
G2 I-0.00250 J0
G0 Z0.02000

G0 X2.12750 Y0.74500
G1 Z[-0.10000+12*0.00800]
G2 I-0.00250 J0
G1 Z[-0.10000+11*0.00800]
G2 I-0.00250 J0
G1 Z[-0.10000+10*0.00800]
G2 I-0.00250 J0
G1 Z[-0.10000+9*0.00800]
G2 I-0.00250 J0
G1 Z[-0.10000+8*0.00800]
G2 I-0.00250 J0
G1 Z[-0.10000+7*0.00800]
G2 I-0.00250 J0
G1 Z[-0.10000+6*0.00800]
G2 I-0.00250 J0
G1 Z[-0.10000+5*0.00800]
G2 I-0.00250 J0
G1 Z[-0.10000+4*0.00800]
G2 I-0.00250 J0
G1 Z[-0.10000+3*0.00800]
G2 I-0.00250 J0
G1 Z[-0.10000+2*0.00800]
G2 I-0.00250 J0
G1 Z[-0.10000+1*0.00800]
G2 I-0.00250 J0
G0 Z0.02000

G0 X2.22750 Y0.74500
G1 Z[-0.10000+12*0.00800]
G2 I-0.00250 J0
G1 Z[-0.10000+11*0.00800]
G2 I-0.00250 J0
G1 Z[-0.10000+10*0.00800]
G2 I-0.00250 J0
G1 Z[-0.10000+9*0.00800]
G2 I-0.00250 J0
G1 Z[-0.10000+8*0.00800]
G2 I-0.00250 J0
G1 Z[-0.10000+7*0.00800]
G2 I-0.00250 J0
G1 Z[-0.10000+6*0.00800]
G2 I-0.00250 J0
G1 Z[-0.10000+5*0.00800]
G2 I-0.00250 J0
G1 Z[-0.10000+4*0.00800]
G2 I-0.00250 J0
G1 Z[-0.10000+3*0.00800]
G2 I-0.00250 J0
G1 Z[-0.10000+2*0.00800]
G2 I-0.00250 J0
G1 Z[-0.10000+1*0.00800]
G2 I-0.00250 J0
G0 Z0.02000

G0 X2.27750 Y0.64500
G1 Z[-0.10000+12*0.00800]
G2 I-0.00250 J0
G1 Z[-0.10000+11*0.00800]
G2 I-0.00250 J0
G1 Z[-0.10000+10*0.00800]
G2 I-0.00250 J0
G1 Z[-0.10000+9*0.00800]
G2 I-0.00250 J0
G1 Z[-0.10000+8*0.00800]
G2 I-0.00250 J0
G1 Z[-0.10000+7*0.00800]
G2 I-0.00250 J0
G1 Z[-0.10000+6*0.00800]
G2 I-0.00250 J0
G1 Z[-0.10000+5*0.00800]
G2 I-0.00250 J0
G1 Z[-0.10000+4*0.00800]
G2 I-0.00250 J0
G1 Z[-0.10000+3*0.00800]
G2 I-0.00250 J0
G1 Z[-0.10000+2*0.00800]
G2 I-0.00250 J0
G1 Z[-0.10000+1*0.00800]
G2 I-0.00250 J0
G0 Z0.02000

G0 X2.17750 Y0.64500
G1 Z[-0.10000+12*0.00800]
G2 I-0.00250 J0
G1 Z[-0.10000+11*0.00800]
G2 I-0.00250 J0
G1 Z[-0.10000+10*0.00800]
G2 I-0.00250 J0
G1 Z[-0.10000+9*0.00800]
G2 I-0.00250 J0
G1 Z[-0.10000+8*0.00800]
G2 I-0.00250 J0
G1 Z[-0.10000+7*0.00800]
G2 I-0.00250 J0
G1 Z[-0.10000+6*0.00800]
G2 I-0.00250 J0
G1 Z[-0.10000+5*0.00800]
G2 I-0.00250 J0
G1 Z[-0.10000+4*0.00800]
G2 I-0.00250 J0
G1 Z[-0.10000+3*0.00800]
G2 I-0.00250 J0
G1 Z[-0.10000+2*0.00800]
G2 I-0.00250 J0
G1 Z[-0.10000+1*0.00800]
G2 I-0.00250 J0
G0 Z0.02000

G0 X2.07750 Y0.64500
G1 Z[-0.10000+12*0.00800]
G2 I-0.00250 J0
G1 Z[-0.10000+11*0.00800]
G2 I-0.00250 J0
G1 Z[-0.10000+10*0.00800]
G2 I-0.00250 J0
G1 Z[-0.10000+9*0.00800]
G2 I-0.00250 J0
G1 Z[-0.10000+8*0.00800]
G2 I-0.00250 J0
G1 Z[-0.10000+7*0.00800]
G2 I-0.00250 J0
G1 Z[-0.10000+6*0.00800]
G2 I-0.00250 J0
G1 Z[-0.10000+5*0.00800]
G2 I-0.00250 J0
G1 Z[-0.10000+4*0.00800]
G2 I-0.00250 J0
G1 Z[-0.10000+3*0.00800]
G2 I-0.00250 J0
G1 Z[-0.10000+2*0.00800]
G2 I-0.00250 J0
G1 Z[-0.10000+1*0.00800]
G2 I-0.00250 J0
G0 Z0.02000

G0 X1.97750 Y0.64500
G1 Z[-0.10000+12*0.00800]
G2 I-0.00250 J0
G1 Z[-0.10000+11*0.00800]
G2 I-0.00250 J0
G1 Z[-0.10000+10*0.00800]
G2 I-0.00250 J0
G1 Z[-0.10000+9*0.00800]
G2 I-0.00250 J0
G1 Z[-0.10000+8*0.00800]
G2 I-0.00250 J0
G1 Z[-0.10000+7*0.00800]
G2 I-0.00250 J0
G1 Z[-0.10000+6*0.00800]
G2 I-0.00250 J0
G1 Z[-0.10000+5*0.00800]
G2 I-0.00250 J0
G1 Z[-0.10000+4*0.00800]
G2 I-0.00250 J0
G1 Z[-0.10000+3*0.00800]
G2 I-0.00250 J0
G1 Z[-0.10000+2*0.00800]
G2 I-0.00250 J0
G1 Z[-0.10000+1*0.00800]
G2 I-0.00250 J0
G0 Z0.02000

G0 X2.64750 Y0.74500
G1 Z[-0.10000+12*0.00800]
G2 I-0.00250 J0
G1 Z[-0.10000+11*0.00800]
G2 I-0.00250 J0
G1 Z[-0.10000+10*0.00800]
G2 I-0.00250 J0
G1 Z[-0.10000+9*0.00800]
G2 I-0.00250 J0
G1 Z[-0.10000+8*0.00800]
G2 I-0.00250 J0
G1 Z[-0.10000+7*0.00800]
G2 I-0.00250 J0
G1 Z[-0.10000+6*0.00800]
G2 I-0.00250 J0
G1 Z[-0.10000+5*0.00800]
G2 I-0.00250 J0
G1 Z[-0.10000+4*0.00800]
G2 I-0.00250 J0
G1 Z[-0.10000+3*0.00800]
G2 I-0.00250 J0
G1 Z[-0.10000+2*0.00800]
G2 I-0.00250 J0
G1 Z[-0.10000+1*0.00800]
G2 I-0.00250 J0
G0 Z0.02000

G0 X2.74750 Y0.74500
G1 Z[-0.10000+12*0.00800]
G2 I-0.00250 J0
G1 Z[-0.10000+11*0.00800]
G2 I-0.00250 J0
G1 Z[-0.10000+10*0.00800]
G2 I-0.00250 J0
G1 Z[-0.10000+9*0.00800]
G2 I-0.00250 J0
G1 Z[-0.10000+8*0.00800]
G2 I-0.00250 J0
G1 Z[-0.10000+7*0.00800]
G2 I-0.00250 J0
G1 Z[-0.10000+6*0.00800]
G2 I-0.00250 J0
G1 Z[-0.10000+5*0.00800]
G2 I-0.00250 J0
G1 Z[-0.10000+4*0.00800]
G2 I-0.00250 J0
G1 Z[-0.10000+3*0.00800]
G2 I-0.00250 J0
G1 Z[-0.10000+2*0.00800]
G2 I-0.00250 J0
G1 Z[-0.10000+1*0.00800]
G2 I-0.00250 J0
G0 Z0.02000

G0 X2.84750 Y0.74500
G1 Z[-0.10000+12*0.00800]
G2 I-0.00250 J0
G1 Z[-0.10000+11*0.00800]
G2 I-0.00250 J0
G1 Z[-0.10000+10*0.00800]
G2 I-0.00250 J0
G1 Z[-0.10000+9*0.00800]
G2 I-0.00250 J0
G1 Z[-0.10000+8*0.00800]
G2 I-0.00250 J0
G1 Z[-0.10000+7*0.00800]
G2 I-0.00250 J0
G1 Z[-0.10000+6*0.00800]
G2 I-0.00250 J0
G1 Z[-0.10000+5*0.00800]
G2 I-0.00250 J0
G1 Z[-0.10000+4*0.00800]
G2 I-0.00250 J0
G1 Z[-0.10000+3*0.00800]
G2 I-0.00250 J0
G1 Z[-0.10000+2*0.00800]
G2 I-0.00250 J0
G1 Z[-0.10000+1*0.00800]
G2 I-0.00250 J0
G0 Z0.02000

G0 X2.94750 Y0.74500
G1 Z[-0.10000+12*0.00800]
G2 I-0.00250 J0
G1 Z[-0.10000+11*0.00800]
G2 I-0.00250 J0
G1 Z[-0.10000+10*0.00800]
G2 I-0.00250 J0
G1 Z[-0.10000+9*0.00800]
G2 I-0.00250 J0
G1 Z[-0.10000+8*0.00800]
G2 I-0.00250 J0
G1 Z[-0.10000+7*0.00800]
G2 I-0.00250 J0
G1 Z[-0.10000+6*0.00800]
G2 I-0.00250 J0
G1 Z[-0.10000+5*0.00800]
G2 I-0.00250 J0
G1 Z[-0.10000+4*0.00800]
G2 I-0.00250 J0
G1 Z[-0.10000+3*0.00800]
G2 I-0.00250 J0
G1 Z[-0.10000+2*0.00800]
G2 I-0.00250 J0
G1 Z[-0.10000+1*0.00800]
G2 I-0.00250 J0
G0 Z0.02000

G0 X2.99750 Y0.64500
G1 Z[-0.10000+12*0.00800]
G2 I-0.00250 J0
G1 Z[-0.10000+11*0.00800]
G2 I-0.00250 J0
G1 Z[-0.10000+10*0.00800]
G2 I-0.00250 J0
G1 Z[-0.10000+9*0.00800]
G2 I-0.00250 J0
G1 Z[-0.10000+8*0.00800]
G2 I-0.00250 J0
G1 Z[-0.10000+7*0.00800]
G2 I-0.00250 J0
G1 Z[-0.10000+6*0.00800]
G2 I-0.00250 J0
G1 Z[-0.10000+5*0.00800]
G2 I-0.00250 J0
G1 Z[-0.10000+4*0.00800]
G2 I-0.00250 J0
G1 Z[-0.10000+3*0.00800]
G2 I-0.00250 J0
G1 Z[-0.10000+2*0.00800]
G2 I-0.00250 J0
G1 Z[-0.10000+1*0.00800]
G2 I-0.00250 J0
G0 Z0.02000

G0 X2.89750 Y0.64500
G1 Z[-0.10000+12*0.00800]
G2 I-0.00250 J0
G1 Z[-0.10000+11*0.00800]
G2 I-0.00250 J0
G1 Z[-0.10000+10*0.00800]
G2 I-0.00250 J0
G1 Z[-0.10000+9*0.00800]
G2 I-0.00250 J0
G1 Z[-0.10000+8*0.00800]
G2 I-0.00250 J0
G1 Z[-0.10000+7*0.00800]
G2 I-0.00250 J0
G1 Z[-0.10000+6*0.00800]
G2 I-0.00250 J0
G1 Z[-0.10000+5*0.00800]
G2 I-0.00250 J0
G1 Z[-0.10000+4*0.00800]
G2 I-0.00250 J0
G1 Z[-0.10000+3*0.00800]
G2 I-0.00250 J0
G1 Z[-0.10000+2*0.00800]
G2 I-0.00250 J0
G1 Z[-0.10000+1*0.00800]
G2 I-0.00250 J0
G0 Z0.02000

G0 X2.79750 Y0.64500
G1 Z[-0.10000+12*0.00800]
G2 I-0.00250 J0
G1 Z[-0.10000+11*0.00800]
G2 I-0.00250 J0
G1 Z[-0.10000+10*0.00800]
G2 I-0.00250 J0
G1 Z[-0.10000+9*0.00800]
G2 I-0.00250 J0
G1 Z[-0.10000+8*0.00800]
G2 I-0.00250 J0
G1 Z[-0.10000+7*0.00800]
G2 I-0.00250 J0
G1 Z[-0.10000+6*0.00800]
G2 I-0.00250 J0
G1 Z[-0.10000+5*0.00800]
G2 I-0.00250 J0
G1 Z[-0.10000+4*0.00800]
G2 I-0.00250 J0
G1 Z[-0.10000+3*0.00800]
G2 I-0.00250 J0
G1 Z[-0.10000+2*0.00800]
G2 I-0.00250 J0
G1 Z[-0.10000+1*0.00800]
G2 I-0.00250 J0
G0 Z0.02000

G0 X2.69750 Y0.64500
G1 Z[-0.10000+12*0.00800]
G2 I-0.00250 J0
G1 Z[-0.10000+11*0.00800]
G2 I-0.00250 J0
G1 Z[-0.10000+10*0.00800]
G2 I-0.00250 J0
G1 Z[-0.10000+9*0.00800]
G2 I-0.00250 J0
G1 Z[-0.10000+8*0.00800]
G2 I-0.00250 J0
G1 Z[-0.10000+7*0.00800]
G2 I-0.00250 J0
G1 Z[-0.10000+6*0.00800]
G2 I-0.00250 J0
G1 Z[-0.10000+5*0.00800]
G2 I-0.00250 J0
G1 Z[-0.10000+4*0.00800]
G2 I-0.00250 J0
G1 Z[-0.10000+3*0.00800]
G2 I-0.00250 J0
G1 Z[-0.10000+2*0.00800]
G2 I-0.00250 J0
G1 Z[-0.10000+1*0.00800]
G2 I-0.00250 J0
G0 Z0.02000

G0 X3.02400 Y0.99500
G1 Z[-0.10000+12*0.00800]
G2 I-0.00400 J0
G1 Z[-0.10000+11*0.00800]
G2 I-0.00400 J0
G1 Z[-0.10000+10*0.00800]
G2 I-0.00400 J0
G1 Z[-0.10000+9*0.00800]
G2 I-0.00400 J0
G1 Z[-0.10000+8*0.00800]
G2 I-0.00400 J0
G1 Z[-0.10000+7*0.00800]
G2 I-0.00400 J0
G1 Z[-0.10000+6*0.00800]
G2 I-0.00400 J0
G1 Z[-0.10000+5*0.00800]
G2 I-0.00400 J0
G1 Z[-0.10000+4*0.00800]
G2 I-0.00400 J0
G1 Z[-0.10000+3*0.00800]
G2 I-0.00400 J0
G1 Z[-0.10000+2*0.00800]
G2 I-0.00400 J0
G1 Z[-0.10000+1*0.00800]
G2 I-0.00400 J0
G0 Z0.02000

G0 X3.12400 Y0.99500
G1 Z[-0.10000+12*0.00800]
G2 I-0.00400 J0
G1 Z[-0.10000+11*0.00800]
G2 I-0.00400 J0
G1 Z[-0.10000+10*0.00800]
G2 I-0.00400 J0
G1 Z[-0.10000+9*0.00800]
G2 I-0.00400 J0
G1 Z[-0.10000+8*0.00800]
G2 I-0.00400 J0
G1 Z[-0.10000+7*0.00800]
G2 I-0.00400 J0
G1 Z[-0.10000+6*0.00800]
G2 I-0.00400 J0
G1 Z[-0.10000+5*0.00800]
G2 I-0.00400 J0
G1 Z[-0.10000+4*0.00800]
G2 I-0.00400 J0
G1 Z[-0.10000+3*0.00800]
G2 I-0.00400 J0
G1 Z[-0.10000+2*0.00800]
G2 I-0.00400 J0
G1 Z[-0.10000+1*0.00800]
G2 I-0.00400 J0
G0 Z0.02000

G0 X0.43860 Y0.39510
G1 Z[-0.10000+12*0.00800]
G2 I-0.04900 J0
G1 Z[-0.10000+11*0.00800]
G2 I-0.04900 J0
G1 Z[-0.10000+10*0.00800]
G2 I-0.04900 J0
G1 Z[-0.10000+9*0.00800]
G2 I-0.04900 J0
G1 Z[-0.10000+8*0.00800]
G2 I-0.04900 J0
G1 Z[-0.10000+7*0.00800]
G2 I-0.04900 J0
G1 Z[-0.10000+6*0.00800]
G2 I-0.04900 J0
G1 Z[-0.10000+5*0.00800]
G2 I-0.04900 J0
G1 Z[-0.10000+4*0.00800]
G2 I-0.04900 J0
G1 Z[-0.10000+3*0.00800]
G2 I-0.04900 J0
G1 Z[-0.10000+2*0.00800]
G2 I-0.04900 J0
G1 Z[-0.10000+1*0.00800]
G2 I-0.04900 J0
G0 Z0.02000

G0 X0.88860 Y0.39510
G1 Z[-0.10000+12*0.00800]
G2 I-0.04900 J0
G1 Z[-0.10000+11*0.00800]
G2 I-0.04900 J0
G1 Z[-0.10000+10*0.00800]
G2 I-0.04900 J0
G1 Z[-0.10000+9*0.00800]
G2 I-0.04900 J0
G1 Z[-0.10000+8*0.00800]
G2 I-0.04900 J0
G1 Z[-0.10000+7*0.00800]
G2 I-0.04900 J0
G1 Z[-0.10000+6*0.00800]
G2 I-0.04900 J0
G1 Z[-0.10000+5*0.00800]
G2 I-0.04900 J0
G1 Z[-0.10000+4*0.00800]
G2 I-0.04900 J0
G1 Z[-0.10000+3*0.00800]
G2 I-0.04900 J0
G1 Z[-0.10000+2*0.00800]
G2 I-0.04900 J0
G1 Z[-0.10000+1*0.00800]
G2 I-0.04900 J0
G0 Z0.02000

G0 X1.92400 Y0.39500
G1 Z[-0.10000+12*0.00800]
G2 I-0.04900 J0
G1 Z[-0.10000+11*0.00800]
G2 I-0.04900 J0
G1 Z[-0.10000+10*0.00800]
G2 I-0.04900 J0
G1 Z[-0.10000+9*0.00800]
G2 I-0.04900 J0
G1 Z[-0.10000+8*0.00800]
G2 I-0.04900 J0
G1 Z[-0.10000+7*0.00800]
G2 I-0.04900 J0
G1 Z[-0.10000+6*0.00800]
G2 I-0.04900 J0
G1 Z[-0.10000+5*0.00800]
G2 I-0.04900 J0
G1 Z[-0.10000+4*0.00800]
G2 I-0.04900 J0
G1 Z[-0.10000+3*0.00800]
G2 I-0.04900 J0
G1 Z[-0.10000+2*0.00800]
G2 I-0.04900 J0
G1 Z[-0.10000+1*0.00800]
G2 I-0.04900 J0
G0 Z0.02000

G0 X2.37400 Y0.39500
G1 Z[-0.10000+12*0.00800]
G2 I-0.04900 J0
G1 Z[-0.10000+11*0.00800]
G2 I-0.04900 J0
G1 Z[-0.10000+10*0.00800]
G2 I-0.04900 J0
G1 Z[-0.10000+9*0.00800]
G2 I-0.04900 J0
G1 Z[-0.10000+8*0.00800]
G2 I-0.04900 J0
G1 Z[-0.10000+7*0.00800]
G2 I-0.04900 J0
G1 Z[-0.10000+6*0.00800]
G2 I-0.04900 J0
G1 Z[-0.10000+5*0.00800]
G2 I-0.04900 J0
G1 Z[-0.10000+4*0.00800]
G2 I-0.04900 J0
G1 Z[-0.10000+3*0.00800]
G2 I-0.04900 J0
G1 Z[-0.10000+2*0.00800]
G2 I-0.04900 J0
G1 Z[-0.10000+1*0.00800]
G2 I-0.04900 J0
G0 Z0.02000

G0 X2.64400 Y0.39500
G1 Z[-0.10000+12*0.00800]
G2 I-0.04900 J0
G1 Z[-0.10000+11*0.00800]
G2 I-0.04900 J0
G1 Z[-0.10000+10*0.00800]
G2 I-0.04900 J0
G1 Z[-0.10000+9*0.00800]
G2 I-0.04900 J0
G1 Z[-0.10000+8*0.00800]
G2 I-0.04900 J0
G1 Z[-0.10000+7*0.00800]
G2 I-0.04900 J0
G1 Z[-0.10000+6*0.00800]
G2 I-0.04900 J0
G1 Z[-0.10000+5*0.00800]
G2 I-0.04900 J0
G1 Z[-0.10000+4*0.00800]
G2 I-0.04900 J0
G1 Z[-0.10000+3*0.00800]
G2 I-0.04900 J0
G1 Z[-0.10000+2*0.00800]
G2 I-0.04900 J0
G1 Z[-0.10000+1*0.00800]
G2 I-0.04900 J0
G0 Z0.02000

G0 X3.09400 Y0.39500
G1 Z[-0.10000+12*0.00800]
G2 I-0.04900 J0
G1 Z[-0.10000+11*0.00800]
G2 I-0.04900 J0
G1 Z[-0.10000+10*0.00800]
G2 I-0.04900 J0
G1 Z[-0.10000+9*0.00800]
G2 I-0.04900 J0
G1 Z[-0.10000+8*0.00800]
G2 I-0.04900 J0
G1 Z[-0.10000+7*0.00800]
G2 I-0.04900 J0
G1 Z[-0.10000+6*0.00800]
G2 I-0.04900 J0
G1 Z[-0.10000+5*0.00800]
G2 I-0.04900 J0
G1 Z[-0.10000+4*0.00800]
G2 I-0.04900 J0
G1 Z[-0.10000+3*0.00800]
G2 I-0.04900 J0
G1 Z[-0.10000+2*0.00800]
G2 I-0.04900 J0
G1 Z[-0.10000+1*0.00800]
G2 I-0.04900 J0
G0 Z0.02000

G0 X0.32140 Y0.27500
G1 Z[-0.10000+12*0.00800]
G2 I-0.01650 J0
G1 Z[-0.10000+11*0.00800]
G2 I-0.01650 J0
G1 Z[-0.10000+10*0.00800]
G2 I-0.01650 J0
G1 Z[-0.10000+9*0.00800]
G2 I-0.01650 J0
G1 Z[-0.10000+8*0.00800]
G2 I-0.01650 J0
G1 Z[-0.10000+7*0.00800]
G2 I-0.01650 J0
G1 Z[-0.10000+6*0.00800]
G2 I-0.01650 J0
G1 Z[-0.10000+5*0.00800]
G2 I-0.01650 J0
G1 Z[-0.10000+4*0.00800]
G2 I-0.01650 J0
G1 Z[-0.10000+3*0.00800]
G2 I-0.01650 J0
G1 Z[-0.10000+2*0.00800]
G2 I-0.01650 J0
G1 Z[-0.10000+1*0.00800]
G2 I-0.01650 J0
G0 Z0.02000

G0 X0.94150 Y0.27500
G1 Z[-0.10000+12*0.00800]
G2 I-0.01650 J0
G1 Z[-0.10000+11*0.00800]
G2 I-0.01650 J0
G1 Z[-0.10000+10*0.00800]
G2 I-0.01650 J0
G1 Z[-0.10000+9*0.00800]
G2 I-0.01650 J0
G1 Z[-0.10000+8*0.00800]
G2 I-0.01650 J0
G1 Z[-0.10000+7*0.00800]
G2 I-0.01650 J0
G1 Z[-0.10000+6*0.00800]
G2 I-0.01650 J0
G1 Z[-0.10000+5*0.00800]
G2 I-0.01650 J0
G1 Z[-0.10000+4*0.00800]
G2 I-0.01650 J0
G1 Z[-0.10000+3*0.00800]
G2 I-0.01650 J0
G1 Z[-0.10000+2*0.00800]
G2 I-0.01650 J0
G1 Z[-0.10000+1*0.00800]
G2 I-0.01650 J0
G0 Z0.02000

G0 X1.80690 Y0.27490
G1 Z[-0.10000+12*0.00800]
G2 I-0.01650 J0
G1 Z[-0.10000+11*0.00800]
G2 I-0.01650 J0
G1 Z[-0.10000+10*0.00800]
G2 I-0.01650 J0
G1 Z[-0.10000+9*0.00800]
G2 I-0.01650 J0
G1 Z[-0.10000+8*0.00800]
G2 I-0.01650 J0
G1 Z[-0.10000+7*0.00800]
G2 I-0.01650 J0
G1 Z[-0.10000+6*0.00800]
G2 I-0.01650 J0
G1 Z[-0.10000+5*0.00800]
G2 I-0.01650 J0
G1 Z[-0.10000+4*0.00800]
G2 I-0.01650 J0
G1 Z[-0.10000+3*0.00800]
G2 I-0.01650 J0
G1 Z[-0.10000+2*0.00800]
G2 I-0.01650 J0
G1 Z[-0.10000+1*0.00800]
G2 I-0.01650 J0
G0 Z0.02000

G0 X2.42690 Y0.27490
G1 Z[-0.10000+12*0.00800]
G2 I-0.01650 J0
G1 Z[-0.10000+11*0.00800]
G2 I-0.01650 J0
G1 Z[-0.10000+10*0.00800]
G2 I-0.01650 J0
G1 Z[-0.10000+9*0.00800]
G2 I-0.01650 J0
G1 Z[-0.10000+8*0.00800]
G2 I-0.01650 J0
G1 Z[-0.10000+7*0.00800]
G2 I-0.01650 J0
G1 Z[-0.10000+6*0.00800]
G2 I-0.01650 J0
G1 Z[-0.10000+5*0.00800]
G2 I-0.01650 J0
G1 Z[-0.10000+4*0.00800]
G2 I-0.01650 J0
G1 Z[-0.10000+3*0.00800]
G2 I-0.01650 J0
G1 Z[-0.10000+2*0.00800]
G2 I-0.01650 J0
G1 Z[-0.10000+1*0.00800]
G2 I-0.01650 J0
G0 Z0.02000

G0 X2.52690 Y0.27490
G1 Z[-0.10000+12*0.00800]
G2 I-0.01650 J0
G1 Z[-0.10000+11*0.00800]
G2 I-0.01650 J0
G1 Z[-0.10000+10*0.00800]
G2 I-0.01650 J0
G1 Z[-0.10000+9*0.00800]
G2 I-0.01650 J0
G1 Z[-0.10000+8*0.00800]
G2 I-0.01650 J0
G1 Z[-0.10000+7*0.00800]
G2 I-0.01650 J0
G1 Z[-0.10000+6*0.00800]
G2 I-0.01650 J0
G1 Z[-0.10000+5*0.00800]
G2 I-0.01650 J0
G1 Z[-0.10000+4*0.00800]
G2 I-0.01650 J0
G1 Z[-0.10000+3*0.00800]
G2 I-0.01650 J0
G1 Z[-0.10000+2*0.00800]
G2 I-0.01650 J0
G1 Z[-0.10000+1*0.00800]
G2 I-0.01650 J0
G0 Z0.02000

G0 X3.14690 Y0.27490
G1 Z[-0.10000+12*0.00800]
G2 I-0.01650 J0
G1 Z[-0.10000+11*0.00800]
G2 I-0.01650 J0
G1 Z[-0.10000+10*0.00800]
G2 I-0.01650 J0
G1 Z[-0.10000+9*0.00800]
G2 I-0.01650 J0
G1 Z[-0.10000+8*0.00800]
G2 I-0.01650 J0
G1 Z[-0.10000+7*0.00800]
G2 I-0.01650 J0
G1 Z[-0.10000+6*0.00800]
G2 I-0.01650 J0
G1 Z[-0.10000+5*0.00800]
G2 I-0.01650 J0
G1 Z[-0.10000+4*0.00800]
G2 I-0.01650 J0
G1 Z[-0.10000+3*0.00800]
G2 I-0.01650 J0
G1 Z[-0.10000+2*0.00800]
G2 I-0.01650 J0
G1 Z[-0.10000+1*0.00800]
G2 I-0.01650 J0
G0 Z0.02000

G0 X0.08500 Y0.21500
G1 Z-0.10000
G0 Z0.02000

G0 X0.18500 Y0.41500
G1 Z-0.10000
G0 Z0.02000

G0 X0.08500 Y0.71500
G1 Z-0.10000
G0 Z0.02000

G0 X0.52500 Y0.88500
G1 Z-0.10000
G0 Z0.02000

G0 X0.72500 Y0.88500
G1 Z-0.10000
G0 Z0.02000

G0 X2.12000 Y1.34500
G1 Z-0.10000
G0 Z0.02000

G0 X2.32000 Y1.34500
G1 Z-0.10000
G0 Z0.02000

G0 X1.73000 Y1.09500
G1 Z[-0.10000+12*0.00800]
G2 I-0.01000 J0
G1 Z[-0.10000+11*0.00800]
G2 I-0.01000 J0
G1 Z[-0.10000+10*0.00800]
G2 I-0.01000 J0
G1 Z[-0.10000+9*0.00800]
G2 I-0.01000 J0
G1 Z[-0.10000+8*0.00800]
G2 I-0.01000 J0
G1 Z[-0.10000+7*0.00800]
G2 I-0.01000 J0
G1 Z[-0.10000+6*0.00800]
G2 I-0.01000 J0
G1 Z[-0.10000+5*0.00800]
G2 I-0.01000 J0
G1 Z[-0.10000+4*0.00800]
G2 I-0.01000 J0
G1 Z[-0.10000+3*0.00800]
G2 I-0.01000 J0
G1 Z[-0.10000+2*0.00800]
G2 I-0.01000 J0
G1 Z[-0.10000+1*0.00800]
G2 I-0.01000 J0
G0 Z0.02000

G0 X1.73000 Y1.39500
G1 Z[-0.10000+12*0.00800]
G2 I-0.01000 J0
G1 Z[-0.10000+11*0.00800]
G2 I-0.01000 J0
G1 Z[-0.10000+10*0.00800]
G2 I-0.01000 J0
G1 Z[-0.10000+9*0.00800]
G2 I-0.01000 J0
G1 Z[-0.10000+8*0.00800]
G2 I-0.01000 J0
G1 Z[-0.10000+7*0.00800]
G2 I-0.01000 J0
G1 Z[-0.10000+6*0.00800]
G2 I-0.01000 J0
G1 Z[-0.10000+5*0.00800]
G2 I-0.01000 J0
G1 Z[-0.10000+4*0.00800]
G2 I-0.01000 J0
G1 Z[-0.10000+3*0.00800]
G2 I-0.01000 J0
G1 Z[-0.10000+2*0.00800]
G2 I-0.01000 J0
G1 Z[-0.10000+1*0.00800]
G2 I-0.01000 J0
G0 Z0.02000

G0 X0.11500 Y1.46000
G1 Z[-0.10000+12*0.00800]
G2 I-0.01500 J0
G1 Z[-0.10000+11*0.00800]
G2 I-0.01500 J0
G1 Z[-0.10000+10*0.00800]
G2 I-0.01500 J0
G1 Z[-0.10000+9*0.00800]
G2 I-0.01500 J0
G1 Z[-0.10000+8*0.00800]
G2 I-0.01500 J0
G1 Z[-0.10000+7*0.00800]
G2 I-0.01500 J0
G1 Z[-0.10000+6*0.00800]
G2 I-0.01500 J0
G1 Z[-0.10000+5*0.00800]
G2 I-0.01500 J0
G1 Z[-0.10000+4*0.00800]
G2 I-0.01500 J0
G1 Z[-0.10000+3*0.00800]
G2 I-0.01500 J0
G1 Z[-0.10000+2*0.00800]
G2 I-0.01500 J0
G1 Z[-0.10000+1*0.00800]
G2 I-0.01500 J0
G0 Z0.02000

G0 X0.21500 Y1.46000
G1 Z[-0.10000+12*0.00800]
G2 I-0.01500 J0
G1 Z[-0.10000+11*0.00800]
G2 I-0.01500 J0
G1 Z[-0.10000+10*0.00800]
G2 I-0.01500 J0
G1 Z[-0.10000+9*0.00800]
G2 I-0.01500 J0
G1 Z[-0.10000+8*0.00800]
G2 I-0.01500 J0
G1 Z[-0.10000+7*0.00800]
G2 I-0.01500 J0
G1 Z[-0.10000+6*0.00800]
G2 I-0.01500 J0
G1 Z[-0.10000+5*0.00800]
G2 I-0.01500 J0
G1 Z[-0.10000+4*0.00800]
G2 I-0.01500 J0
G1 Z[-0.10000+3*0.00800]
G2 I-0.01500 J0
G1 Z[-0.10000+2*0.00800]
G2 I-0.01500 J0
G1 Z[-0.10000+1*0.00800]
G2 I-0.01500 J0
G0 Z0.02000

G0 X0.31500 Y1.46000
G1 Z[-0.10000+12*0.00800]
G2 I-0.01500 J0
G1 Z[-0.10000+11*0.00800]
G2 I-0.01500 J0
G1 Z[-0.10000+10*0.00800]
G2 I-0.01500 J0
G1 Z[-0.10000+9*0.00800]
G2 I-0.01500 J0
G1 Z[-0.10000+8*0.00800]
G2 I-0.01500 J0
G1 Z[-0.10000+7*0.00800]
G2 I-0.01500 J0
G1 Z[-0.10000+6*0.00800]
G2 I-0.01500 J0
G1 Z[-0.10000+5*0.00800]
G2 I-0.01500 J0
G1 Z[-0.10000+4*0.00800]
G2 I-0.01500 J0
G1 Z[-0.10000+3*0.00800]
G2 I-0.01500 J0
G1 Z[-0.10000+2*0.00800]
G2 I-0.01500 J0
G1 Z[-0.10000+1*0.00800]
G2 I-0.01500 J0
G0 Z0.02000

G0 X0.25000 Y2.13000
G1 Z[-0.10000+12*0.00800]
G2 I-0.05000 J0
G1 Z[-0.10000+11*0.00800]
G2 I-0.05000 J0
G1 Z[-0.10000+10*0.00800]
G2 I-0.05000 J0
G1 Z[-0.10000+9*0.00800]
G2 I-0.05000 J0
G1 Z[-0.10000+8*0.00800]
G2 I-0.05000 J0
G1 Z[-0.10000+7*0.00800]
G2 I-0.05000 J0
G1 Z[-0.10000+6*0.00800]
G2 I-0.05000 J0
G1 Z[-0.10000+5*0.00800]
G2 I-0.05000 J0
G1 Z[-0.10000+4*0.00800]
G2 I-0.05000 J0
G1 Z[-0.10000+3*0.00800]
G2 I-0.05000 J0
G1 Z[-0.10000+2*0.00800]
G2 I-0.05000 J0
G1 Z[-0.10000+1*0.00800]
G2 I-0.05000 J0
G0 Z0.02000

G0 X1.22350 Y0.25000
G1 Z[-0.10000+12*0.00800]
G2 I-0.07850 J0
G1 Z[-0.10000+11*0.00800]
G2 I-0.07850 J0
G1 Z[-0.10000+10*0.00800]
G2 I-0.07850 J0
G1 Z[-0.10000+9*0.00800]
G2 I-0.07850 J0
G1 Z[-0.10000+8*0.00800]
G2 I-0.07850 J0
G1 Z[-0.10000+7*0.00800]
G2 I-0.07850 J0
G1 Z[-0.10000+6*0.00800]
G2 I-0.07850 J0
G1 Z[-0.10000+5*0.00800]
G2 I-0.07850 J0
G1 Z[-0.10000+4*0.00800]
G2 I-0.07850 J0
G1 Z[-0.10000+3*0.00800]
G2 I-0.07850 J0
G1 Z[-0.10000+2*0.00800]
G2 I-0.07850 J0
G1 Z[-0.10000+1*0.00800]
G2 I-0.07850 J0
G0 Z0.02000

G0 X1.22350 Y0.53350
G1 Z[-0.10000+12*0.00800]
G2 I-0.07850 J0
G1 Z[-0.10000+11*0.00800]
G2 I-0.07850 J0
G1 Z[-0.10000+10*0.00800]
G2 I-0.07850 J0
G1 Z[-0.10000+9*0.00800]
G2 I-0.07850 J0
G1 Z[-0.10000+8*0.00800]
G2 I-0.07850 J0
G1 Z[-0.10000+7*0.00800]
G2 I-0.07850 J0
G1 Z[-0.10000+6*0.00800]
G2 I-0.07850 J0
G1 Z[-0.10000+5*0.00800]
G2 I-0.07850 J0
G1 Z[-0.10000+4*0.00800]
G2 I-0.07850 J0
G1 Z[-0.10000+3*0.00800]
G2 I-0.07850 J0
G1 Z[-0.10000+2*0.00800]
G2 I-0.07850 J0
G1 Z[-0.10000+1*0.00800]
G2 I-0.07850 J0
G0 Z0.02000

G0 X1.65350 Y0.53350
G1 Z[-0.10000+12*0.00800]
G2 I-0.07850 J0
G1 Z[-0.10000+11*0.00800]
G2 I-0.07850 J0
G1 Z[-0.10000+10*0.00800]
G2 I-0.07850 J0
G1 Z[-0.10000+9*0.00800]
G2 I-0.07850 J0
G1 Z[-0.10000+8*0.00800]
G2 I-0.07850 J0
G1 Z[-0.10000+7*0.00800]
G2 I-0.07850 J0
G1 Z[-0.10000+6*0.00800]
G2 I-0.07850 J0
G1 Z[-0.10000+5*0.00800]
G2 I-0.07850 J0
G1 Z[-0.10000+4*0.00800]
G2 I-0.07850 J0
G1 Z[-0.10000+3*0.00800]
G2 I-0.07850 J0
G1 Z[-0.10000+2*0.00800]
G2 I-0.07850 J0
G1 Z[-0.10000+1*0.00800]
G2 I-0.07850 J0
G0 Z0.02000

G0 X1.65350 Y0.25000
G1 Z[-0.10000+12*0.00800]
G2 I-0.07850 J0
G1 Z[-0.10000+11*0.00800]
G2 I-0.07850 J0
G1 Z[-0.10000+10*0.00800]
G2 I-0.07850 J0
G1 Z[-0.10000+9*0.00800]
G2 I-0.07850 J0
G1 Z[-0.10000+8*0.00800]
G2 I-0.07850 J0
G1 Z[-0.10000+7*0.00800]
G2 I-0.07850 J0
G1 Z[-0.10000+6*0.00800]
G2 I-0.07850 J0
G1 Z[-0.10000+5*0.00800]
G2 I-0.07850 J0
G1 Z[-0.10000+4*0.00800]
G2 I-0.07850 J0
G1 Z[-0.10000+3*0.00800]
G2 I-0.07850 J0
G1 Z[-0.10000+2*0.00800]
G2 I-0.07850 J0
G1 Z[-0.10000+1*0.00800]
G2 I-0.07850 J0
G0 Z0.02000

G0 X0.64500 Y0.29000
G1 Z-0.10000
G0 Z0.02000

G0 X0.63500 Y0.52500
G1 Z-0.10000
G0 Z0.02000

G0 X0.36000 Y0.75000
G1 Z-0.10000
G0 Z0.02000

G0 X0.40000 Y0.91000
G1 Z-0.10000
G0 Z0.02000

G0 X0.28500 Y1.05000
G1 Z-0.10000
G0 Z0.02000

G0 X0.07500 Y0.95000
G1 Z-0.10000
G0 Z0.02000

G0 X0.59500 Y1.23500
G1 Z-0.10000
G0 Z0.02000

G0 X1.29500 Y0.99030
G1 Z-0.10000
G0 Z0.02000

G0 X1.36500 Y0.43500
G1 Z-0.10000
G0 Z0.02000

G0 X1.92500 Y1.20000
G1 Z-0.10000
G0 Z0.02000

G0 X2.40500 Y0.63500
G1 Z-0.10000
G0 Z0.02000

G0 X2.54500 Y0.75500
G1 Z-0.10000
G0 Z0.02000

G0 X2.94000 Y1.05000
G1 Z-0.10000
G0 Z0.02000

G0 X3.15000 Y0.92000
G1 Z-0.10000
G0 Z0.02000

G0 X2.73500 Y1.32500
G1 Z-0.10000
G0 Z0.02000

G0 X0.95250 Y0.79000
G1 Z[-0.10000+12*0.00800]
G2 I-0.00250 J0
G1 Z[-0.10000+11*0.00800]
G2 I-0.00250 J0
G1 Z[-0.10000+10*0.00800]
G2 I-0.00250 J0
G1 Z[-0.10000+9*0.00800]
G2 I-0.00250 J0
G1 Z[-0.10000+8*0.00800]
G2 I-0.00250 J0
G1 Z[-0.10000+7*0.00800]
G2 I-0.00250 J0
G1 Z[-0.10000+6*0.00800]
G2 I-0.00250 J0
G1 Z[-0.10000+5*0.00800]
G2 I-0.00250 J0
G1 Z[-0.10000+4*0.00800]
G2 I-0.00250 J0
G1 Z[-0.10000+3*0.00800]
G2 I-0.00250 J0
G1 Z[-0.10000+2*0.00800]
G2 I-0.00250 J0
G1 Z[-0.10000+1*0.00800]
G2 I-0.00250 J0
G0 Z0.02000

G0 X1.20750 Y0.82000
G1 Z[-0.10000+12*0.00800]
G2 I-0.00250 J0
G1 Z[-0.10000+11*0.00800]
G2 I-0.00250 J0
G1 Z[-0.10000+10*0.00800]
G2 I-0.00250 J0
G1 Z[-0.10000+9*0.00800]
G2 I-0.00250 J0
G1 Z[-0.10000+8*0.00800]
G2 I-0.00250 J0
G1 Z[-0.10000+7*0.00800]
G2 I-0.00250 J0
G1 Z[-0.10000+6*0.00800]
G2 I-0.00250 J0
G1 Z[-0.10000+5*0.00800]
G2 I-0.00250 J0
G1 Z[-0.10000+4*0.00800]
G2 I-0.00250 J0
G1 Z[-0.10000+3*0.00800]
G2 I-0.00250 J0
G1 Z[-0.10000+2*0.00800]
G2 I-0.00250 J0
G1 Z[-0.10000+1*0.00800]
G2 I-0.00250 J0
G0 Z0.02000

G0 X1.30250 Y0.81000
G1 Z[-0.10000+12*0.00800]
G2 I-0.00250 J0
G1 Z[-0.10000+11*0.00800]
G2 I-0.00250 J0
G1 Z[-0.10000+10*0.00800]
G2 I-0.00250 J0
G1 Z[-0.10000+9*0.00800]
G2 I-0.00250 J0
G1 Z[-0.10000+8*0.00800]
G2 I-0.00250 J0
G1 Z[-0.10000+7*0.00800]
G2 I-0.00250 J0
G1 Z[-0.10000+6*0.00800]
G2 I-0.00250 J0
G1 Z[-0.10000+5*0.00800]
G2 I-0.00250 J0
G1 Z[-0.10000+4*0.00800]
G2 I-0.00250 J0
G1 Z[-0.10000+3*0.00800]
G2 I-0.00250 J0
G1 Z[-0.10000+2*0.00800]
G2 I-0.00250 J0
G1 Z[-0.10000+1*0.00800]
G2 I-0.00250 J0
G0 Z0.02000

G0 X1.36250 Y0.67500
G1 Z[-0.10000+12*0.00800]
G2 I-0.00250 J0
G1 Z[-0.10000+11*0.00800]
G2 I-0.00250 J0
G1 Z[-0.10000+10*0.00800]
G2 I-0.00250 J0
G1 Z[-0.10000+9*0.00800]
G2 I-0.00250 J0
G1 Z[-0.10000+8*0.00800]
G2 I-0.00250 J0
G1 Z[-0.10000+7*0.00800]
G2 I-0.00250 J0
G1 Z[-0.10000+6*0.00800]
G2 I-0.00250 J0
G1 Z[-0.10000+5*0.00800]
G2 I-0.00250 J0
G1 Z[-0.10000+4*0.00800]
G2 I-0.00250 J0
G1 Z[-0.10000+3*0.00800]
G2 I-0.00250 J0
G1 Z[-0.10000+2*0.00800]
G2 I-0.00250 J0
G1 Z[-0.10000+1*0.00800]
G2 I-0.00250 J0
G0 Z0.02000

G0 X2.01750 Y0.59000
G1 Z[-0.10000+12*0.00800]
G2 I-0.00250 J0
G1 Z[-0.10000+11*0.00800]
G2 I-0.00250 J0
G1 Z[-0.10000+10*0.00800]
G2 I-0.00250 J0
G1 Z[-0.10000+9*0.00800]
G2 I-0.00250 J0
G1 Z[-0.10000+8*0.00800]
G2 I-0.00250 J0
G1 Z[-0.10000+7*0.00800]
G2 I-0.00250 J0
G1 Z[-0.10000+6*0.00800]
G2 I-0.00250 J0
G1 Z[-0.10000+5*0.00800]
G2 I-0.00250 J0
G1 Z[-0.10000+4*0.00800]
G2 I-0.00250 J0
G1 Z[-0.10000+3*0.00800]
G2 I-0.00250 J0
G1 Z[-0.10000+2*0.00800]
G2 I-0.00250 J0
G1 Z[-0.10000+1*0.00800]
G2 I-0.00250 J0
G0 Z0.02000

G00 Z0.02000 ( All done -- retract )
M5      (Spindle off.)
M9      (Coolant off.)
M2      (Program end.)

