( pcb2gcode 1.2.2 )
( Software-independent Gcode )
      
G94 ( Inches per minute feed rate. )
G20 ( Units == INCHES. )

G90 ( Absolute coordinates. )
S10000 ( RPM spindle speed. )
G64 P0.00200 ( set maximum deviation from commanded toolpath )
F1.75000 ( Feedrate. )

F1.75000 ( Feedrate. )
M3 ( Spindle on clockwise. )
G04 P0 ( dwell for no time -- G64 should not smooth over this point )
G00 Z0.02000 ( retract )

G00 X3.30000 Y1.59400 ( rapid move to begin. )
G01 Z-0.01500 F0.87500 ( plunge. )
G04 P0 ( dwell for no time -- G64 should not smooth over this point )
F1.75000
X3.30000 Y1.59400
X3.30000 Y-0.04800
X3.29900 Y-0.04800
X3.29900 Y-0.04900
X3.29800 Y-0.04900
X3.29800 Y-0.05000
X3.29700 Y-0.05000
X3.29700 Y-0.05100
X-0.09800 Y-0.05100
X-0.09800 Y-0.05000
X-0.09900 Y-0.05000
X-0.09900 Y-0.04900
X-0.10000 Y-0.04900
X-0.10000 Y-0.04800
X-0.10100 Y-0.04800
X-0.10100 Y1.69200
X-0.10000 Y1.69200
X-0.10000 Y1.69300
X-0.09900 Y1.69300
X-0.09900 Y1.69400
X-0.09800 Y1.69400
X-0.09800 Y1.69500
X3.29700 Y1.69500
X3.29700 Y1.69400
X3.29800 Y1.69400
X3.29800 Y1.69300
X3.29900 Y1.69300
X3.29900 Y1.69200
X3.30000 Y1.69200
X3.30000 Y1.59400
G01 Z-0.05000 F0.87500 ( plunge. )
G04 P0 ( dwell for no time -- G64 should not smooth over this point )
F1.75000
X3.30000 Y1.59400
X3.30000 Y-0.04800
X3.29900 Y-0.04800
X3.29900 Y-0.04900
X3.29800 Y-0.04900
X3.29800 Y-0.05000
X3.29700 Y-0.05000
X3.29700 Y-0.05100
X-0.09800 Y-0.05100
X-0.09800 Y-0.05000
X-0.09900 Y-0.05000
X-0.09900 Y-0.04900
X-0.10000 Y-0.04900
X-0.10000 Y-0.04800
X-0.10100 Y-0.04800
X-0.10100 Y1.69200
X-0.10000 Y1.69200
X-0.10000 Y1.69300
X-0.09900 Y1.69300
X-0.09900 Y1.69400
X-0.09800 Y1.69400
X-0.09800 Y1.69500
X3.29700 Y1.69500
X3.29700 Y1.69400
X3.29800 Y1.69400
X3.29800 Y1.69300
X3.29900 Y1.69300
X3.29900 Y1.69200
X3.30000 Y1.69200
X3.30000 Y1.59400
G01 Z-0.08500 F0.87500 ( plunge. )
G04 P0 ( dwell for no time -- G64 should not smooth over this point )
F1.75000
X3.30000 Y1.59400
X3.30000 Y-0.04800
X3.29900 Y-0.04800
X3.29900 Y-0.04900
X3.29800 Y-0.04900
X3.29800 Y-0.05000
X3.29700 Y-0.05000
X3.29700 Y-0.05100
X-0.09800 Y-0.05100
X-0.09800 Y-0.05000
X-0.09900 Y-0.05000
X-0.09900 Y-0.04900
X-0.10000 Y-0.04900
X-0.10000 Y-0.04800
X-0.10100 Y-0.04800
X-0.10100 Y1.69200
X-0.10000 Y1.69200
X-0.10000 Y1.69300
X-0.09900 Y1.69300
X-0.09900 Y1.69400
X-0.09800 Y1.69400
X-0.09800 Y1.69500
X3.29700 Y1.69500
X3.29700 Y1.69400
X3.29800 Y1.69400
X3.29800 Y1.69300
X3.29900 Y1.69300
X3.29900 Y1.69200
X3.30000 Y1.69200
X3.30000 Y1.59400

G04 P0 ( dwell for no time -- G64 should not smooth over this point )
G00 Z0.02000 ( retract )

M5 ( Spindle off. )
M9 ( Coolant off. )
M2 ( Program end. )

