( pcb2gcode 1.2.2 )

( This file uses a mill head of 0.03000inch to drill the 8bit sizes. )
( Bit sizes: [0.03800] [0.03000] [0.18700] [0.03500] [0.12800] [0.06300] [0.02000] [0.03500] )

G94       (Inches per minute feed rate.)
G20       (Units == INCHES.)
G90       (Absolute coordinates.)
S10000    (RPM spindle speed.)
M3
G91.1
G0 Z0.10000
F1.00000 (Feedrate)

G00 Z0.02000
G0 X0.11400 Y0.47000
G1 Z[-0.10000+12*0.00800]
G2 I-0.00400 J0
G1 Z[-0.10000+11*0.00800]
G2 I-0.00400 J0
G1 Z[-0.10000+10*0.00800]
G2 I-0.00400 J0
G1 Z[-0.10000+9*0.00800]
G2 I-0.00400 J0
G1 Z[-0.10000+8*0.00800]
G2 I-0.00400 J0
G1 Z[-0.10000+7*0.00800]
G2 I-0.00400 J0
G1 Z[-0.10000+6*0.00800]
G2 I-0.00400 J0
G1 Z[-0.10000+5*0.00800]
G2 I-0.00400 J0
G1 Z[-0.10000+4*0.00800]
G2 I-0.00400 J0
G1 Z[-0.10000+3*0.00800]
G2 I-0.00400 J0
G1 Z[-0.10000+2*0.00800]
G2 I-0.00400 J0
G1 Z[-0.10000+1*0.00800]
G2 I-0.00400 J0
G0 Z0.02000

G0 X0.11400 Y0.57000
G1 Z[-0.10000+12*0.00800]
G2 I-0.00400 J0
G1 Z[-0.10000+11*0.00800]
G2 I-0.00400 J0
G1 Z[-0.10000+10*0.00800]
G2 I-0.00400 J0
G1 Z[-0.10000+9*0.00800]
G2 I-0.00400 J0
G1 Z[-0.10000+8*0.00800]
G2 I-0.00400 J0
G1 Z[-0.10000+7*0.00800]
G2 I-0.00400 J0
G1 Z[-0.10000+6*0.00800]
G2 I-0.00400 J0
G1 Z[-0.10000+5*0.00800]
G2 I-0.00400 J0
G1 Z[-0.10000+4*0.00800]
G2 I-0.00400 J0
G1 Z[-0.10000+3*0.00800]
G2 I-0.00400 J0
G1 Z[-0.10000+2*0.00800]
G2 I-0.00400 J0
G1 Z[-0.10000+1*0.00800]
G2 I-0.00400 J0
G0 Z0.02000

G0 X0.11400 Y0.69500
G1 Z[-0.10000+12*0.00800]
G2 I-0.00400 J0
G1 Z[-0.10000+11*0.00800]
G2 I-0.00400 J0
G1 Z[-0.10000+10*0.00800]
G2 I-0.00400 J0
G1 Z[-0.10000+9*0.00800]
G2 I-0.00400 J0
G1 Z[-0.10000+8*0.00800]
G2 I-0.00400 J0
G1 Z[-0.10000+7*0.00800]
G2 I-0.00400 J0
G1 Z[-0.10000+6*0.00800]
G2 I-0.00400 J0
G1 Z[-0.10000+5*0.00800]
G2 I-0.00400 J0
G1 Z[-0.10000+4*0.00800]
G2 I-0.00400 J0
G1 Z[-0.10000+3*0.00800]
G2 I-0.00400 J0
G1 Z[-0.10000+2*0.00800]
G2 I-0.00400 J0
G1 Z[-0.10000+1*0.00800]
G2 I-0.00400 J0
G0 Z0.02000

G0 X0.11400 Y0.79500
G1 Z[-0.10000+12*0.00800]
G2 I-0.00400 J0
G1 Z[-0.10000+11*0.00800]
G2 I-0.00400 J0
G1 Z[-0.10000+10*0.00800]
G2 I-0.00400 J0
G1 Z[-0.10000+9*0.00800]
G2 I-0.00400 J0
G1 Z[-0.10000+8*0.00800]
G2 I-0.00400 J0
G1 Z[-0.10000+7*0.00800]
G2 I-0.00400 J0
G1 Z[-0.10000+6*0.00800]
G2 I-0.00400 J0
G1 Z[-0.10000+5*0.00800]
G2 I-0.00400 J0
G1 Z[-0.10000+4*0.00800]
G2 I-0.00400 J0
G1 Z[-0.10000+3*0.00800]
G2 I-0.00400 J0
G1 Z[-0.10000+2*0.00800]
G2 I-0.00400 J0
G1 Z[-0.10000+1*0.00800]
G2 I-0.00400 J0
G0 Z0.02000

G0 X0.70400 Y1.48500
G1 Z[-0.10000+12*0.00800]
G2 I-0.00400 J0
G1 Z[-0.10000+11*0.00800]
G2 I-0.00400 J0
G1 Z[-0.10000+10*0.00800]
G2 I-0.00400 J0
G1 Z[-0.10000+9*0.00800]
G2 I-0.00400 J0
G1 Z[-0.10000+8*0.00800]
G2 I-0.00400 J0
G1 Z[-0.10000+7*0.00800]
G2 I-0.00400 J0
G1 Z[-0.10000+6*0.00800]
G2 I-0.00400 J0
G1 Z[-0.10000+5*0.00800]
G2 I-0.00400 J0
G1 Z[-0.10000+4*0.00800]
G2 I-0.00400 J0
G1 Z[-0.10000+3*0.00800]
G2 I-0.00400 J0
G1 Z[-0.10000+2*0.00800]
G2 I-0.00400 J0
G1 Z[-0.10000+1*0.00800]
G2 I-0.00400 J0
G0 Z0.02000

G0 X0.70400 Y1.58500
G1 Z[-0.10000+12*0.00800]
G2 I-0.00400 J0
G1 Z[-0.10000+11*0.00800]
G2 I-0.00400 J0
G1 Z[-0.10000+10*0.00800]
G2 I-0.00400 J0
G1 Z[-0.10000+9*0.00800]
G2 I-0.00400 J0
G1 Z[-0.10000+8*0.00800]
G2 I-0.00400 J0
G1 Z[-0.10000+7*0.00800]
G2 I-0.00400 J0
G1 Z[-0.10000+6*0.00800]
G2 I-0.00400 J0
G1 Z[-0.10000+5*0.00800]
G2 I-0.00400 J0
G1 Z[-0.10000+4*0.00800]
G2 I-0.00400 J0
G1 Z[-0.10000+3*0.00800]
G2 I-0.00400 J0
G1 Z[-0.10000+2*0.00800]
G2 I-0.00400 J0
G1 Z[-0.10000+1*0.00800]
G2 I-0.00400 J0
G0 Z0.02000

G0 X1.09900 Y1.58500
G1 Z[-0.10000+12*0.00800]
G2 I-0.00400 J0
G1 Z[-0.10000+11*0.00800]
G2 I-0.00400 J0
G1 Z[-0.10000+10*0.00800]
G2 I-0.00400 J0
G1 Z[-0.10000+9*0.00800]
G2 I-0.00400 J0
G1 Z[-0.10000+8*0.00800]
G2 I-0.00400 J0
G1 Z[-0.10000+7*0.00800]
G2 I-0.00400 J0
G1 Z[-0.10000+6*0.00800]
G2 I-0.00400 J0
G1 Z[-0.10000+5*0.00800]
G2 I-0.00400 J0
G1 Z[-0.10000+4*0.00800]
G2 I-0.00400 J0
G1 Z[-0.10000+3*0.00800]
G2 I-0.00400 J0
G1 Z[-0.10000+2*0.00800]
G2 I-0.00400 J0
G1 Z[-0.10000+1*0.00800]
G2 I-0.00400 J0
G0 Z0.02000

G0 X1.09900 Y1.48500
G1 Z[-0.10000+12*0.00800]
G2 I-0.00400 J0
G1 Z[-0.10000+11*0.00800]
G2 I-0.00400 J0
G1 Z[-0.10000+10*0.00800]
G2 I-0.00400 J0
G1 Z[-0.10000+9*0.00800]
G2 I-0.00400 J0
G1 Z[-0.10000+8*0.00800]
G2 I-0.00400 J0
G1 Z[-0.10000+7*0.00800]
G2 I-0.00400 J0
G1 Z[-0.10000+6*0.00800]
G2 I-0.00400 J0
G1 Z[-0.10000+5*0.00800]
G2 I-0.00400 J0
G1 Z[-0.10000+4*0.00800]
G2 I-0.00400 J0
G1 Z[-0.10000+3*0.00800]
G2 I-0.00400 J0
G1 Z[-0.10000+2*0.00800]
G2 I-0.00400 J0
G1 Z[-0.10000+1*0.00800]
G2 I-0.00400 J0
G0 Z0.02000

G0 X1.09900 Y1.38500
G1 Z[-0.10000+12*0.00800]
G2 I-0.00400 J0
G1 Z[-0.10000+11*0.00800]
G2 I-0.00400 J0
G1 Z[-0.10000+10*0.00800]
G2 I-0.00400 J0
G1 Z[-0.10000+9*0.00800]
G2 I-0.00400 J0
G1 Z[-0.10000+8*0.00800]
G2 I-0.00400 J0
G1 Z[-0.10000+7*0.00800]
G2 I-0.00400 J0
G1 Z[-0.10000+6*0.00800]
G2 I-0.00400 J0
G1 Z[-0.10000+5*0.00800]
G2 I-0.00400 J0
G1 Z[-0.10000+4*0.00800]
G2 I-0.00400 J0
G1 Z[-0.10000+3*0.00800]
G2 I-0.00400 J0
G1 Z[-0.10000+2*0.00800]
G2 I-0.00400 J0
G1 Z[-0.10000+1*0.00800]
G2 I-0.00400 J0
G0 Z0.02000

G0 X1.21400 Y1.38500
G1 Z[-0.10000+12*0.00800]
G2 I-0.00400 J0
G1 Z[-0.10000+11*0.00800]
G2 I-0.00400 J0
G1 Z[-0.10000+10*0.00800]
G2 I-0.00400 J0
G1 Z[-0.10000+9*0.00800]
G2 I-0.00400 J0
G1 Z[-0.10000+8*0.00800]
G2 I-0.00400 J0
G1 Z[-0.10000+7*0.00800]
G2 I-0.00400 J0
G1 Z[-0.10000+6*0.00800]
G2 I-0.00400 J0
G1 Z[-0.10000+5*0.00800]
G2 I-0.00400 J0
G1 Z[-0.10000+4*0.00800]
G2 I-0.00400 J0
G1 Z[-0.10000+3*0.00800]
G2 I-0.00400 J0
G1 Z[-0.10000+2*0.00800]
G2 I-0.00400 J0
G1 Z[-0.10000+1*0.00800]
G2 I-0.00400 J0
G0 Z0.02000

G0 X1.21400 Y1.48500
G1 Z[-0.10000+12*0.00800]
G2 I-0.00400 J0
G1 Z[-0.10000+11*0.00800]
G2 I-0.00400 J0
G1 Z[-0.10000+10*0.00800]
G2 I-0.00400 J0
G1 Z[-0.10000+9*0.00800]
G2 I-0.00400 J0
G1 Z[-0.10000+8*0.00800]
G2 I-0.00400 J0
G1 Z[-0.10000+7*0.00800]
G2 I-0.00400 J0
G1 Z[-0.10000+6*0.00800]
G2 I-0.00400 J0
G1 Z[-0.10000+5*0.00800]
G2 I-0.00400 J0
G1 Z[-0.10000+4*0.00800]
G2 I-0.00400 J0
G1 Z[-0.10000+3*0.00800]
G2 I-0.00400 J0
G1 Z[-0.10000+2*0.00800]
G2 I-0.00400 J0
G1 Z[-0.10000+1*0.00800]
G2 I-0.00400 J0
G0 Z0.02000

G0 X1.21400 Y1.58500
G1 Z[-0.10000+12*0.00800]
G2 I-0.00400 J0
G1 Z[-0.10000+11*0.00800]
G2 I-0.00400 J0
G1 Z[-0.10000+10*0.00800]
G2 I-0.00400 J0
G1 Z[-0.10000+9*0.00800]
G2 I-0.00400 J0
G1 Z[-0.10000+8*0.00800]
G2 I-0.00400 J0
G1 Z[-0.10000+7*0.00800]
G2 I-0.00400 J0
G1 Z[-0.10000+6*0.00800]
G2 I-0.00400 J0
G1 Z[-0.10000+5*0.00800]
G2 I-0.00400 J0
G1 Z[-0.10000+4*0.00800]
G2 I-0.00400 J0
G1 Z[-0.10000+3*0.00800]
G2 I-0.00400 J0
G1 Z[-0.10000+2*0.00800]
G2 I-0.00400 J0
G1 Z[-0.10000+1*0.00800]
G2 I-0.00400 J0
G0 Z0.02000

G0 X1.32900 Y1.58500
G1 Z[-0.10000+12*0.00800]
G2 I-0.00400 J0
G1 Z[-0.10000+11*0.00800]
G2 I-0.00400 J0
G1 Z[-0.10000+10*0.00800]
G2 I-0.00400 J0
G1 Z[-0.10000+9*0.00800]
G2 I-0.00400 J0
G1 Z[-0.10000+8*0.00800]
G2 I-0.00400 J0
G1 Z[-0.10000+7*0.00800]
G2 I-0.00400 J0
G1 Z[-0.10000+6*0.00800]
G2 I-0.00400 J0
G1 Z[-0.10000+5*0.00800]
G2 I-0.00400 J0
G1 Z[-0.10000+4*0.00800]
G2 I-0.00400 J0
G1 Z[-0.10000+3*0.00800]
G2 I-0.00400 J0
G1 Z[-0.10000+2*0.00800]
G2 I-0.00400 J0
G1 Z[-0.10000+1*0.00800]
G2 I-0.00400 J0
G0 Z0.02000

G0 X1.32900 Y1.48500
G1 Z[-0.10000+12*0.00800]
G2 I-0.00400 J0
G1 Z[-0.10000+11*0.00800]
G2 I-0.00400 J0
G1 Z[-0.10000+10*0.00800]
G2 I-0.00400 J0
G1 Z[-0.10000+9*0.00800]
G2 I-0.00400 J0
G1 Z[-0.10000+8*0.00800]
G2 I-0.00400 J0
G1 Z[-0.10000+7*0.00800]
G2 I-0.00400 J0
G1 Z[-0.10000+6*0.00800]
G2 I-0.00400 J0
G1 Z[-0.10000+5*0.00800]
G2 I-0.00400 J0
G1 Z[-0.10000+4*0.00800]
G2 I-0.00400 J0
G1 Z[-0.10000+3*0.00800]
G2 I-0.00400 J0
G1 Z[-0.10000+2*0.00800]
G2 I-0.00400 J0
G1 Z[-0.10000+1*0.00800]
G2 I-0.00400 J0
G0 Z0.02000

G0 X1.32900 Y1.38500
G1 Z[-0.10000+12*0.00800]
G2 I-0.00400 J0
G1 Z[-0.10000+11*0.00800]
G2 I-0.00400 J0
G1 Z[-0.10000+10*0.00800]
G2 I-0.00400 J0
G1 Z[-0.10000+9*0.00800]
G2 I-0.00400 J0
G1 Z[-0.10000+8*0.00800]
G2 I-0.00400 J0
G1 Z[-0.10000+7*0.00800]
G2 I-0.00400 J0
G1 Z[-0.10000+6*0.00800]
G2 I-0.00400 J0
G1 Z[-0.10000+5*0.00800]
G2 I-0.00400 J0
G1 Z[-0.10000+4*0.00800]
G2 I-0.00400 J0
G1 Z[-0.10000+3*0.00800]
G2 I-0.00400 J0
G1 Z[-0.10000+2*0.00800]
G2 I-0.00400 J0
G1 Z[-0.10000+1*0.00800]
G2 I-0.00400 J0
G0 Z0.02000

G0 X0.23000 Y0.22000
G1 Z-0.10000
G0 Z0.02000

G0 X0.33000 Y0.42000
G1 Z-0.10000
G0 Z0.02000

G0 X0.56500 Y0.42000
G1 Z-0.10000
G0 Z0.02000

G0 X0.46500 Y0.22000
G1 Z-0.10000
G0 Z0.02000

G0 X0.46500 Y0.72000
G1 Z-0.10000
G0 Z0.02000

G0 X0.23000 Y0.72000
G1 Z-0.10000
G0 Z0.02000

G0 X1.00000 Y0.21000
G1 Z[-0.10000+12*0.00800]
G2 I-0.07850 J0
G1 Z[-0.10000+11*0.00800]
G2 I-0.07850 J0
G1 Z[-0.10000+10*0.00800]
G2 I-0.07850 J0
G1 Z[-0.10000+9*0.00800]
G2 I-0.07850 J0
G1 Z[-0.10000+8*0.00800]
G2 I-0.07850 J0
G1 Z[-0.10000+7*0.00800]
G2 I-0.07850 J0
G1 Z[-0.10000+6*0.00800]
G2 I-0.07850 J0
G1 Z[-0.10000+5*0.00800]
G2 I-0.07850 J0
G1 Z[-0.10000+4*0.00800]
G2 I-0.07850 J0
G1 Z[-0.10000+3*0.00800]
G2 I-0.07850 J0
G1 Z[-0.10000+2*0.00800]
G2 I-0.07850 J0
G1 Z[-0.10000+1*0.00800]
G2 I-0.07850 J0
G0 Z0.02000

G0 X1.28350 Y0.21000
G1 Z[-0.10000+12*0.00800]
G2 I-0.07850 J0
G1 Z[-0.10000+11*0.00800]
G2 I-0.07850 J0
G1 Z[-0.10000+10*0.00800]
G2 I-0.07850 J0
G1 Z[-0.10000+9*0.00800]
G2 I-0.07850 J0
G1 Z[-0.10000+8*0.00800]
G2 I-0.07850 J0
G1 Z[-0.10000+7*0.00800]
G2 I-0.07850 J0
G1 Z[-0.10000+6*0.00800]
G2 I-0.07850 J0
G1 Z[-0.10000+5*0.00800]
G2 I-0.07850 J0
G1 Z[-0.10000+4*0.00800]
G2 I-0.07850 J0
G1 Z[-0.10000+3*0.00800]
G2 I-0.07850 J0
G1 Z[-0.10000+2*0.00800]
G2 I-0.07850 J0
G1 Z[-0.10000+1*0.00800]
G2 I-0.07850 J0
G0 Z0.02000

G0 X0.54350 Y1.09500
G1 Z[-0.10000+12*0.00800]
G2 I-0.07850 J0
G1 Z[-0.10000+11*0.00800]
G2 I-0.07850 J0
G1 Z[-0.10000+10*0.00800]
G2 I-0.07850 J0
G1 Z[-0.10000+9*0.00800]
G2 I-0.07850 J0
G1 Z[-0.10000+8*0.00800]
G2 I-0.07850 J0
G1 Z[-0.10000+7*0.00800]
G2 I-0.07850 J0
G1 Z[-0.10000+6*0.00800]
G2 I-0.07850 J0
G1 Z[-0.10000+5*0.00800]
G2 I-0.07850 J0
G1 Z[-0.10000+4*0.00800]
G2 I-0.07850 J0
G1 Z[-0.10000+3*0.00800]
G2 I-0.07850 J0
G1 Z[-0.10000+2*0.00800]
G2 I-0.07850 J0
G1 Z[-0.10000+1*0.00800]
G2 I-0.07850 J0
G0 Z0.02000

G0 X0.26000 Y1.09500
G1 Z[-0.10000+12*0.00800]
G2 I-0.07850 J0
G1 Z[-0.10000+11*0.00800]
G2 I-0.07850 J0
G1 Z[-0.10000+10*0.00800]
G2 I-0.07850 J0
G1 Z[-0.10000+9*0.00800]
G2 I-0.07850 J0
G1 Z[-0.10000+8*0.00800]
G2 I-0.07850 J0
G1 Z[-0.10000+7*0.00800]
G2 I-0.07850 J0
G1 Z[-0.10000+6*0.00800]
G2 I-0.07850 J0
G1 Z[-0.10000+5*0.00800]
G2 I-0.07850 J0
G1 Z[-0.10000+4*0.00800]
G2 I-0.07850 J0
G1 Z[-0.10000+3*0.00800]
G2 I-0.07850 J0
G1 Z[-0.10000+2*0.00800]
G2 I-0.07850 J0
G1 Z[-0.10000+1*0.00800]
G2 I-0.07850 J0
G0 Z0.02000

G0 X0.71250 Y0.56000
G1 Z[-0.10000+12*0.00800]
G2 I-0.00250 J0
G1 Z[-0.10000+11*0.00800]
G2 I-0.00250 J0
G1 Z[-0.10000+10*0.00800]
G2 I-0.00250 J0
G1 Z[-0.10000+9*0.00800]
G2 I-0.00250 J0
G1 Z[-0.10000+8*0.00800]
G2 I-0.00250 J0
G1 Z[-0.10000+7*0.00800]
G2 I-0.00250 J0
G1 Z[-0.10000+6*0.00800]
G2 I-0.00250 J0
G1 Z[-0.10000+5*0.00800]
G2 I-0.00250 J0
G1 Z[-0.10000+4*0.00800]
G2 I-0.00250 J0
G1 Z[-0.10000+3*0.00800]
G2 I-0.00250 J0
G1 Z[-0.10000+2*0.00800]
G2 I-0.00250 J0
G1 Z[-0.10000+1*0.00800]
G2 I-0.00250 J0
G0 Z0.02000

G0 X0.71250 Y0.66000
G1 Z[-0.10000+12*0.00800]
G2 I-0.00250 J0
G1 Z[-0.10000+11*0.00800]
G2 I-0.00250 J0
G1 Z[-0.10000+10*0.00800]
G2 I-0.00250 J0
G1 Z[-0.10000+9*0.00800]
G2 I-0.00250 J0
G1 Z[-0.10000+8*0.00800]
G2 I-0.00250 J0
G1 Z[-0.10000+7*0.00800]
G2 I-0.00250 J0
G1 Z[-0.10000+6*0.00800]
G2 I-0.00250 J0
G1 Z[-0.10000+5*0.00800]
G2 I-0.00250 J0
G1 Z[-0.10000+4*0.00800]
G2 I-0.00250 J0
G1 Z[-0.10000+3*0.00800]
G2 I-0.00250 J0
G1 Z[-0.10000+2*0.00800]
G2 I-0.00250 J0
G1 Z[-0.10000+1*0.00800]
G2 I-0.00250 J0
G0 Z0.02000

G0 X0.71250 Y0.76000
G1 Z[-0.10000+12*0.00800]
G2 I-0.00250 J0
G1 Z[-0.10000+11*0.00800]
G2 I-0.00250 J0
G1 Z[-0.10000+10*0.00800]
G2 I-0.00250 J0
G1 Z[-0.10000+9*0.00800]
G2 I-0.00250 J0
G1 Z[-0.10000+8*0.00800]
G2 I-0.00250 J0
G1 Z[-0.10000+7*0.00800]
G2 I-0.00250 J0
G1 Z[-0.10000+6*0.00800]
G2 I-0.00250 J0
G1 Z[-0.10000+5*0.00800]
G2 I-0.00250 J0
G1 Z[-0.10000+4*0.00800]
G2 I-0.00250 J0
G1 Z[-0.10000+3*0.00800]
G2 I-0.00250 J0
G1 Z[-0.10000+2*0.00800]
G2 I-0.00250 J0
G1 Z[-0.10000+1*0.00800]
G2 I-0.00250 J0
G0 Z0.02000

G0 X0.71250 Y0.86000
G1 Z[-0.10000+12*0.00800]
G2 I-0.00250 J0
G1 Z[-0.10000+11*0.00800]
G2 I-0.00250 J0
G1 Z[-0.10000+10*0.00800]
G2 I-0.00250 J0
G1 Z[-0.10000+9*0.00800]
G2 I-0.00250 J0
G1 Z[-0.10000+8*0.00800]
G2 I-0.00250 J0
G1 Z[-0.10000+7*0.00800]
G2 I-0.00250 J0
G1 Z[-0.10000+6*0.00800]
G2 I-0.00250 J0
G1 Z[-0.10000+5*0.00800]
G2 I-0.00250 J0
G1 Z[-0.10000+4*0.00800]
G2 I-0.00250 J0
G1 Z[-0.10000+3*0.00800]
G2 I-0.00250 J0
G1 Z[-0.10000+2*0.00800]
G2 I-0.00250 J0
G1 Z[-0.10000+1*0.00800]
G2 I-0.00250 J0
G0 Z0.02000

G0 X0.81250 Y0.91000
G1 Z[-0.10000+12*0.00800]
G2 I-0.00250 J0
G1 Z[-0.10000+11*0.00800]
G2 I-0.00250 J0
G1 Z[-0.10000+10*0.00800]
G2 I-0.00250 J0
G1 Z[-0.10000+9*0.00800]
G2 I-0.00250 J0
G1 Z[-0.10000+8*0.00800]
G2 I-0.00250 J0
G1 Z[-0.10000+7*0.00800]
G2 I-0.00250 J0
G1 Z[-0.10000+6*0.00800]
G2 I-0.00250 J0
G1 Z[-0.10000+5*0.00800]
G2 I-0.00250 J0
G1 Z[-0.10000+4*0.00800]
G2 I-0.00250 J0
G1 Z[-0.10000+3*0.00800]
G2 I-0.00250 J0
G1 Z[-0.10000+2*0.00800]
G2 I-0.00250 J0
G1 Z[-0.10000+1*0.00800]
G2 I-0.00250 J0
G0 Z0.02000

G0 X0.81250 Y0.81000
G1 Z[-0.10000+12*0.00800]
G2 I-0.00250 J0
G1 Z[-0.10000+11*0.00800]
G2 I-0.00250 J0
G1 Z[-0.10000+10*0.00800]
G2 I-0.00250 J0
G1 Z[-0.10000+9*0.00800]
G2 I-0.00250 J0
G1 Z[-0.10000+8*0.00800]
G2 I-0.00250 J0
G1 Z[-0.10000+7*0.00800]
G2 I-0.00250 J0
G1 Z[-0.10000+6*0.00800]
G2 I-0.00250 J0
G1 Z[-0.10000+5*0.00800]
G2 I-0.00250 J0
G1 Z[-0.10000+4*0.00800]
G2 I-0.00250 J0
G1 Z[-0.10000+3*0.00800]
G2 I-0.00250 J0
G1 Z[-0.10000+2*0.00800]
G2 I-0.00250 J0
G1 Z[-0.10000+1*0.00800]
G2 I-0.00250 J0
G0 Z0.02000

G0 X0.81250 Y0.71000
G1 Z[-0.10000+12*0.00800]
G2 I-0.00250 J0
G1 Z[-0.10000+11*0.00800]
G2 I-0.00250 J0
G1 Z[-0.10000+10*0.00800]
G2 I-0.00250 J0
G1 Z[-0.10000+9*0.00800]
G2 I-0.00250 J0
G1 Z[-0.10000+8*0.00800]
G2 I-0.00250 J0
G1 Z[-0.10000+7*0.00800]
G2 I-0.00250 J0
G1 Z[-0.10000+6*0.00800]
G2 I-0.00250 J0
G1 Z[-0.10000+5*0.00800]
G2 I-0.00250 J0
G1 Z[-0.10000+4*0.00800]
G2 I-0.00250 J0
G1 Z[-0.10000+3*0.00800]
G2 I-0.00250 J0
G1 Z[-0.10000+2*0.00800]
G2 I-0.00250 J0
G1 Z[-0.10000+1*0.00800]
G2 I-0.00250 J0
G0 Z0.02000

G0 X0.81250 Y0.61000
G1 Z[-0.10000+12*0.00800]
G2 I-0.00250 J0
G1 Z[-0.10000+11*0.00800]
G2 I-0.00250 J0
G1 Z[-0.10000+10*0.00800]
G2 I-0.00250 J0
G1 Z[-0.10000+9*0.00800]
G2 I-0.00250 J0
G1 Z[-0.10000+8*0.00800]
G2 I-0.00250 J0
G1 Z[-0.10000+7*0.00800]
G2 I-0.00250 J0
G1 Z[-0.10000+6*0.00800]
G2 I-0.00250 J0
G1 Z[-0.10000+5*0.00800]
G2 I-0.00250 J0
G1 Z[-0.10000+4*0.00800]
G2 I-0.00250 J0
G1 Z[-0.10000+3*0.00800]
G2 I-0.00250 J0
G1 Z[-0.10000+2*0.00800]
G2 I-0.00250 J0
G1 Z[-0.10000+1*0.00800]
G2 I-0.00250 J0
G0 Z0.02000

G0 X1.10900 Y0.51000
G1 Z[-0.10000+12*0.00800]
G2 I-0.04900 J0
G1 Z[-0.10000+11*0.00800]
G2 I-0.04900 J0
G1 Z[-0.10000+10*0.00800]
G2 I-0.04900 J0
G1 Z[-0.10000+9*0.00800]
G2 I-0.04900 J0
G1 Z[-0.10000+8*0.00800]
G2 I-0.04900 J0
G1 Z[-0.10000+7*0.00800]
G2 I-0.04900 J0
G1 Z[-0.10000+6*0.00800]
G2 I-0.04900 J0
G1 Z[-0.10000+5*0.00800]
G2 I-0.04900 J0
G1 Z[-0.10000+4*0.00800]
G2 I-0.04900 J0
G1 Z[-0.10000+3*0.00800]
G2 I-0.04900 J0
G1 Z[-0.10000+2*0.00800]
G2 I-0.04900 J0
G1 Z[-0.10000+1*0.00800]
G2 I-0.04900 J0
G0 Z0.02000

G0 X1.10900 Y0.96000
G1 Z[-0.10000+12*0.00800]
G2 I-0.04900 J0
G1 Z[-0.10000+11*0.00800]
G2 I-0.04900 J0
G1 Z[-0.10000+10*0.00800]
G2 I-0.04900 J0
G1 Z[-0.10000+9*0.00800]
G2 I-0.04900 J0
G1 Z[-0.10000+8*0.00800]
G2 I-0.04900 J0
G1 Z[-0.10000+7*0.00800]
G2 I-0.04900 J0
G1 Z[-0.10000+6*0.00800]
G2 I-0.04900 J0
G1 Z[-0.10000+5*0.00800]
G2 I-0.04900 J0
G1 Z[-0.10000+4*0.00800]
G2 I-0.04900 J0
G1 Z[-0.10000+3*0.00800]
G2 I-0.04900 J0
G1 Z[-0.10000+2*0.00800]
G2 I-0.04900 J0
G1 Z[-0.10000+1*0.00800]
G2 I-0.04900 J0
G0 Z0.02000

G0 X1.19660 Y0.42540
G1 Z[-0.10000+12*0.00800]
G2 I-0.01650 J0
G1 Z[-0.10000+11*0.00800]
G2 I-0.01650 J0
G1 Z[-0.10000+10*0.00800]
G2 I-0.01650 J0
G1 Z[-0.10000+9*0.00800]
G2 I-0.01650 J0
G1 Z[-0.10000+8*0.00800]
G2 I-0.01650 J0
G1 Z[-0.10000+7*0.00800]
G2 I-0.01650 J0
G1 Z[-0.10000+6*0.00800]
G2 I-0.01650 J0
G1 Z[-0.10000+5*0.00800]
G2 I-0.01650 J0
G1 Z[-0.10000+4*0.00800]
G2 I-0.01650 J0
G1 Z[-0.10000+3*0.00800]
G2 I-0.01650 J0
G1 Z[-0.10000+2*0.00800]
G2 I-0.01650 J0
G1 Z[-0.10000+1*0.00800]
G2 I-0.01650 J0
G0 Z0.02000

G0 X1.19660 Y1.04540
G1 Z[-0.10000+12*0.00800]
G2 I-0.01650 J0
G1 Z[-0.10000+11*0.00800]
G2 I-0.01650 J0
G1 Z[-0.10000+10*0.00800]
G2 I-0.01650 J0
G1 Z[-0.10000+9*0.00800]
G2 I-0.01650 J0
G1 Z[-0.10000+8*0.00800]
G2 I-0.01650 J0
G1 Z[-0.10000+7*0.00800]
G2 I-0.01650 J0
G1 Z[-0.10000+6*0.00800]
G2 I-0.01650 J0
G1 Z[-0.10000+5*0.00800]
G2 I-0.01650 J0
G1 Z[-0.10000+4*0.00800]
G2 I-0.01650 J0
G1 Z[-0.10000+3*0.00800]
G2 I-0.01650 J0
G1 Z[-0.10000+2*0.00800]
G2 I-0.01650 J0
G1 Z[-0.10000+1*0.00800]
G2 I-0.01650 J0
G0 Z0.02000

G0 X0.16500 Y0.33000
G1 Z-0.10000
G0 Z0.02000

G0 X0.30500 Y0.55000
G1 Z-0.10000
G0 Z0.02000

G0 X0.50500 Y0.57500
G1 Z-0.10000
G0 Z0.02000

G0 X0.57000 Y0.71000
G1 Z-0.10000
G0 Z0.02000

G0 X0.24500 Y0.80500
G1 Z-0.10000
G0 Z0.02000

G0 X0.32000 Y0.96500
G1 Z-0.10000
G0 Z0.02000

G0 X0.09000 Y1.30000
G1 Z-0.10000
G0 Z0.02000

G0 X0.57000 Y1.37000
G1 Z-0.10000
G0 Z0.02000

G0 X0.74500 Y1.22000
G1 Z-0.10000
G0 Z0.02000

G0 X0.76000 Y1.03000
G1 Z-0.10000
G0 Z0.02000

G0 X0.92500 Y1.03000
G1 Z-0.10000
G0 Z0.02000

G0 X0.96300 Y1.22000
G1 Z-0.10000
G0 Z0.02000

G0 X1.09500 Y1.20500
G1 Z-0.10000
G0 Z0.02000

G0 X1.18500 Y1.29500
G1 Z-0.10000
G0 Z0.02000

G0 X0.97000 Y1.55000
G1 Z-0.10000
G0 Z0.02000

G0 X0.82500 Y0.46000
G1 Z-0.10000
G0 Z0.02000

G0 X0.59000 Y0.34000
G1 Z-0.10000
G0 Z0.02000

G0 X1.32250 Y1.06000
G1 Z[-0.10000+12*0.00800]
G2 I-0.00250 J0
G1 Z[-0.10000+11*0.00800]
G2 I-0.00250 J0
G1 Z[-0.10000+10*0.00800]
G2 I-0.00250 J0
G1 Z[-0.10000+9*0.00800]
G2 I-0.00250 J0
G1 Z[-0.10000+8*0.00800]
G2 I-0.00250 J0
G1 Z[-0.10000+7*0.00800]
G2 I-0.00250 J0
G1 Z[-0.10000+6*0.00800]
G2 I-0.00250 J0
G1 Z[-0.10000+5*0.00800]
G2 I-0.00250 J0
G1 Z[-0.10000+4*0.00800]
G2 I-0.00250 J0
G1 Z[-0.10000+3*0.00800]
G2 I-0.00250 J0
G1 Z[-0.10000+2*0.00800]
G2 I-0.00250 J0
G1 Z[-0.10000+1*0.00800]
G2 I-0.00250 J0
G0 Z0.02000

G0 X1.27250 Y1.27000
G1 Z[-0.10000+12*0.00800]
G2 I-0.00250 J0
G1 Z[-0.10000+11*0.00800]
G2 I-0.00250 J0
G1 Z[-0.10000+10*0.00800]
G2 I-0.00250 J0
G1 Z[-0.10000+9*0.00800]
G2 I-0.00250 J0
G1 Z[-0.10000+8*0.00800]
G2 I-0.00250 J0
G1 Z[-0.10000+7*0.00800]
G2 I-0.00250 J0
G1 Z[-0.10000+6*0.00800]
G2 I-0.00250 J0
G1 Z[-0.10000+5*0.00800]
G2 I-0.00250 J0
G1 Z[-0.10000+4*0.00800]
G2 I-0.00250 J0
G1 Z[-0.10000+3*0.00800]
G2 I-0.00250 J0
G1 Z[-0.10000+2*0.00800]
G2 I-0.00250 J0
G1 Z[-0.10000+1*0.00800]
G2 I-0.00250 J0
G0 Z0.02000

G00 Z0.02000 ( All done -- retract )
M5      (Spindle off.)
M9      (Coolant off.)
M2      (Program end.)

