( pcb2gcode 1.2.2 )
( Software-independent Gcode )
      
G94 ( Inches per minute feed rate. )
G20 ( Units == INCHES. )

G90 ( Absolute coordinates. )
S10000 ( RPM spindle speed. )
G64 P0.00200 ( set maximum deviation from commanded toolpath )
F1.75000 ( Feedrate. )

F1.75000 ( Feedrate. )
M3 ( Spindle on clockwise. )
G04 P0 ( dwell for no time -- G64 should not smooth over this point )
G00 Z0.02000 ( retract )

G00 X1.49700 Y1.65700 ( rapid move to begin. )
G01 Z-0.01500 F0.87500 ( plunge. )
G04 P0 ( dwell for no time -- G64 should not smooth over this point )
F1.75000
X1.49700 Y1.65700
X1.49700 Y-0.08200
X1.49600 Y-0.08200
X1.49600 Y-0.08400
X1.49500 Y-0.08400
X1.49500 Y-0.08500
X1.49400 Y-0.08500
X1.49400 Y-0.08600
X1.49200 Y-0.08600
X1.49200 Y-0.08700
X-0.10300 Y-0.08700
X-0.10300 Y-0.08600
X-0.10500 Y-0.08600
X-0.10500 Y-0.08500
X-0.10600 Y-0.08500
X-0.10600 Y-0.08400
X-0.10700 Y-0.08400
X-0.10700 Y-0.08200
X-0.10800 Y-0.08200
X-0.10800 Y1.75300
X-0.10700 Y1.75300
X-0.10700 Y1.75500
X-0.10600 Y1.75500
X-0.10600 Y1.75600
X-0.10500 Y1.75600
X-0.10500 Y1.75700
X-0.10300 Y1.75700
X-0.10300 Y1.75800
X1.49200 Y1.75800
X1.49200 Y1.75700
X1.49400 Y1.75700
X1.49400 Y1.75600
X1.49500 Y1.75600
X1.49500 Y1.75500
X1.49600 Y1.75500
X1.49600 Y1.75300
X1.49700 Y1.75300
X1.49700 Y1.65700
G01 Z-0.05000 F0.87500 ( plunge. )
G04 P0 ( dwell for no time -- G64 should not smooth over this point )
F1.75000
X1.49700 Y1.65700
X1.49700 Y-0.08200
X1.49600 Y-0.08200
X1.49600 Y-0.08400
X1.49500 Y-0.08400
X1.49500 Y-0.08500
X1.49400 Y-0.08500
X1.49400 Y-0.08600
X1.49200 Y-0.08600
X1.49200 Y-0.08700
X-0.10300 Y-0.08700
X-0.10300 Y-0.08600
X-0.10500 Y-0.08600
X-0.10500 Y-0.08500
X-0.10600 Y-0.08500
X-0.10600 Y-0.08400
X-0.10700 Y-0.08400
X-0.10700 Y-0.08200
X-0.10800 Y-0.08200
X-0.10800 Y1.75300
X-0.10700 Y1.75300
X-0.10700 Y1.75500
X-0.10600 Y1.75500
X-0.10600 Y1.75600
X-0.10500 Y1.75600
X-0.10500 Y1.75700
X-0.10300 Y1.75700
X-0.10300 Y1.75800
X1.49200 Y1.75800
X1.49200 Y1.75700
X1.49400 Y1.75700
X1.49400 Y1.75600
X1.49500 Y1.75600
X1.49500 Y1.75500
X1.49600 Y1.75500
X1.49600 Y1.75300
X1.49700 Y1.75300
X1.49700 Y1.65700
G01 Z-0.08500 F0.87500 ( plunge. )
G04 P0 ( dwell for no time -- G64 should not smooth over this point )
F1.75000
X1.49700 Y1.65700
X1.49700 Y-0.08200
X1.49600 Y-0.08200
X1.49600 Y-0.08400
X1.49500 Y-0.08400
X1.49500 Y-0.08500
X1.49400 Y-0.08500
X1.49400 Y-0.08600
X1.49200 Y-0.08600
X1.49200 Y-0.08700
X-0.10300 Y-0.08700
X-0.10300 Y-0.08600
X-0.10500 Y-0.08600
X-0.10500 Y-0.08500
X-0.10600 Y-0.08500
X-0.10600 Y-0.08400
X-0.10700 Y-0.08400
X-0.10700 Y-0.08200
X-0.10800 Y-0.08200
X-0.10800 Y1.75300
X-0.10700 Y1.75300
X-0.10700 Y1.75500
X-0.10600 Y1.75500
X-0.10600 Y1.75600
X-0.10500 Y1.75600
X-0.10500 Y1.75700
X-0.10300 Y1.75700
X-0.10300 Y1.75800
X1.49200 Y1.75800
X1.49200 Y1.75700
X1.49400 Y1.75700
X1.49400 Y1.75600
X1.49500 Y1.75600
X1.49500 Y1.75500
X1.49600 Y1.75500
X1.49600 Y1.75300
X1.49700 Y1.75300
X1.49700 Y1.65700

G04 P0 ( dwell for no time -- G64 should not smooth over this point )
G00 Z0.02000 ( retract )

M5 ( Spindle off. )
M9 ( Coolant off. )
M2 ( Program end. )

