( pcb2gcode 1.2.2 )
( Software-independent Gcode )
      




S10000 ( RPM spindle speed. )
G64 P0.00200 ( set maximum deviation from commanded toolpath )
F2000.00000 ( Feedrate. )

F2000.00000 ( Feedrate. )
M3 ( Spindle on clockwise. )
G04 P0 ( dwell for no time -- G64 should not smooth over this point )
G00 Z0.25000 ( retract )

G00 X0.72800 Y0.24408 ( rapid move to begin. )
F1000.00000
G01 Z0.00000
G04 P0 ( dwell for no time -- G64 should not smooth over this point )
F2000.00000
X0.72800 Y0.24408
X0.72800 Y0.20108
X0.66000 Y0.20108
X0.66000 Y0.24508
X0.72800 Y0.24508
X0.72800 Y0.24408
G04 P0 ( dwell for no time -- G64 should not smooth over this point )
G00 Z0.25000 ( retract )

G00 X0.72800 Y0.36208 ( rapid move to begin. )
F1000.00000
G01 Z0.00000
G04 P0 ( dwell for no time -- G64 should not smooth over this point )
F2000.00000
X0.72800 Y0.36208
X0.72800 Y0.31908
X0.66000 Y0.31908
X0.66000 Y0.36308
X0.72800 Y0.36308
X0.72800 Y0.36208
G04 P0 ( dwell for no time -- G64 should not smooth over this point )
G00 Z0.25000 ( retract )

G00 X1.33500 Y0.39108 ( rapid move to begin. )
F1000.00000
G01 Z0.00000
G04 P0 ( dwell for no time -- G64 should not smooth over this point )
F2000.00000
X1.33500 Y0.39108
X1.33500 Y0.37008
X1.30300 Y0.37008
X1.30300 Y0.39208
X1.33500 Y0.39208
X1.33500 Y0.39108
G04 P0 ( dwell for no time -- G64 should not smooth over this point )
G00 Z0.25000 ( retract )

G00 X1.33500 Y0.34008 ( rapid move to begin. )
F1000.00000
G01 Z0.00000
G04 P0 ( dwell for no time -- G64 should not smooth over this point )
F2000.00000
X1.33500 Y0.34008
X1.33500 Y0.31908
X1.30300 Y0.31908
X1.30300 Y0.34108
X1.33500 Y0.34108
X1.33500 Y0.34008
G04 P0 ( dwell for no time -- G64 should not smooth over this point )
G00 Z0.25000 ( retract )

G00 X0.83700 Y1.31008 ( rapid move to begin. )
F1000.00000
G01 Z0.00000
G04 P0 ( dwell for no time -- G64 should not smooth over this point )
F2000.00000
X0.83700 Y1.31008
X0.83700 Y1.29108
X0.82400 Y1.29108
X0.82400 Y1.31108
X0.83700 Y1.31108
X0.83700 Y1.31008
G04 P0 ( dwell for no time -- G64 should not smooth over this point )
G00 Z0.25000 ( retract )

G00 X0.80500 Y1.31008 ( rapid move to begin. )
F1000.00000
G01 Z0.00000
G04 P0 ( dwell for no time -- G64 should not smooth over this point )
F2000.00000
X0.80500 Y1.31008
X0.80500 Y1.29108
X0.79300 Y1.29108
X0.79300 Y1.31108
X0.80500 Y1.31108
X0.80500 Y1.31008
G04 P0 ( dwell for no time -- G64 should not smooth over this point )
G00 Z0.25000 ( retract )

G00 X0.71300 Y1.30908 ( rapid move to begin. )
F1000.00000
G01 Z0.00000
G04 P0 ( dwell for no time -- G64 should not smooth over this point )
F2000.00000
X0.71300 Y1.30908
X0.71300 Y1.13208
X0.57500 Y1.13208
X0.57500 Y1.31008
X0.71300 Y1.31008
X0.71300 Y1.30908
G04 P0 ( dwell for no time -- G64 should not smooth over this point )
G00 Z0.25000 ( retract )

G00 X0.49500 Y1.30908 ( rapid move to begin. )
F1000.00000
G01 Z0.00000
G04 P0 ( dwell for no time -- G64 should not smooth over this point )
F2000.00000
X0.49500 Y1.30908
X0.49500 Y1.13208
X0.35700 Y1.13208
X0.35700 Y1.31008
X0.49500 Y1.31008
X0.49500 Y1.30908
G04 P0 ( dwell for no time -- G64 should not smooth over this point )
G00 Z0.25000 ( retract )

G00 X0.23900 Y1.19408 ( rapid move to begin. )
F1000.00000
G01 Z0.00000
G04 P0 ( dwell for no time -- G64 should not smooth over this point )
F2000.00000
X0.23900 Y1.19408
X0.23900 Y1.12708
X0.19500 Y1.12708
X0.19500 Y1.19508
X0.23900 Y1.19508
X0.23900 Y1.19408
G04 P0 ( dwell for no time -- G64 should not smooth over this point )
G00 Z0.25000 ( retract )

G00 X0.12100 Y1.19408 ( rapid move to begin. )
F1000.00000
G01 Z0.00000
G04 P0 ( dwell for no time -- G64 should not smooth over this point )
F2000.00000
X0.12100 Y1.19408
X0.12100 Y1.12708
X0.07700 Y1.12708
X0.07700 Y1.19508
X0.12100 Y1.19508
X0.12100 Y1.19408

G04 P0 ( dwell for no time -- G64 should not smooth over this point )
G00 Z0.25000 ( retract )

M5 ( Spindle off. )
M9 ( Coolant off. )
M2 ( Program end. )

