M106 S255 (Fan on.)
G0 x100 y100 f2000 (  Set origin and speed.  )
( pcb2gcode 1.2.2 )
( Software-independent Gcode )





S10000 ( RPM spindle speed. )
G64 P0.00200 ( set maximum deviation from commanded toolpath )
F2000.00000 ( Feedrate. )

F2000.00000 ( Feedrate. )
M400
M5
M42 P13 S0 (OFF - LASER)
G00 Z0.25000 ( retract )

G00 X118.51660 Y106.24967 F2000 (rapid move to begin)
F1000.00000
G01 Z0.00000
F2000.00000
G0 X118.51660 Y106.24967 F240
G0 X118.51660 Y105.08127 F240
G0 X116.71320 Y105.08127 F240
G0 X116.71320 Y106.27507 F240
G0 X118.51660 Y106.27507 F240
G0 X118.51660 Y106.24967 F240
M400
M5
M42 P13 S0 (OFF - LASER)
G00 Z0.25000 ( retract )

G00 X118.51660 Y109.24687 F2000 (rapid move to begin)
F1000.00000
G01 Z0.00000
F2000.00000
G0 X118.51660 Y109.24687 F240
G0 X118.51660 Y108.07847 F240
G0 X116.71320 Y108.07847 F240
G0 X116.71320 Y109.27227 F240
G0 X118.51660 Y109.27227 F240
G0 X118.51660 Y109.24687 F240
M400
M5
M42 P13 S0 (OFF - LASER)
G00 Z0.25000 ( retract )

G00 X132.53740 Y109.98347 F2000 (rapid move to begin)
F1000.00000
G01 Z0.00000
F2000.00000
G0 X132.53740 Y109.98347 F240
G0 X132.53740 Y109.37387 F240
G0 X131.64840 Y109.37387 F240
G0 X131.64840 Y110.00887 F240
G0 X132.53740 Y110.00887 F240
G0 X132.53740 Y109.98347 F240
M400
M5
M42 P13 S0 (OFF - LASER)
G00 Z0.25000 ( retract )

G00 X132.53740 Y108.68807 F2000 (rapid move to begin)
F1000.00000
G01 Z0.00000
F2000.00000
G0 X132.53740 Y108.68807 F240
G0 X132.53740 Y108.07847 F240
G0 X131.64840 Y108.07847 F240
G0 X131.64840 Y108.71347 F240
G0 X132.53740 Y108.71347 F240
G0 X132.53740 Y108.68807 F240
M400
M5
M42 P13 S0 (OFF - LASER)
G00 Z0.25000 ( retract )

G00 X133.93440 Y108.68807 F2000 (rapid move to begin)
F1000.00000
G01 Z0.00000
F2000.00000
G0 X133.93440 Y108.68807 F240
G0 X133.93440 Y108.07847 F240
G0 X133.04540 Y108.07847 F240
G0 X133.04540 Y108.71347 F240
G0 X133.93440 Y108.71347 F240
G0 X133.93440 Y108.68807 F240
M400
M5
M42 P13 S0 (OFF - LASER)
G00 Z0.25000 ( retract )

G00 X133.93440 Y109.98347 F2000 (rapid move to begin)
F1000.00000
G01 Z0.00000
F2000.00000
G0 X133.93440 Y109.98347 F240
G0 X133.93440 Y109.37387 F240
G0 X133.04540 Y109.37387 F240
G0 X133.04540 Y110.00887 F240
G0 X133.93440 Y110.00887 F240
G0 X133.93440 Y109.98347 F240
M400
M5
M42 P13 S0 (OFF - LASER)
G00 Z0.25000 ( retract )

G00 X122.42820 Y133.73247 F2000 (rapid move to begin)
F1000.00000
G01 Z0.00000
F2000.00000
G0 X122.42820 Y133.73247 F240
G0 X122.42820 Y132.36087 F240
G0 X121.23440 Y132.36087 F240
G0 X121.23440 Y133.75787 F240
G0 X122.42820 Y133.75787 F240
G0 X122.42820 Y133.73247 F240
M400
M5
M42 P13 S0 (OFF - LASER)
G00 Z0.25000 ( retract )

G00 X120.62480 Y133.73247 F2000 (rapid move to begin)
F1000.00000
G01 Z0.00000
F2000.00000
G0 X120.62480 Y133.73247 F240
G0 X120.62480 Y132.36087 F240
G0 X119.43100 Y132.36087 F240
G0 X119.43100 Y133.75787 F240
G0 X120.62480 Y133.75787 F240
G0 X120.62480 Y133.73247 F240
M400
M5
M42 P13 S0 (OFF - LASER)
G00 Z0.25000 ( retract )

G00 X118.13560 Y133.30067 F2000 (rapid move to begin)
F1000.00000
G01 Z0.00000
F2000.00000
G0 X118.13560 Y133.30067 F240
G0 X118.13560 Y128.72867 F240
G0 X114.55420 Y128.72867 F240
G0 X114.55420 Y133.32607 F240
G0 X118.13560 Y133.32607 F240
G0 X118.13560 Y133.30067 F240
M400
M5
M42 P13 S0 (OFF - LASER)
G00 Z0.25000 ( retract )

G00 X112.59840 Y133.30067 F2000 (rapid move to begin)
F1000.00000
G01 Z0.00000
F2000.00000
G0 X112.59840 Y133.30067 F240
G0 X112.59840 Y128.72867 F240
G0 X109.01700 Y128.72867 F240
G0 X109.01700 Y133.32607 F240
G0 X112.59840 Y133.32607 F240
G0 X112.59840 Y133.30067 F240
M400
M5
M42 P13 S0 (OFF - LASER)
G00 Z0.25000 ( retract )

G00 X110.05840 Y135.35807 F2000 (rapid move to begin)
F1000.00000
G01 Z0.00000
F2000.00000
G0 X110.05840 Y135.35807 F240
G0 X110.05840 Y134.74847 F240
G0 X109.16940 Y134.74847 F240
G0 X109.16940 Y135.38347 F240
G0 X110.05840 Y135.38347 F240
G0 X110.05840 Y135.35807 F240
M400
M5
M42 P13 S0 (OFF - LASER)
G00 Z0.25000 ( retract )

G00 X110.05840 Y136.65347 F2000 (rapid move to begin)
F1000.00000
G01 Z0.00000
F2000.00000
G0 X110.05840 Y136.65347 F240
G0 X110.05840 Y136.04387 F240
G0 X109.16940 Y136.04387 F240
G0 X109.16940 Y136.67887 F240
G0 X110.05840 Y136.67887 F240
G0 X110.05840 Y136.65347 F240
M400
M5
M42 P13 S0 (OFF - LASER)
G00 Z0.25000 ( retract )

G00 X106.09600 Y130.37967 F2000 (rapid move to begin)
F1000.00000
G01 Z0.00000
F2000.00000
G0 X106.09600 Y130.37967 F240
G0 X106.09600 Y128.60167 F240
G0 X104.90220 Y128.60167 F240
G0 X104.90220 Y130.40507 F240
G0 X106.09600 Y130.40507 F240
G0 X106.09600 Y130.37967 F240
M400
M5
M42 P13 S0 (OFF - LASER)
G00 Z0.25000 ( retract )

G00 X103.09880 Y130.37967 F2000 (rapid move to begin)
F1000.00000
G01 Z0.00000
F2000.00000
G0 X103.09880 Y130.37967 F240
G0 X103.09880 Y128.60167 F240
G0 X101.90500 Y128.60167 F240
G0 X101.90500 Y130.40507 F240
G0 X103.09880 Y130.40507 F240
G0 X103.09880 Y130.37967 F240

M400
M5
M42 P13 S0 (OFF - LASER)
G00 Z0.25000 ( retract )

M5 ( Spindle off. )
M9 ( Coolant off. )

M106 S0 (Fan off.)
M106 S255 (Fan on.)
G0 x100 y100 f2000 (  Set origin and speed.  )
( pcb2gcode 1.2.2 )
( Software-independent Gcode )





S10000 ( RPM spindle speed. )
G64 P0.00200 ( set maximum deviation from commanded toolpath )
F2000.00000 ( Feedrate. )

F2000.00000 ( Feedrate. )
M400
M5
M42 P13 S0 (OFF - LASER)
G00 Z0.25000 ( retract )

G00 X118.51660 Y106.22427 F2000 (rapid move to begin)
F1000.00000
G01 Z0.00000
F2000.00000
G0 X118.51660 Y106.22427 F240
G0 X118.51660 Y105.08127 F240
G0 X116.73860 Y105.08127 F240
G0 X116.73860 Y106.24967 F240
G0 X118.51660 Y106.24967 F240
G0 X118.51660 Y106.22427 F240
M400
M5
M42 P13 S0 (OFF - LASER)
G00 Z0.25000 ( retract )

G00 X118.51660 Y109.22147 F2000 (rapid move to begin)
F1000.00000
G01 Z0.00000
F2000.00000
G0 X118.51660 Y109.22147 F240
G0 X118.51660 Y108.07847 F240
G0 X116.73860 Y108.07847 F240
G0 X116.73860 Y109.24687 F240
G0 X118.51660 Y109.24687 F240
G0 X118.51660 Y109.22147 F240
M400
M5
M42 P13 S0 (OFF - LASER)
G00 Z0.25000 ( retract )

G00 X132.53740 Y109.95807 F2000 (rapid move to begin)
F1000.00000
G01 Z0.00000
F2000.00000
G0 X132.53740 Y109.95807 F240
G0 X132.53740 Y109.37387 F240
G0 X131.67380 Y109.37387 F240
G0 X131.67380 Y109.98347 F240
G0 X132.53740 Y109.98347 F240
G0 X132.53740 Y109.95807 F240
M400
M5
M42 P13 S0 (OFF - LASER)
G00 Z0.25000 ( retract )

G00 X132.53740 Y108.66267 F2000 (rapid move to begin)
F1000.00000
G01 Z0.00000
F2000.00000
G0 X132.53740 Y108.66267 F240
G0 X132.53740 Y108.07847 F240
G0 X131.67380 Y108.07847 F240
G0 X131.67380 Y108.68807 F240
G0 X132.53740 Y108.68807 F240
G0 X132.53740 Y108.66267 F240
M400
M5
M42 P13 S0 (OFF - LASER)
G00 Z0.25000 ( retract )

G00 X133.93440 Y108.66267 F2000 (rapid move to begin)
F1000.00000
G01 Z0.00000
F2000.00000
G0 X133.93440 Y108.66267 F240
G0 X133.93440 Y108.07847 F240
G0 X133.07080 Y108.07847 F240
G0 X133.07080 Y108.68807 F240
G0 X133.93440 Y108.68807 F240
G0 X133.93440 Y108.66267 F240
M400
M5
M42 P13 S0 (OFF - LASER)
G00 Z0.25000 ( retract )

G00 X133.93440 Y109.95807 F2000 (rapid move to begin)
F1000.00000
G01 Z0.00000
F2000.00000
G0 X133.93440 Y109.95807 F240
G0 X133.93440 Y109.37387 F240
G0 X133.07080 Y109.37387 F240
G0 X133.07080 Y109.98347 F240
G0 X133.93440 Y109.98347 F240
G0 X133.93440 Y109.95807 F240
M400
M5
M42 P13 S0 (OFF - LASER)
G00 Z0.25000 ( retract )

G00 X122.42820 Y133.70707 F2000 (rapid move to begin)
F1000.00000
G01 Z0.00000
F2000.00000
G0 X122.42820 Y133.70707 F240
G0 X122.42820 Y132.36087 F240
G0 X121.25980 Y132.36087 F240
G0 X121.25980 Y133.73247 F240
G0 X122.42820 Y133.73247 F240
G0 X122.42820 Y133.70707 F240
M400
M5
M42 P13 S0 (OFF - LASER)
G00 Z0.25000 ( retract )

G00 X120.62480 Y133.70707 F2000 (rapid move to begin)
F1000.00000
G01 Z0.00000
F2000.00000
G0 X120.62480 Y133.70707 F240
G0 X120.62480 Y132.36087 F240
G0 X119.45640 Y132.36087 F240
G0 X119.45640 Y133.73247 F240
G0 X120.62480 Y133.73247 F240
G0 X120.62480 Y133.70707 F240
M400
M5
M42 P13 S0 (OFF - LASER)
G00 Z0.25000 ( retract )

G00 X118.13560 Y133.27527 F2000 (rapid move to begin)
F1000.00000
G01 Z0.00000
F2000.00000
G0 X118.13560 Y133.27527 F240
G0 X118.13560 Y128.72867 F240
G0 X114.57960 Y128.72867 F240
G0 X114.57960 Y133.30067 F240
G0 X118.13560 Y133.30067 F240
G0 X118.13560 Y133.27527 F240
M400
M5
M42 P13 S0 (OFF - LASER)
G00 Z0.25000 ( retract )

G00 X112.59840 Y133.27527 F2000 (rapid move to begin)
F1000.00000
G01 Z0.00000
F2000.00000
G0 X112.59840 Y133.27527 F240
G0 X112.59840 Y128.72867 F240
G0 X109.04240 Y128.72867 F240
G0 X109.04240 Y133.30067 F240
G0 X112.59840 Y133.30067 F240
G0 X112.59840 Y133.27527 F240
M400
M5
M42 P13 S0 (OFF - LASER)
G00 Z0.25000 ( retract )

G00 X110.05840 Y135.33267 F2000 (rapid move to begin)
F1000.00000
G01 Z0.00000
F2000.00000
G0 X110.05840 Y135.33267 F240
G0 X110.05840 Y134.74847 F240
G0 X109.19480 Y134.74847 F240
G0 X109.19480 Y135.35807 F240
G0 X110.05840 Y135.35807 F240
G0 X110.05840 Y135.33267 F240
M400
M5
M42 P13 S0 (OFF - LASER)
G00 Z0.25000 ( retract )

G00 X110.05840 Y136.62807 F2000 (rapid move to begin)
F1000.00000
G01 Z0.00000
F2000.00000
G0 X110.05840 Y136.62807 F240
G0 X110.05840 Y136.04387 F240
G0 X109.19480 Y136.04387 F240
G0 X109.19480 Y136.65347 F240
G0 X110.05840 Y136.65347 F240
G0 X110.05840 Y136.62807 F240
M400
M5
M42 P13 S0 (OFF - LASER)
G00 Z0.25000 ( retract )

G00 X106.09600 Y130.35427 F2000 (rapid move to begin)
F1000.00000
G01 Z0.00000
F2000.00000
G0 X106.09600 Y130.35427 F240
G0 X106.09600 Y128.60167 F240
G0 X104.92760 Y128.60167 F240
G0 X104.92760 Y130.37967 F240
G0 X106.09600 Y130.37967 F240
G0 X106.09600 Y130.35427 F240
M400
M5
M42 P13 S0 (OFF - LASER)
G00 Z0.25000 ( retract )

G00 X103.09880 Y130.35427 F2000 (rapid move to begin)
F1000.00000
G01 Z0.00000
F2000.00000
G0 X103.09880 Y130.35427 F240
G0 X103.09880 Y128.60167 F240
G0 X101.93040 Y128.60167 F240
G0 X101.93040 Y130.37967 F240
G0 X103.09880 Y130.37967 F240
G0 X103.09880 Y130.35427 F240

M400
M5
M42 P13 S0 (OFF - LASER)
G00 Z0.25000 ( retract )

M5 ( Spindle off. )
M9 ( Coolant off. )

M106 S0 (Fan off.)
M106 S255 (Fan on.)
G0 x100 y100 f2000 (  Set origin and speed.  )
( pcb2gcode 1.2.2 )
( Software-independent Gcode )





S10000 ( RPM spindle speed. )
G64 P0.00200 ( set maximum deviation from commanded toolpath )
F2000.00000 ( Feedrate. )

F2000.00000 ( Feedrate. )
M400
M5
M42 P13 S0 (OFF - LASER)
G00 Z0.25000 ( retract )

G00 X118.49120 Y106.19887 F2000 (rapid move to begin)
F1000.00000
G01 Z0.00000
F2000.00000
G0 X118.49120 Y106.19887 F240
G0 X118.49120 Y105.10667 F240
G0 X116.76400 Y105.10667 F240
G0 X116.76400 Y106.22427 F240
G0 X118.49120 Y106.22427 F240
G0 X118.49120 Y106.19887 F240
M400
M5
M42 P13 S0 (OFF - LASER)
G00 Z0.25000 ( retract )

G00 X118.49120 Y109.19607 F2000 (rapid move to begin)
F1000.00000
G01 Z0.00000
F2000.00000
G0 X118.49120 Y109.19607 F240
G0 X118.49120 Y108.10387 F240
G0 X116.76400 Y108.10387 F240
G0 X116.76400 Y109.22147 F240
G0 X118.49120 Y109.22147 F240
G0 X118.49120 Y109.19607 F240
M400
M5
M42 P13 S0 (OFF - LASER)
G00 Z0.25000 ( retract )

G00 X132.51200 Y109.93267 F2000 (rapid move to begin)
F1000.00000
G01 Z0.00000
F2000.00000
G0 X132.51200 Y109.93267 F240
G0 X132.51200 Y109.39927 F240
G0 X131.69920 Y109.39927 F240
G0 X131.69920 Y109.95807 F240
G0 X132.51200 Y109.95807 F240
G0 X132.51200 Y109.93267 F240
M400
M5
M42 P13 S0 (OFF - LASER)
G00 Z0.25000 ( retract )

G00 X132.51200 Y108.63727 F2000 (rapid move to begin)
F1000.00000
G01 Z0.00000
F2000.00000
G0 X132.51200 Y108.63727 F240
G0 X132.51200 Y108.10387 F240
G0 X131.69920 Y108.10387 F240
G0 X131.69920 Y108.66267 F240
G0 X132.51200 Y108.66267 F240
G0 X132.51200 Y108.63727 F240
M400
M5
M42 P13 S0 (OFF - LASER)
G00 Z0.25000 ( retract )

G00 X133.90900 Y108.63727 F2000 (rapid move to begin)
F1000.00000
G01 Z0.00000
F2000.00000
G0 X133.90900 Y108.63727 F240
G0 X133.90900 Y108.10387 F240
G0 X133.09620 Y108.10387 F240
G0 X133.09620 Y108.66267 F240
G0 X133.90900 Y108.66267 F240
G0 X133.90900 Y108.63727 F240
M400
M5
M42 P13 S0 (OFF - LASER)
G00 Z0.25000 ( retract )

G00 X133.90900 Y109.93267 F2000 (rapid move to begin)
F1000.00000
G01 Z0.00000
F2000.00000
G0 X133.90900 Y109.93267 F240
G0 X133.90900 Y109.39927 F240
G0 X133.09620 Y109.39927 F240
G0 X133.09620 Y109.95807 F240
G0 X133.90900 Y109.95807 F240
G0 X133.90900 Y109.93267 F240
M400
M5
M42 P13 S0 (OFF - LASER)
G00 Z0.25000 ( retract )

G00 X122.40280 Y133.68167 F2000 (rapid move to begin)
F1000.00000
G01 Z0.00000
F2000.00000
G0 X122.40280 Y133.68167 F240
G0 X122.40280 Y132.38627 F240
G0 X121.28520 Y132.38627 F240
G0 X121.28520 Y133.70707 F240
G0 X122.40280 Y133.70707 F240
G0 X122.40280 Y133.68167 F240
M400
M5
M42 P13 S0 (OFF - LASER)
G00 Z0.25000 ( retract )

G00 X120.59940 Y133.68167 F2000 (rapid move to begin)
F1000.00000
G01 Z0.00000
F2000.00000
G0 X120.59940 Y133.68167 F240
G0 X120.59940 Y132.38627 F240
G0 X119.48180 Y132.38627 F240
G0 X119.48180 Y133.70707 F240
G0 X120.59940 Y133.70707 F240
G0 X120.59940 Y133.68167 F240
M400
M5
M42 P13 S0 (OFF - LASER)
G00 Z0.25000 ( retract )

G00 X118.11020 Y133.24987 F2000 (rapid move to begin)
F1000.00000
G01 Z0.00000
F2000.00000
G0 X118.11020 Y133.24987 F240
G0 X118.11020 Y128.75407 F240
G0 X114.60500 Y128.75407 F240
G0 X114.60500 Y133.27527 F240
G0 X118.11020 Y133.27527 F240
G0 X118.11020 Y133.24987 F240
M400
M5
M42 P13 S0 (OFF - LASER)
G00 Z0.25000 ( retract )

G00 X112.57300 Y133.24987 F2000 (rapid move to begin)
F1000.00000
G01 Z0.00000
F2000.00000
G0 X112.57300 Y133.24987 F240
G0 X112.57300 Y128.75407 F240
G0 X109.06780 Y128.75407 F240
G0 X109.06780 Y133.27527 F240
G0 X112.57300 Y133.27527 F240
G0 X112.57300 Y133.24987 F240
M400
M5
M42 P13 S0 (OFF - LASER)
G00 Z0.25000 ( retract )

G00 X110.03300 Y135.30727 F2000 (rapid move to begin)
F1000.00000
G01 Z0.00000
F2000.00000
G0 X110.03300 Y135.30727 F240
G0 X110.03300 Y134.77387 F240
G0 X109.22020 Y134.77387 F240
G0 X109.22020 Y135.33267 F240
G0 X110.03300 Y135.33267 F240
G0 X110.03300 Y135.30727 F240
M400
M5
M42 P13 S0 (OFF - LASER)
G00 Z0.25000 ( retract )

G00 X110.03300 Y136.60267 F2000 (rapid move to begin)
F1000.00000
G01 Z0.00000
F2000.00000
G0 X110.03300 Y136.60267 F240
G0 X110.03300 Y136.06927 F240
G0 X109.22020 Y136.06927 F240
G0 X109.22020 Y136.62807 F240
G0 X110.03300 Y136.62807 F240
G0 X110.03300 Y136.60267 F240
M400
M5
M42 P13 S0 (OFF - LASER)
G00 Z0.25000 ( retract )

G00 X106.07060 Y130.32887 F2000 (rapid move to begin)
F1000.00000
G01 Z0.00000
F2000.00000
G0 X106.07060 Y130.32887 F240
G0 X106.07060 Y128.62707 F240
G0 X104.95300 Y128.62707 F240
G0 X104.95300 Y130.35427 F240
G0 X106.07060 Y130.35427 F240
G0 X106.07060 Y130.32887 F240
M400
M5
M42 P13 S0 (OFF - LASER)
G00 Z0.25000 ( retract )

G00 X103.07340 Y130.32887 F2000 (rapid move to begin)
F1000.00000
G01 Z0.00000
F2000.00000
G0 X103.07340 Y130.32887 F240
G0 X103.07340 Y128.62707 F240
G0 X101.95580 Y128.62707 F240
G0 X101.95580 Y130.35427 F240
G0 X103.07340 Y130.35427 F240
G0 X103.07340 Y130.32887 F240

M400
M5
M42 P13 S0 (OFF - LASER)
G00 Z0.25000 ( retract )

M5 ( Spindle off. )
M9 ( Coolant off. )

M106 S0 (Fan off.)
M106 S255 (Fan on.)
G0 x100 y100 f2000 (  Set origin and speed.  )
( pcb2gcode 1.2.2 )
( Software-independent Gcode )





S10000 ( RPM spindle speed. )
G64 P0.00200 ( set maximum deviation from commanded toolpath )
F2000.00000 ( Feedrate. )

F2000.00000 ( Feedrate. )
M400
M5
M42 P13 S0 (OFF - LASER)
G00 Z0.25000 ( retract )

G00 X118.49120 Y106.19887 F2000 (rapid move to begin)
F1000.00000
G01 Z0.00000
F2000.00000
G0 X118.49120 Y106.19887 F240
G0 X118.49120 Y105.10667 F240
G0 X116.76400 Y105.10667 F240
G0 X116.76400 Y106.22427 F240
G0 X118.49120 Y106.22427 F240
G0 X118.49120 Y106.19887 F240
M400
M5
M42 P13 S0 (OFF - LASER)
G00 Z0.25000 ( retract )

G00 X118.49120 Y109.19607 F2000 (rapid move to begin)
F1000.00000
G01 Z0.00000
F2000.00000
G0 X118.49120 Y109.19607 F240
G0 X118.49120 Y108.10387 F240
G0 X116.76400 Y108.10387 F240
G0 X116.76400 Y109.22147 F240
G0 X118.49120 Y109.22147 F240
G0 X118.49120 Y109.19607 F240
M400
M5
M42 P13 S0 (OFF - LASER)
G00 Z0.25000 ( retract )

G00 X132.51200 Y109.93267 F2000 (rapid move to begin)
F1000.00000
G01 Z0.00000
F2000.00000
G0 X132.51200 Y109.93267 F240
G0 X132.51200 Y109.39927 F240
G0 X131.69920 Y109.39927 F240
G0 X131.69920 Y109.95807 F240
G0 X132.51200 Y109.95807 F240
G0 X132.51200 Y109.93267 F240
M400
M5
M42 P13 S0 (OFF - LASER)
G00 Z0.25000 ( retract )

G00 X132.51200 Y108.63727 F2000 (rapid move to begin)
F1000.00000
G01 Z0.00000
F2000.00000
G0 X132.51200 Y108.63727 F240
G0 X132.51200 Y108.10387 F240
G0 X131.69920 Y108.10387 F240
G0 X131.69920 Y108.66267 F240
G0 X132.51200 Y108.66267 F240
G0 X132.51200 Y108.63727 F240
M400
M5
M42 P13 S0 (OFF - LASER)
G00 Z0.25000 ( retract )

G00 X133.90900 Y108.63727 F2000 (rapid move to begin)
F1000.00000
G01 Z0.00000
F2000.00000
G0 X133.90900 Y108.63727 F240
G0 X133.90900 Y108.10387 F240
G0 X133.09620 Y108.10387 F240
G0 X133.09620 Y108.66267 F240
G0 X133.90900 Y108.66267 F240
G0 X133.90900 Y108.63727 F240
M400
M5
M42 P13 S0 (OFF - LASER)
G00 Z0.25000 ( retract )

G00 X133.90900 Y109.93267 F2000 (rapid move to begin)
F1000.00000
G01 Z0.00000
F2000.00000
G0 X133.90900 Y109.93267 F240
G0 X133.90900 Y109.39927 F240
G0 X133.09620 Y109.39927 F240
G0 X133.09620 Y109.95807 F240
G0 X133.90900 Y109.95807 F240
G0 X133.90900 Y109.93267 F240
M400
M5
M42 P13 S0 (OFF - LASER)
G00 Z0.25000 ( retract )

G00 X122.40280 Y133.68167 F2000 (rapid move to begin)
F1000.00000
G01 Z0.00000
F2000.00000
G0 X122.40280 Y133.68167 F240
G0 X122.40280 Y132.38627 F240
G0 X121.28520 Y132.38627 F240
G0 X121.28520 Y133.70707 F240
G0 X122.40280 Y133.70707 F240
G0 X122.40280 Y133.68167 F240
M400
M5
M42 P13 S0 (OFF - LASER)
G00 Z0.25000 ( retract )

G00 X120.59940 Y133.68167 F2000 (rapid move to begin)
F1000.00000
G01 Z0.00000
F2000.00000
G0 X120.59940 Y133.68167 F240
G0 X120.59940 Y132.38627 F240
G0 X119.48180 Y132.38627 F240
G0 X119.48180 Y133.70707 F240
G0 X120.59940 Y133.70707 F240
G0 X120.59940 Y133.68167 F240
M400
M5
M42 P13 S0 (OFF - LASER)
G00 Z0.25000 ( retract )

G00 X118.11020 Y133.24987 F2000 (rapid move to begin)
F1000.00000
G01 Z0.00000
F2000.00000
G0 X118.11020 Y133.24987 F240
G0 X118.11020 Y128.75407 F240
G0 X114.60500 Y128.75407 F240
G0 X114.60500 Y133.27527 F240
G0 X118.11020 Y133.27527 F240
G0 X118.11020 Y133.24987 F240
M400
M5
M42 P13 S0 (OFF - LASER)
G00 Z0.25000 ( retract )

G00 X112.57300 Y133.24987 F2000 (rapid move to begin)
F1000.00000
G01 Z0.00000
F2000.00000
G0 X112.57300 Y133.24987 F240
G0 X112.57300 Y128.75407 F240
G0 X109.06780 Y128.75407 F240
G0 X109.06780 Y133.27527 F240
G0 X112.57300 Y133.27527 F240
G0 X112.57300 Y133.24987 F240
M400
M5
M42 P13 S0 (OFF - LASER)
G00 Z0.25000 ( retract )

G00 X110.03300 Y135.30727 F2000 (rapid move to begin)
F1000.00000
G01 Z0.00000
F2000.00000
G0 X110.03300 Y135.30727 F240
G0 X110.03300 Y134.77387 F240
G0 X109.22020 Y134.77387 F240
G0 X109.22020 Y135.33267 F240
G0 X110.03300 Y135.33267 F240
G0 X110.03300 Y135.30727 F240
M400
M5
M42 P13 S0 (OFF - LASER)
G00 Z0.25000 ( retract )

G00 X110.03300 Y136.60267 F2000 (rapid move to begin)
F1000.00000
G01 Z0.00000
F2000.00000
G0 X110.03300 Y136.60267 F240
G0 X110.03300 Y136.06927 F240
G0 X109.22020 Y136.06927 F240
G0 X109.22020 Y136.62807 F240
G0 X110.03300 Y136.62807 F240
G0 X110.03300 Y136.60267 F240
M400
M5
M42 P13 S0 (OFF - LASER)
G00 Z0.25000 ( retract )

G00 X106.07060 Y130.32887 F2000 (rapid move to begin)
F1000.00000
G01 Z0.00000
F2000.00000
G0 X106.07060 Y130.32887 F240
G0 X106.07060 Y128.62707 F240
G0 X104.95300 Y128.62707 F240
G0 X104.95300 Y130.35427 F240
G0 X106.07060 Y130.35427 F240
G0 X106.07060 Y130.32887 F240
M400
M5
M42 P13 S0 (OFF - LASER)
G00 Z0.25000 ( retract )

G00 X103.07340 Y130.32887 F2000 (rapid move to begin)
F1000.00000
G01 Z0.00000
F2000.00000
G0 X103.07340 Y130.32887 F240
G0 X103.07340 Y128.62707 F240
G0 X101.95580 Y128.62707 F240
G0 X101.95580 Y130.35427 F240
G0 X103.07340 Y130.35427 F240
G0 X103.07340 Y130.32887 F240

M400
M5
M42 P13 S0 (OFF - LASER)
G00 Z0.25000 ( retract )

M5 ( Spindle off. )
M9 ( Coolant off. )

M106 S0 (Fan off.)
