M106 S255 (Fan on.)
G0 x100 y100 f2000 (  Set origin and speed.  )
( pcb2gcode 1.2.2 )
( Software-independent Gcode )





S10000 ( RPM spindle speed. )
G64 P0.00200 ( set maximum deviation from commanded toolpath )
F2000.00000 ( Feedrate. )

F2000.00000 ( Feedrate. )
M400
M5
M42 P13 S0 (OFF - LASER)
G00 Z0.25000 ( retract )

G00 X118.49120 Y106.19963 F2000 (rapid move to begin)
F1000.00000
G01 Z0.00000
F2000.00000
G0 X118.49120 Y106.19963 F240
G0 X118.49120 Y105.10743 F240
G0 X116.76400 Y105.10743 F240
G0 X116.76400 Y106.22503 F240
G0 X118.49120 Y106.22503 F240
G0 X118.49120 Y106.19963 F240
M400
M5
M42 P13 S0 (OFF - LASER)
G00 Z0.25000 ( retract )

G00 X118.49120 Y109.19683 F2000 (rapid move to begin)
F1000.00000
G01 Z0.00000
F2000.00000
G0 X118.49120 Y109.19683 F240
G0 X118.49120 Y108.10463 F240
G0 X116.76400 Y108.10463 F240
G0 X116.76400 Y109.22223 F240
G0 X118.49120 Y109.22223 F240
G0 X118.49120 Y109.19683 F240
M400
M5
M42 P13 S0 (OFF - LASER)
G00 Z0.25000 ( retract )

G00 X133.90900 Y109.93343 F2000 (rapid move to begin)
F1000.00000
G01 Z0.00000
F2000.00000
G0 X133.90900 Y109.93343 F240
G0 X133.90900 Y109.40003 F240
G0 X133.09620 Y109.40003 F240
G0 X133.09620 Y109.95883 F240
G0 X133.90900 Y109.95883 F240
G0 X133.90900 Y109.93343 F240
M400
M5
M42 P13 S0 (OFF - LASER)
G00 Z0.25000 ( retract )

G00 X133.90900 Y108.63803 F2000 (rapid move to begin)
F1000.00000
G01 Z0.00000
F2000.00000
G0 X133.90900 Y108.63803 F240
G0 X133.90900 Y108.10463 F240
G0 X133.09620 Y108.10463 F240
G0 X133.09620 Y108.66343 F240
G0 X133.90900 Y108.66343 F240
G0 X133.90900 Y108.63803 F240
M400
M5
M42 P13 S0 (OFF - LASER)
G00 Z0.25000 ( retract )

G00 X121.25980 Y133.27603 F2000 (rapid move to begin)
F1000.00000
G01 Z0.00000
F2000.00000
G0 X121.25980 Y133.27603 F240
G0 X121.25980 Y132.79343 F240
G0 X120.92960 Y132.79343 F240
G0 X120.92960 Y133.30143 F240
G0 X121.25980 Y133.30143 F240
G0 X121.25980 Y133.27603 F240
M400
M5
M42 P13 S0 (OFF - LASER)
G00 Z0.25000 ( retract )

G00 X120.44700 Y133.27603 F2000 (rapid move to begin)
F1000.00000
G01 Z0.00000
F2000.00000
G0 X120.44700 Y133.27603 F240
G0 X120.44700 Y132.79343 F240
G0 X120.14220 Y132.79343 F240
G0 X120.14220 Y133.30143 F240
G0 X120.44700 Y133.30143 F240
G0 X120.44700 Y133.27603 F240
M400
M5
M42 P13 S0 (OFF - LASER)
G00 Z0.25000 ( retract )

G00 X118.11020 Y133.25063 F2000 (rapid move to begin)
F1000.00000
G01 Z0.00000
F2000.00000
G0 X118.11020 Y133.25063 F240
G0 X118.11020 Y128.75483 F240
G0 X114.60500 Y128.75483 F240
G0 X114.60500 Y133.27603 F240
G0 X118.11020 Y133.27603 F240
G0 X118.11020 Y133.25063 F240
M400
M5
M42 P13 S0 (OFF - LASER)
G00 Z0.25000 ( retract )

G00 X112.57300 Y133.25063 F2000 (rapid move to begin)
F1000.00000
G01 Z0.00000
F2000.00000
G0 X112.57300 Y133.25063 F240
G0 X112.57300 Y128.75483 F240
G0 X109.06780 Y128.75483 F240
G0 X109.06780 Y133.27603 F240
G0 X112.57300 Y133.27603 F240
G0 X112.57300 Y133.25063 F240
M400
M5
M42 P13 S0 (OFF - LASER)
G00 Z0.25000 ( retract )

G00 X106.07060 Y130.32963 F2000 (rapid move to begin)
F1000.00000
G01 Z0.00000
F2000.00000
G0 X106.07060 Y130.32963 F240
G0 X106.07060 Y128.62783 F240
G0 X104.95300 Y128.62783 F240
G0 X104.95300 Y130.35503 F240
G0 X106.07060 Y130.35503 F240
G0 X106.07060 Y130.32963 F240
M400
M5
M42 P13 S0 (OFF - LASER)
G00 Z0.25000 ( retract )

G00 X103.07340 Y130.32963 F2000 (rapid move to begin)
F1000.00000
G01 Z0.00000
F2000.00000
G0 X103.07340 Y130.32963 F240
G0 X103.07340 Y128.62783 F240
G0 X101.95580 Y128.62783 F240
G0 X101.95580 Y130.35503 F240
G0 X103.07340 Y130.35503 F240
G0 X103.07340 Y130.32963 F240

M400
M5
M42 P13 S0 (OFF - LASER)
G00 Z0.25000 ( retract )

M5 ( Spindle off. )
M9 ( Coolant off. )

M106 S0 (Fan off.)
