M106 S255 (Fan on.)
G0 x100 y100 f2000 (  Set origin and speed.  )
( pcb2gcode 1.2.2 )
( Software-independent Gcode )





S10000 ( RPM spindle speed. )
G64 P0.00200 ( set maximum deviation from commanded toolpath )
F2000.00000 ( Feedrate. )

F2000.00000 ( Feedrate. )
M400
M5
M42 P13 S0 (OFF - LASER)
G00 Z0.25000 ( retract )

G00 X118.49120 Y106.19887 F2000 (rapid move to begin)
F1000.00000
G01 Z0.00000
F2000.00000
G0 X118.49120 Y106.19887 F240
G0 X118.49120 Y105.10667 F240
G0 X116.76400 Y105.10667 F240
G0 X116.76400 Y106.22427 F240
G0 X118.49120 Y106.22427 F240
G0 X118.49120 Y106.19887 F240
M400
M5
M42 P13 S0 (OFF - LASER)
G00 Z0.25000 ( retract )

G00 X118.49120 Y109.19607 F2000 (rapid move to begin)
F1000.00000
G01 Z0.00000
F2000.00000
G0 X118.49120 Y109.19607 F240
G0 X118.49120 Y108.10387 F240
G0 X116.76400 Y108.10387 F240
G0 X116.76400 Y109.22147 F240
G0 X118.49120 Y109.22147 F240
G0 X118.49120 Y109.19607 F240
M400
M5
M42 P13 S0 (OFF - LASER)
G00 Z0.25000 ( retract )

G00 X132.51200 Y109.93267 F2000 (rapid move to begin)
F1000.00000
G01 Z0.00000
F2000.00000
G0 X132.51200 Y109.93267 F240
G0 X132.51200 Y109.39927 F240
G0 X131.69920 Y109.39927 F240
G0 X131.69920 Y109.95807 F240
G0 X132.51200 Y109.95807 F240
G0 X132.51200 Y109.93267 F240
M400
M5
M42 P13 S0 (OFF - LASER)
G00 Z0.25000 ( retract )

G00 X132.51200 Y108.63727 F2000 (rapid move to begin)
F1000.00000
G01 Z0.00000
F2000.00000
G0 X132.51200 Y108.63727 F240
G0 X132.51200 Y108.10387 F240
G0 X131.69920 Y108.10387 F240
G0 X131.69920 Y108.66267 F240
G0 X132.51200 Y108.66267 F240
G0 X132.51200 Y108.63727 F240
M400
M5
M42 P13 S0 (OFF - LASER)
G00 Z0.25000 ( retract )

G00 X133.90900 Y108.63727 F2000 (rapid move to begin)
F1000.00000
G01 Z0.00000
F2000.00000
G0 X133.90900 Y108.63727 F240
G0 X133.90900 Y108.10387 F240
G0 X133.09620 Y108.10387 F240
G0 X133.09620 Y108.66267 F240
G0 X133.90900 Y108.66267 F240
G0 X133.90900 Y108.63727 F240
M400
M5
M42 P13 S0 (OFF - LASER)
G00 Z0.25000 ( retract )

G00 X133.90900 Y109.93267 F2000 (rapid move to begin)
F1000.00000
G01 Z0.00000
F2000.00000
G0 X133.90900 Y109.93267 F240
G0 X133.90900 Y109.39927 F240
G0 X133.09620 Y109.39927 F240
G0 X133.09620 Y109.95807 F240
G0 X133.90900 Y109.95807 F240
G0 X133.90900 Y109.93267 F240
M400
M5
M42 P13 S0 (OFF - LASER)
G00 Z0.25000 ( retract )

G00 X118.11020 Y133.24987 F2000 (rapid move to begin)
F1000.00000
G01 Z0.00000
F2000.00000
G0 X118.11020 Y133.24987 F240
G0 X118.11020 Y128.75407 F240
G0 X114.60500 Y128.75407 F240
G0 X114.60500 Y133.27527 F240
G0 X118.11020 Y133.27527 F240
G0 X118.11020 Y133.24987 F240
M400
M5
M42 P13 S0 (OFF - LASER)
G00 Z0.25000 ( retract )

G00 X112.57300 Y133.24987 F2000 (rapid move to begin)
F1000.00000
G01 Z0.00000
F2000.00000
G0 X112.57300 Y133.24987 F240
G0 X112.57300 Y128.75407 F240
G0 X109.06780 Y128.75407 F240
G0 X109.06780 Y133.27527 F240
G0 X112.57300 Y133.27527 F240
G0 X112.57300 Y133.24987 F240
M400
M5
M42 P13 S0 (OFF - LASER)
G00 Z0.25000 ( retract )

G00 X110.03300 Y135.30727 F2000 (rapid move to begin)
F1000.00000
G01 Z0.00000
F2000.00000
G0 X110.03300 Y135.30727 F240
G0 X110.03300 Y134.77387 F240
G0 X109.22020 Y134.77387 F240
G0 X109.22020 Y135.33267 F240
G0 X110.03300 Y135.33267 F240
G0 X110.03300 Y135.30727 F240
M400
M5
M42 P13 S0 (OFF - LASER)
G00 Z0.25000 ( retract )

G00 X110.03300 Y136.60267 F2000 (rapid move to begin)
F1000.00000
G01 Z0.00000
F2000.00000
G0 X110.03300 Y136.60267 F240
G0 X110.03300 Y136.06927 F240
G0 X109.22020 Y136.06927 F240
G0 X109.22020 Y136.62807 F240
G0 X110.03300 Y136.62807 F240
G0 X110.03300 Y136.60267 F240
M400
M5
M42 P13 S0 (OFF - LASER)
G00 Z0.25000 ( retract )

G00 X106.07060 Y130.32887 F2000 (rapid move to begin)
F1000.00000
G01 Z0.00000
F2000.00000
G0 X106.07060 Y130.32887 F240
G0 X106.07060 Y128.62707 F240
G0 X104.95300 Y128.62707 F240
G0 X104.95300 Y130.35427 F240
G0 X106.07060 Y130.35427 F240
G0 X106.07060 Y130.32887 F240
M400
M5
M42 P13 S0 (OFF - LASER)
G00 Z0.25000 ( retract )

G00 X103.07340 Y130.32887 F2000 (rapid move to begin)
F1000.00000
G01 Z0.00000
F2000.00000
G0 X103.07340 Y130.32887 F240
G0 X103.07340 Y128.62707 F240
G0 X101.95580 Y128.62707 F240
G0 X101.95580 Y130.35427 F240
G0 X103.07340 Y130.35427 F240
G0 X103.07340 Y130.32887 F240

M400
M5
M42 P13 S0 (OFF - LASER)
G00 Z0.25000 ( retract )

M5 ( Spindle off. )
M9 ( Coolant off. )

M106 S0 (Fan off.)
