M106 S255 (Fan on.)
G0 x100 y100 f2000 (  Set origin and speed.  )
( pcb2gcode 1.2.2 )
( Software-independent Gcode )





S10000 ( RPM spindle speed. )
G64 P0.00200 ( set maximum deviation from commanded toolpath )
F2000.00000 ( Feedrate. )

F2000.00000 ( Feedrate. )
M400
M5
M42 P13 S0 (OFF - LASER)
G00 Z0.25000 ( retract )

G00 X118.51660 Y106.24967 F2000 (rapid move to begin)
F1000.00000
G01 Z0.00000
F2000.00000
G0 X118.51660 Y106.24967 F240
G0 X118.51660 Y105.08127 F240
G0 X116.71320 Y105.08127 F240
G0 X116.71320 Y106.27507 F240
G0 X118.51660 Y106.27507 F240
G0 X118.51660 Y106.24967 F240
M400
M5
M42 P13 S0 (OFF - LASER)
G00 Z0.25000 ( retract )

G00 X118.51660 Y109.24687 F2000 (rapid move to begin)
F1000.00000
G01 Z0.00000
F2000.00000
G0 X118.51660 Y109.24687 F240
G0 X118.51660 Y108.07847 F240
G0 X116.71320 Y108.07847 F240
G0 X116.71320 Y109.27227 F240
G0 X118.51660 Y109.27227 F240
G0 X118.51660 Y109.24687 F240
M400
M5
M42 P13 S0 (OFF - LASER)
G00 Z0.25000 ( retract )

G00 X132.53740 Y109.98347 F2000 (rapid move to begin)
F1000.00000
G01 Z0.00000
F2000.00000
G0 X132.53740 Y109.98347 F240
G0 X132.53740 Y109.37387 F240
G0 X131.64840 Y109.37387 F240
G0 X131.64840 Y110.00887 F240
G0 X132.53740 Y110.00887 F240
G0 X132.53740 Y109.98347 F240
M400
M5
M42 P13 S0 (OFF - LASER)
G00 Z0.25000 ( retract )

G00 X132.53740 Y108.68807 F2000 (rapid move to begin)
F1000.00000
G01 Z0.00000
F2000.00000
G0 X132.53740 Y108.68807 F240
G0 X132.53740 Y108.07847 F240
G0 X131.64840 Y108.07847 F240
G0 X131.64840 Y108.71347 F240
G0 X132.53740 Y108.71347 F240
G0 X132.53740 Y108.68807 F240
M400
M5
M42 P13 S0 (OFF - LASER)
G00 Z0.25000 ( retract )

G00 X133.93440 Y108.68807 F2000 (rapid move to begin)
F1000.00000
G01 Z0.00000
F2000.00000
G0 X133.93440 Y108.68807 F240
G0 X133.93440 Y108.07847 F240
G0 X133.04540 Y108.07847 F240
G0 X133.04540 Y108.71347 F240
G0 X133.93440 Y108.71347 F240
G0 X133.93440 Y108.68807 F240
M400
M5
M42 P13 S0 (OFF - LASER)
G00 Z0.25000 ( retract )

G00 X133.93440 Y109.98347 F2000 (rapid move to begin)
F1000.00000
G01 Z0.00000
F2000.00000
G0 X133.93440 Y109.98347 F240
G0 X133.93440 Y109.37387 F240
G0 X133.04540 Y109.37387 F240
G0 X133.04540 Y110.00887 F240
G0 X133.93440 Y110.00887 F240
G0 X133.93440 Y109.98347 F240
M400
M5
M42 P13 S0 (OFF - LASER)
G00 Z0.25000 ( retract )

G00 X118.13560 Y133.30067 F2000 (rapid move to begin)
F1000.00000
G01 Z0.00000
F2000.00000
G0 X118.13560 Y133.30067 F240
G0 X118.13560 Y128.72867 F240
G0 X114.55420 Y128.72867 F240
G0 X114.55420 Y133.32607 F240
G0 X118.13560 Y133.32607 F240
G0 X118.13560 Y133.30067 F240
M400
M5
M42 P13 S0 (OFF - LASER)
G00 Z0.25000 ( retract )

G00 X112.59840 Y133.30067 F2000 (rapid move to begin)
F1000.00000
G01 Z0.00000
F2000.00000
G0 X112.59840 Y133.30067 F240
G0 X112.59840 Y128.72867 F240
G0 X109.01700 Y128.72867 F240
G0 X109.01700 Y133.32607 F240
G0 X112.59840 Y133.32607 F240
G0 X112.59840 Y133.30067 F240
M400
M5
M42 P13 S0 (OFF - LASER)
G00 Z0.25000 ( retract )

G00 X110.05840 Y135.35807 F2000 (rapid move to begin)
F1000.00000
G01 Z0.00000
F2000.00000
G0 X110.05840 Y135.35807 F240
G0 X110.05840 Y134.74847 F240
G0 X109.16940 Y134.74847 F240
G0 X109.16940 Y135.38347 F240
G0 X110.05840 Y135.38347 F240
G0 X110.05840 Y135.35807 F240
M400
M5
M42 P13 S0 (OFF - LASER)
G00 Z0.25000 ( retract )

G00 X110.05840 Y136.65347 F2000 (rapid move to begin)
F1000.00000
G01 Z0.00000
F2000.00000
G0 X110.05840 Y136.65347 F240
G0 X110.05840 Y136.04387 F240
G0 X109.16940 Y136.04387 F240
G0 X109.16940 Y136.67887 F240
G0 X110.05840 Y136.67887 F240
G0 X110.05840 Y136.65347 F240
M400
M5
M42 P13 S0 (OFF - LASER)
G00 Z0.25000 ( retract )

G00 X106.09600 Y130.37967 F2000 (rapid move to begin)
F1000.00000
G01 Z0.00000
F2000.00000
G0 X106.09600 Y130.37967 F240
G0 X106.09600 Y128.60167 F240
G0 X104.90220 Y128.60167 F240
G0 X104.90220 Y130.40507 F240
G0 X106.09600 Y130.40507 F240
G0 X106.09600 Y130.37967 F240
M400
M5
M42 P13 S0 (OFF - LASER)
G00 Z0.25000 ( retract )

G00 X103.09880 Y130.37967 F2000 (rapid move to begin)
F1000.00000
G01 Z0.00000
F2000.00000
G0 X103.09880 Y130.37967 F240
G0 X103.09880 Y128.60167 F240
G0 X101.90500 Y128.60167 F240
G0 X101.90500 Y130.40507 F240
G0 X103.09880 Y130.40507 F240
G0 X103.09880 Y130.37967 F240

M400
M5
M42 P13 S0 (OFF - LASER)
G00 Z0.25000 ( retract )

M5 ( Spindle off. )
M9 ( Coolant off. )

M106 S0 (Fan off.)
