M106 S255 (Fan on.)
G0 x100 y100 f2000 (  Set origin and speed.  )
( pcb2gcode 1.2.2 )
( Software-independent Gcode )





S10000 ( RPM spindle speed. )
G64 P0.00200 ( set maximum deviation from commanded toolpath )
F2000.00000 ( Feedrate. )

F2000.00000 ( Feedrate. )
M400
M5
M42 P13 S0 (OFF - LASER)
G00 Z0.25000 ( retract )

G00 X118.51660 Y106.22503 F2000 (rapid move to begin)
F1000.00000
G01 Z0.00000
F2000.00000
G0 X118.51660 Y106.22503 F240
G0 X118.51660 Y105.08203 F240
G0 X116.73860 Y105.08203 F240
G0 X116.73860 Y106.25043 F240
G0 X118.51660 Y106.25043 F240
G0 X118.51660 Y106.22503 F240
M400
M5
M42 P13 S0 (OFF - LASER)
G00 Z0.25000 ( retract )

G00 X118.51660 Y109.22223 F2000 (rapid move to begin)
F1000.00000
G01 Z0.00000
F2000.00000
G0 X118.51660 Y109.22223 F240
G0 X118.51660 Y108.07923 F240
G0 X116.73860 Y108.07923 F240
G0 X116.73860 Y109.24763 F240
G0 X118.51660 Y109.24763 F240
G0 X118.51660 Y109.22223 F240
M400
M5
M42 P13 S0 (OFF - LASER)
G00 Z0.25000 ( retract )

G00 X133.93440 Y109.95883 F2000 (rapid move to begin)
F1000.00000
G01 Z0.00000
F2000.00000
G0 X133.93440 Y109.95883 F240
G0 X133.93440 Y109.37463 F240
G0 X133.07080 Y109.37463 F240
G0 X133.07080 Y109.98423 F240
G0 X133.93440 Y109.98423 F240
G0 X133.93440 Y109.95883 F240
M400
M5
M42 P13 S0 (OFF - LASER)
G00 Z0.25000 ( retract )

G00 X133.93440 Y108.66343 F2000 (rapid move to begin)
F1000.00000
G01 Z0.00000
F2000.00000
G0 X133.93440 Y108.66343 F240
G0 X133.93440 Y108.07923 F240
G0 X133.07080 Y108.07923 F240
G0 X133.07080 Y108.68883 F240
G0 X133.93440 Y108.68883 F240
G0 X133.93440 Y108.66343 F240
M400
M5
M42 P13 S0 (OFF - LASER)
G00 Z0.25000 ( retract )

G00 X121.28520 Y133.30143 F2000 (rapid move to begin)
F1000.00000
G01 Z0.00000
F2000.00000
G0 X121.28520 Y133.30143 F240
G0 X121.28520 Y132.76803 F240
G0 X120.90420 Y132.76803 F240
G0 X120.90420 Y133.32683 F240
G0 X121.28520 Y133.32683 F240
G0 X121.28520 Y133.30143 F240
M400
M5
M42 P13 S0 (OFF - LASER)
G00 Z0.25000 ( retract )

G00 X120.47240 Y133.30143 F2000 (rapid move to begin)
F1000.00000
G01 Z0.00000
F2000.00000
G0 X120.47240 Y133.30143 F240
G0 X120.47240 Y132.76803 F240
G0 X120.11680 Y132.76803 F240
G0 X120.11680 Y133.32683 F240
G0 X120.47240 Y133.32683 F240
G0 X120.47240 Y133.30143 F240
M400
M5
M42 P13 S0 (OFF - LASER)
G00 Z0.25000 ( retract )

G00 X118.13560 Y133.27603 F2000 (rapid move to begin)
F1000.00000
G01 Z0.00000
F2000.00000
G0 X118.13560 Y133.27603 F240
G0 X118.13560 Y128.72943 F240
G0 X114.57960 Y128.72943 F240
G0 X114.57960 Y133.30143 F240
G0 X118.13560 Y133.30143 F240
G0 X118.13560 Y133.27603 F240
M400
M5
M42 P13 S0 (OFF - LASER)
G00 Z0.25000 ( retract )

G00 X112.59840 Y133.27603 F2000 (rapid move to begin)
F1000.00000
G01 Z0.00000
F2000.00000
G0 X112.59840 Y133.27603 F240
G0 X112.59840 Y128.72943 F240
G0 X109.04240 Y128.72943 F240
G0 X109.04240 Y133.30143 F240
G0 X112.59840 Y133.30143 F240
G0 X112.59840 Y133.27603 F240
M400
M5
M42 P13 S0 (OFF - LASER)
G00 Z0.25000 ( retract )

G00 X106.09600 Y130.35503 F2000 (rapid move to begin)
F1000.00000
G01 Z0.00000
F2000.00000
G0 X106.09600 Y130.35503 F240
G0 X106.09600 Y128.60243 F240
G0 X104.92760 Y128.60243 F240
G0 X104.92760 Y130.38043 F240
G0 X106.09600 Y130.38043 F240
G0 X106.09600 Y130.35503 F240
M400
M5
M42 P13 S0 (OFF - LASER)
G00 Z0.25000 ( retract )

G00 X103.09880 Y130.35503 F2000 (rapid move to begin)
F1000.00000
G01 Z0.00000
F2000.00000
G0 X103.09880 Y130.35503 F240
G0 X103.09880 Y128.60243 F240
G0 X101.93040 Y128.60243 F240
G0 X101.93040 Y130.38043 F240
G0 X103.09880 Y130.38043 F240
G0 X103.09880 Y130.35503 F240

M400
M5
M42 P13 S0 (OFF - LASER)
G00 Z0.25000 ( retract )

M5 ( Spindle off. )
M9 ( Coolant off. )

M106 S0 (Fan off.)
