M106 S255 (Fan on.)
G0 x100 y100 f2000 (  Set origin and speed.  )
( pcb2gcode 1.2.2 )
( Software-independent Gcode )





S10000 ( RPM spindle speed. )
G64 P0.00200 ( set maximum deviation from commanded toolpath )
F2000.00000 ( Feedrate. )

F2000.00000 ( Feedrate. )
M400
M5
M42 P13 S0 (OFF - LASER)
G00 Z0.25000 ( retract )

G00 X118.51660 Y106.22427 F2000 (rapid move to begin)
F1000.00000
G01 Z0.00000
F2000.00000
G0 X118.51660 Y106.22427 F240
G0 X118.51660 Y105.08127 F240
G0 X116.73860 Y105.08127 F240
G0 X116.73860 Y106.24967 F240
G0 X118.51660 Y106.24967 F240
G0 X118.51660 Y106.22427 F240
M400
M5
M42 P13 S0 (OFF - LASER)
G00 Z0.25000 ( retract )

G00 X118.51660 Y109.22147 F2000 (rapid move to begin)
F1000.00000
G01 Z0.00000
F2000.00000
G0 X118.51660 Y109.22147 F240
G0 X118.51660 Y108.07847 F240
G0 X116.73860 Y108.07847 F240
G0 X116.73860 Y109.24687 F240
G0 X118.51660 Y109.24687 F240
G0 X118.51660 Y109.22147 F240
M400
M5
M42 P13 S0 (OFF - LASER)
G00 Z0.25000 ( retract )

G00 X132.53740 Y109.95807 F2000 (rapid move to begin)
F1000.00000
G01 Z0.00000
F2000.00000
G0 X132.53740 Y109.95807 F240
G0 X132.53740 Y109.37387 F240
G0 X131.67380 Y109.37387 F240
G0 X131.67380 Y109.98347 F240
G0 X132.53740 Y109.98347 F240
G0 X132.53740 Y109.95807 F240
M400
M5
M42 P13 S0 (OFF - LASER)
G00 Z0.25000 ( retract )

G00 X132.53740 Y108.66267 F2000 (rapid move to begin)
F1000.00000
G01 Z0.00000
F2000.00000
G0 X132.53740 Y108.66267 F240
G0 X132.53740 Y108.07847 F240
G0 X131.67380 Y108.07847 F240
G0 X131.67380 Y108.68807 F240
G0 X132.53740 Y108.68807 F240
G0 X132.53740 Y108.66267 F240
M400
M5
M42 P13 S0 (OFF - LASER)
G00 Z0.25000 ( retract )

G00 X133.93440 Y108.66267 F2000 (rapid move to begin)
F1000.00000
G01 Z0.00000
F2000.00000
G0 X133.93440 Y108.66267 F240
G0 X133.93440 Y108.07847 F240
G0 X133.07080 Y108.07847 F240
G0 X133.07080 Y108.68807 F240
G0 X133.93440 Y108.68807 F240
G0 X133.93440 Y108.66267 F240
M400
M5
M42 P13 S0 (OFF - LASER)
G00 Z0.25000 ( retract )

G00 X133.93440 Y109.95807 F2000 (rapid move to begin)
F1000.00000
G01 Z0.00000
F2000.00000
G0 X133.93440 Y109.95807 F240
G0 X133.93440 Y109.37387 F240
G0 X133.07080 Y109.37387 F240
G0 X133.07080 Y109.98347 F240
G0 X133.93440 Y109.98347 F240
G0 X133.93440 Y109.95807 F240
M400
M5
M42 P13 S0 (OFF - LASER)
G00 Z0.25000 ( retract )

G00 X118.13560 Y133.27527 F2000 (rapid move to begin)
F1000.00000
G01 Z0.00000
F2000.00000
G0 X118.13560 Y133.27527 F240
G0 X118.13560 Y128.72867 F240
G0 X114.57960 Y128.72867 F240
G0 X114.57960 Y133.30067 F240
G0 X118.13560 Y133.30067 F240
G0 X118.13560 Y133.27527 F240
M400
M5
M42 P13 S0 (OFF - LASER)
G00 Z0.25000 ( retract )

G00 X112.59840 Y133.27527 F2000 (rapid move to begin)
F1000.00000
G01 Z0.00000
F2000.00000
G0 X112.59840 Y133.27527 F240
G0 X112.59840 Y128.72867 F240
G0 X109.04240 Y128.72867 F240
G0 X109.04240 Y133.30067 F240
G0 X112.59840 Y133.30067 F240
G0 X112.59840 Y133.27527 F240
M400
M5
M42 P13 S0 (OFF - LASER)
G00 Z0.25000 ( retract )

G00 X111.58240 Y135.33267 F2000 (rapid move to begin)
F1000.00000
G01 Z0.00000
F2000.00000
G0 X111.58240 Y135.33267 F240
G0 X111.58240 Y134.74847 F240
G0 X110.71880 Y134.74847 F240
G0 X110.71880 Y135.35807 F240
G0 X111.58240 Y135.35807 F240
G0 X111.58240 Y135.33267 F240
M400
M5
M42 P13 S0 (OFF - LASER)
G00 Z0.25000 ( retract )

G00 X111.58240 Y136.62807 F2000 (rapid move to begin)
F1000.00000
G01 Z0.00000
F2000.00000
G0 X111.58240 Y136.62807 F240
G0 X111.58240 Y136.04387 F240
G0 X110.71880 Y136.04387 F240
G0 X110.71880 Y136.65347 F240
G0 X111.58240 Y136.65347 F240
G0 X111.58240 Y136.62807 F240
M400
M5
M42 P13 S0 (OFF - LASER)
G00 Z0.25000 ( retract )

G00 X110.05840 Y136.62807 F2000 (rapid move to begin)
F1000.00000
G01 Z0.00000
F2000.00000
G0 X110.05840 Y136.62807 F240
G0 X110.05840 Y136.04387 F240
G0 X109.19480 Y136.04387 F240
G0 X109.19480 Y136.65347 F240
G0 X110.05840 Y136.65347 F240
G0 X110.05840 Y136.62807 F240
M400
M5
M42 P13 S0 (OFF - LASER)
G00 Z0.25000 ( retract )

G00 X110.05840 Y135.33267 F2000 (rapid move to begin)
F1000.00000
G01 Z0.00000
F2000.00000
G0 X110.05840 Y135.33267 F240
G0 X110.05840 Y134.74847 F240
G0 X109.19480 Y134.74847 F240
G0 X109.19480 Y135.35807 F240
G0 X110.05840 Y135.35807 F240
G0 X110.05840 Y135.33267 F240
M400
M5
M42 P13 S0 (OFF - LASER)
G00 Z0.25000 ( retract )

G00 X106.09600 Y130.35427 F2000 (rapid move to begin)
F1000.00000
G01 Z0.00000
F2000.00000
G0 X106.09600 Y130.35427 F240
G0 X106.09600 Y128.60167 F240
G0 X104.92760 Y128.60167 F240
G0 X104.92760 Y130.37967 F240
G0 X106.09600 Y130.37967 F240
G0 X106.09600 Y130.35427 F240
M400
M5
M42 P13 S0 (OFF - LASER)
G00 Z0.25000 ( retract )

G00 X103.09880 Y130.35427 F2000 (rapid move to begin)
F1000.00000
G01 Z0.00000
F2000.00000
G0 X103.09880 Y130.35427 F240
G0 X103.09880 Y128.60167 F240
G0 X101.93040 Y128.60167 F240
G0 X101.93040 Y130.37967 F240
G0 X103.09880 Y130.37967 F240
G0 X103.09880 Y130.35427 F240

M400
M5
M42 P13 S0 (OFF - LASER)
G00 Z0.25000 ( retract )

M5 ( Spindle off. )
M9 ( Coolant off. )

M106 S0 (Fan off.)
