( pcb2gcode 1.2.2 )
( Software-independent Gcode )

G94 ( Inches per minute feed rate. )
G20 ( Units == INCHES. )

G90 ( Absolute coordinates. )
S10000 ( RPM spindle speed. )
G64 P0.00200 ( set maximum deviation from commanded toolpath )
F1.96850 ( Feedrate. )

F1.96850 ( Feedrate. )
M3 ( Spindle on clockwise. )
G04 P0 ( dwell for no time -- G64 should not smooth over this point )
G00 Z0.19685 ( retract )

G00 X0.14800 Y0.45200 ( rapid move to begin. )
F0.98425
G01 Z-0.01969
G04 P0 ( dwell for no time -- G64 should not smooth over this point )
F1.96850
X0.14800 Y0.45200
X0.14400 Y0.44900
X0.13900 Y0.43800
X0.13800 Y0.40100
X0.14000 Y0.39200
X0.14400 Y0.38400
X0.15000 Y0.37800
X0.15400 Y0.37700
X0.16000 Y0.37200
X0.17100 Y0.37000
X0.19800 Y0.37000
X0.20900 Y0.37200
X0.21000 Y0.37400
X0.21900 Y0.37800
X0.22500 Y0.38400
X0.22900 Y0.39200
X0.23100 Y0.40100
X0.23100 Y0.43200
X0.22900 Y0.44100
X0.22500 Y0.44900
X0.21900 Y0.45500
X0.21000 Y0.45900
X0.20900 Y0.46100
X0.20400 Y0.46200
X0.17100 Y0.46300
X0.16000 Y0.46100
X0.15900 Y0.45900
X0.15000 Y0.45500
X0.14800 Y0.45200
G04 P0 ( dwell for no time -- G64 should not smooth over this point )
G00 Z0.19685 ( retract )

G00 X0.03800 Y0.75200 ( rapid move to begin. )
F0.98425
G01 Z-0.01969
G04 P0 ( dwell for no time -- G64 should not smooth over this point )
F1.96850
X0.03800 Y0.75200
X0.03800 Y0.67000
X0.13100 Y0.67000
X0.13100 Y0.76300
X0.03800 Y0.76300
X0.03800 Y0.75200
G04 P0 ( dwell for no time -- G64 should not smooth over this point )
G00 Z0.19685 ( retract )

G00 X0.41500 Y0.77300 ( rapid move to begin. )
F0.98425
G01 Z-0.01969
G04 P0 ( dwell for no time -- G64 should not smooth over this point )
F1.96850
X0.41500 Y0.77300
X0.40600 Y0.76400
X0.40200 Y0.74900
X0.40400 Y0.73400
X0.40900 Y0.72400
X0.42000 Y0.71400
X0.43700 Y0.70900
X0.45200 Y0.71100
X0.46200 Y0.71600
X0.47100 Y0.72700
X0.47600 Y0.73800
X0.47700 Y0.74400
X0.47600 Y0.75500
X0.47100 Y0.76600
X0.46000 Y0.77700
X0.44700 Y0.78300
X0.42700 Y0.78200
X0.42600 Y0.78000
X0.41700 Y0.77600
X0.41500 Y0.77300
G04 P0 ( dwell for no time -- G64 should not smooth over this point )
G00 Z0.19685 ( retract )

G00 X0.52200 Y0.77300 ( rapid move to begin. )
F0.98425
G01 Z-0.01969
G04 P0 ( dwell for no time -- G64 should not smooth over this point )
F1.96850
X0.52200 Y0.77300
X0.52000 Y0.77300
X0.51100 Y0.76400
X0.50600 Y0.75100
X0.50600 Y0.74100
X0.50800 Y0.73400
X0.51100 Y0.73100
X0.51200 Y0.72700
X0.52000 Y0.71900
X0.52900 Y0.71400
X0.54500 Y0.71300
X0.55600 Y0.71700
X0.56500 Y0.72600
X0.57300 Y0.72500
X0.57600 Y0.72600
X0.57600 Y0.76700
X0.56500 Y0.76600
X0.55700 Y0.77400
X0.54400 Y0.78000
X0.53000 Y0.77900
X0.52900 Y0.77700
X0.52500 Y0.77600
X0.52200 Y0.77300
G04 P0 ( dwell for no time -- G64 should not smooth over this point )
G00 Z0.19685 ( retract )

G00 X0.62200 Y0.77300 ( rapid move to begin. )
F0.98425
G01 Z-0.01969
G04 P0 ( dwell for no time -- G64 should not smooth over this point )
F1.96850
X0.62200 Y0.77300
X0.62000 Y0.77300
X0.61300 Y0.76500
X0.60400 Y0.76500
X0.60400 Y0.72700
X0.61400 Y0.72700
X0.61800 Y0.72100
X0.62400 Y0.71900
X0.62500 Y0.71700
X0.63500 Y0.71400
X0.64800 Y0.71500
X0.66100 Y0.72100
X0.66200 Y0.72400
X0.66800 Y0.73000
X0.67200 Y0.74200
X0.67200 Y0.75100
X0.66900 Y0.75600
X0.66800 Y0.76300
X0.65400 Y0.77600
X0.64900 Y0.77600
X0.64300 Y0.77900
X0.63100 Y0.77800
X0.63000 Y0.77600
X0.62500 Y0.77600
X0.62200 Y0.77300
G04 P0 ( dwell for no time -- G64 should not smooth over this point )
G00 Z0.19685 ( retract )

G00 X0.67200 Y0.67300 ( rapid move to begin. )
F0.98425
G01 Z-0.01969
G04 P0 ( dwell for no time -- G64 should not smooth over this point )
F1.96850
X0.67200 Y0.67300
X0.67000 Y0.67300
X0.66300 Y0.66600
X0.65800 Y0.65400
X0.65800 Y0.63800
X0.66100 Y0.63300
X0.66100 Y0.63000
X0.66800 Y0.62100
X0.68100 Y0.61500
X0.69800 Y0.61500
X0.71100 Y0.62100
X0.71500 Y0.62700
X0.72000 Y0.62800
X0.72200 Y0.63000
X0.72300 Y0.63500
X0.72200 Y0.66300
X0.71600 Y0.66500
X0.70400 Y0.67600
X0.69900 Y0.67600
X0.69700 Y0.67800
X0.68100 Y0.67800
X0.68000 Y0.67600
X0.67500 Y0.67600
X0.67200 Y0.67300
G04 P0 ( dwell for no time -- G64 should not smooth over this point )
G00 Z0.19685 ( retract )

G00 X0.46500 Y0.67300 ( rapid move to begin. )
F0.98425
G01 Z-0.01969
G04 P0 ( dwell for no time -- G64 should not smooth over this point )
F1.96850
X0.46500 Y0.67300
X0.45600 Y0.66400
X0.45200 Y0.64900
X0.45400 Y0.63400
X0.45900 Y0.62400
X0.47000 Y0.61400
X0.48700 Y0.60900
X0.50200 Y0.61100
X0.51200 Y0.61600
X0.52100 Y0.62700
X0.52600 Y0.63800
X0.52600 Y0.65500
X0.52300 Y0.65900
X0.52100 Y0.66600
X0.51000 Y0.67700
X0.49700 Y0.68300
X0.47700 Y0.68200
X0.47100 Y0.67700
X0.46700 Y0.67600
X0.46500 Y0.67300
G04 P0 ( dwell for no time -- G64 should not smooth over this point )
G00 Z0.19685 ( retract )

G00 X0.49300 Y0.91300 ( rapid move to begin. )
F0.98425
G01 Z-0.01969
G04 P0 ( dwell for no time -- G64 should not smooth over this point )
F1.96850
X0.49300 Y0.91300
X0.48900 Y0.90900
X0.48700 Y0.90200
X0.48700 Y0.87100
X0.48900 Y0.86400
X0.49800 Y0.85300
X0.50800 Y0.84900
X0.54100 Y0.84900
X0.55100 Y0.85300
X0.55800 Y0.86000
X0.56200 Y0.87100
X0.56200 Y0.90200
X0.56000 Y0.91000
X0.55000 Y0.92000
X0.54800 Y0.92000
X0.54600 Y0.92300
X0.54100 Y0.92400
X0.50800 Y0.92400
X0.49900 Y0.92000
X0.49300 Y0.91300
G04 P0 ( dwell for no time -- G64 should not smooth over this point )
G00 Z0.19685 ( retract )

G00 X0.68700 Y0.91300 ( rapid move to begin. )
F0.98425
G01 Z-0.01969
G04 P0 ( dwell for no time -- G64 should not smooth over this point )
F1.96850
X0.68700 Y0.91300
X0.68700 Y0.85800
X0.69200 Y0.85100
X0.69800 Y0.84800
X0.75400 Y0.84900
X0.76200 Y0.85700
X0.76300 Y0.87100
X1.13400 Y0.87100
X1.17100 Y0.83400
X1.17000 Y0.81600
X1.17200 Y0.81400
X1.17200 Y0.79900
X1.18800 Y0.78500
X1.22100 Y0.78400
X1.22100 Y0.79100
X1.22900 Y0.79500
X1.22900 Y0.79700
X1.23200 Y0.79900
X1.23200 Y0.80100
X1.23600 Y0.80500
X1.23700 Y0.81200
X1.24000 Y0.81700
X1.24000 Y0.82500
X1.23600 Y0.83400
X1.23600 Y0.83800
X1.22700 Y0.84900
X1.22300 Y0.85000
X1.22000 Y0.85300
X1.21000 Y0.85600
X1.19000 Y0.85600
X1.14800 Y0.89900
X1.13900 Y0.90200
X0.76300 Y0.90200
X0.76100 Y0.92400
X0.68900 Y0.92400
X0.68900 Y0.91600
X0.68700 Y0.91500
X0.68700 Y0.91300
G04 P0 ( dwell for no time -- G64 should not smooth over this point )
G00 Z0.19685 ( retract )

G00 X0.91100 Y1.06600 ( rapid move to begin. )
F0.98425
G01 Z-0.01969
G04 P0 ( dwell for no time -- G64 should not smooth over this point )
F1.96850
X0.91100 Y1.06600
X0.81500 Y0.97000
X0.81100 Y0.96800
X0.79900 Y0.96800
X0.79900 Y0.95500
X1.23700 Y0.95500
X1.27200 Y0.99000
X1.27000 Y0.99600
X1.19300 Y1.07300
X0.91700 Y1.07300
X0.91100 Y1.06600
G04 P0 ( dwell for no time -- G64 should not smooth over this point )
G00 Z0.19685 ( retract )

G00 X1.28300 Y0.84100 ( rapid move to begin. )
F0.98425
G01 Z-0.01969
G04 P0 ( dwell for no time -- G64 should not smooth over this point )
F1.96850
X1.28300 Y0.84100
X1.27900 Y0.84000
X1.26800 Y0.82700
X1.26800 Y0.82300
X1.26500 Y0.81600
X1.26600 Y0.80700
X1.26500 Y0.79700
X1.24900 Y0.78200
X1.22100 Y0.78200
X1.22100 Y0.78400
X1.19100 Y0.78400
X1.18800 Y0.78500
X1.18600 Y0.78800
X1.18200 Y0.78900
X1.17200 Y0.79900
X1.17200 Y0.80200
X1.16100 Y0.80300
X1.16100 Y0.80500
X1.15700 Y0.80500
X1.15400 Y0.80700
X0.98100 Y0.80700
X0.97700 Y0.81400
X0.97200 Y0.81900
X0.96800 Y0.82000
X0.96500 Y0.82300
X0.95500 Y0.82600
X0.94500 Y0.82600
X0.93700 Y0.82400
X0.92700 Y0.81800
X0.91800 Y0.80700
X0.91800 Y0.80300
X0.91500 Y0.79600
X0.91500 Y0.78600
X0.92000 Y0.77200
X0.92700 Y0.76400
X0.94600 Y0.75600
X0.95400 Y0.75600
X0.96900 Y0.76200
X0.97000 Y0.76400
X0.97400 Y0.76500
X0.97400 Y0.76700
X0.97700 Y0.76900
X0.98100 Y0.77600
X1.14900 Y0.77600
X1.16900 Y0.75500
X1.17900 Y0.75100
X1.25500 Y0.75100
X1.26500 Y0.75500
X1.28600 Y0.77700
X1.30400 Y0.77600
X1.32400 Y0.78500
X1.32400 Y0.78700
X1.33100 Y0.79500
X1.33200 Y0.80200
X1.33500 Y0.80700
X1.33500 Y0.81500
X1.33100 Y0.82400
X1.33100 Y0.82800
X1.32200 Y0.83900
X1.31800 Y0.84000
X1.31500 Y0.84300
X1.30500 Y0.84600
X1.29500 Y0.84600
X1.28400 Y0.84300
X1.28300 Y0.84100
G04 P0 ( dwell for no time -- G64 should not smooth over this point )
G00 Z0.19685 ( retract )

G00 X1.34300 Y0.70600 ( rapid move to begin. )
F0.98425
G01 Z-0.01969
G04 P0 ( dwell for no time -- G64 should not smooth over this point )
F1.96850
X1.34300 Y0.70600
X1.33900 Y0.70500
X1.32700 Y0.69100
X0.81700 Y0.69100
X0.81100 Y0.68900
X0.80000 Y0.67800
X0.78100 Y0.67800
X0.78000 Y0.67600
X0.77500 Y0.67600
X0.77400 Y0.67400
X0.77000 Y0.67300
X0.76300 Y0.66500
X0.75700 Y0.66300
X0.75600 Y0.63500
X0.75700 Y0.63000
X0.75900 Y0.62800
X0.76400 Y0.62700
X0.76800 Y0.62100
X0.77400 Y0.61900
X0.77500 Y0.61700
X0.78100 Y0.61500
X0.79800 Y0.61500
X0.80400 Y0.61700
X0.80500 Y0.61900
X0.81100 Y0.62100
X0.81200 Y0.62400
X0.81800 Y0.63000
X0.81900 Y0.63600
X0.82100 Y0.63800
X0.82100 Y0.65700
X0.82800 Y0.66200
X1.10800 Y0.66200
X1.11100 Y0.65800
X1.17900 Y0.65800
X1.18200 Y0.66200
X1.32700 Y0.66200
X1.33700 Y0.64900
X1.34400 Y0.64500
X1.35100 Y0.64400
X1.35300 Y0.64200
X1.36700 Y0.64200
X1.38400 Y0.65000
X1.38400 Y0.65200
X1.39100 Y0.66000
X1.39200 Y0.66700
X1.39400 Y0.66900
X1.39400 Y0.68300
X1.39100 Y0.68900
X1.39100 Y0.69300
X1.38700 Y0.69700
X1.38700 Y0.69900
X1.37700 Y0.70700
X1.36500 Y0.71100
X1.35500 Y0.71100
X1.34400 Y0.70800
X1.34300 Y0.70600
G04 P0 ( dwell for no time -- G64 should not smooth over this point )
G00 Z0.19685 ( retract )

G00 X1.10800 Y0.65200 ( rapid move to begin. )
F0.98425
G01 Z-0.01969
G04 P0 ( dwell for no time -- G64 should not smooth over this point )
F1.96850
X1.10800 Y0.65200
X1.10000 Y0.64800
X1.09400 Y0.64700
X1.08900 Y0.64300
X1.08300 Y0.64100
X1.08200 Y0.63900
X1.07400 Y0.63600
X1.06400 Y0.62600
X1.05700 Y0.62200
X1.05300 Y0.61500
X1.04300 Y0.60500
X1.03400 Y0.58600
X1.03200 Y0.58500
X1.02400 Y0.56000
X1.02200 Y0.54500
X1.02200 Y0.52400
X1.02600 Y0.50100
X1.02900 Y0.49600
X1.03200 Y0.48400
X1.03400 Y0.48300
X1.04300 Y0.46400
X1.05300 Y0.45400
X1.05700 Y0.44700
X1.06400 Y0.44300
X1.07400 Y0.43300
X1.09300 Y0.42400
X1.09400 Y0.42200
X1.12400 Y0.41300
X1.15500 Y0.41200
X1.17800 Y0.41600
X1.18600 Y0.42000
X1.19500 Y0.42200
X1.19600 Y0.42400
X1.21500 Y0.43300
X1.22500 Y0.44300
X1.23200 Y0.44700
X1.23600 Y0.45400
X1.24600 Y0.46400
X1.24900 Y0.47200
X1.25100 Y0.47300
X1.25300 Y0.47900
X1.25500 Y0.48000
X1.26300 Y0.50100
X1.26700 Y0.52400
X1.26700 Y0.54500
X1.26300 Y0.56800
X1.25500 Y0.59000
X1.25100 Y0.59400
X1.24600 Y0.60500
X1.23600 Y0.61500
X1.23200 Y0.62200
X1.22500 Y0.62600
X1.21500 Y0.63600
X1.20700 Y0.63900
X1.20000 Y0.64500
X1.18300 Y0.65100
X1.17900 Y0.65800
X1.12100 Y0.65900
X1.11100 Y0.65800
X1.10800 Y0.65200
G04 P0 ( dwell for no time -- G64 should not smooth over this point )
G00 Z0.19685 ( retract )

G00 X1.11200 Y0.36900 ( rapid move to begin. )
F0.98425
G01 Z-0.01969
G04 P0 ( dwell for no time -- G64 should not smooth over this point )
F1.96850
X1.11200 Y0.36900
X1.09400 Y0.36400
X1.09300 Y0.36200
X1.07400 Y0.35300
X1.06400 Y0.34300
X1.05700 Y0.33900
X1.05300 Y0.33200
X1.04300 Y0.32200
X1.03400 Y0.30300
X1.03200 Y0.30200
X1.02300 Y0.27200
X1.02200 Y0.24100
X1.02400 Y0.22600
X1.03200 Y0.20100
X1.03400 Y0.20000
X1.04300 Y0.18100
X1.05300 Y0.17100
X1.05700 Y0.16400
X1.06400 Y0.16000
X1.07400 Y0.15000
X1.08200 Y0.14700
X1.08300 Y0.14500
X1.08900 Y0.14300
X1.09400 Y0.13900
X1.11500 Y0.13200
X1.11900 Y0.13200
X1.12300 Y0.12600
X1.16600 Y0.12600
X1.17000 Y0.13200
X1.17800 Y0.13300
X1.19000 Y0.13700
X1.19200 Y0.13900
X1.19800 Y0.14000
X1.20400 Y0.14500
X1.20800 Y0.14600
X1.20900 Y0.14800
X1.21500 Y0.15000
X1.22500 Y0.16000
X1.23200 Y0.16400
X1.23600 Y0.17100
X1.24600 Y0.18100
X1.24800 Y0.18700
X1.25000 Y0.18800
X1.25100 Y0.19200
X1.25600 Y0.19800
X1.26600 Y0.23100
X1.26700 Y0.26200
X1.26500 Y0.27700
X1.25700 Y0.30200
X1.25300 Y0.30700
X1.25100 Y0.31300
X1.24900 Y0.31400
X1.24600 Y0.32200
X1.23600 Y0.33200
X1.23200 Y0.33900
X1.22500 Y0.34300
X1.21500 Y0.35300
X1.19600 Y0.36200
X1.19500 Y0.36400
X1.16500 Y0.37300
X1.13400 Y0.37400
X1.12400 Y0.37300
X1.11200 Y0.36900
G04 P0 ( dwell for no time -- G64 should not smooth over this point )
G00 Z0.19685 ( retract )

G00 X1.54200 Y0.36900 ( rapid move to begin. )
F0.98425
G01 Z-0.01969
G04 P0 ( dwell for no time -- G64 should not smooth over this point )
F1.96850
X1.54200 Y0.36900
X1.52400 Y0.36400
X1.52300 Y0.36200
X1.50400 Y0.35300
X1.49400 Y0.34300
X1.48700 Y0.33900
X1.48300 Y0.33200
X1.47300 Y0.32200
X1.46400 Y0.30300
X1.46200 Y0.30200
X1.46000 Y0.29200
X1.45700 Y0.28700
X1.45500 Y0.27500
X1.45300 Y0.27200
X1.45300 Y0.23100
X1.46200 Y0.20100
X1.46400 Y0.20000
X1.47300 Y0.18100
X1.48300 Y0.17100
X1.48700 Y0.16400
X1.49400 Y0.16000
X1.50400 Y0.15000
X1.51200 Y0.14700
X1.51300 Y0.14500
X1.51700 Y0.14400
X1.51800 Y0.14200
X1.52400 Y0.13900
X1.54500 Y0.13200
X1.54900 Y0.13200
X1.55300 Y0.12600
X1.59600 Y0.12600
X1.60000 Y0.13200
X1.60800 Y0.13300
X1.62000 Y0.13700
X1.62200 Y0.13900
X1.62800 Y0.14000
X1.63400 Y0.14500
X1.63800 Y0.14600
X1.63900 Y0.14800
X1.64500 Y0.15000
X1.65500 Y0.16000
X1.66200 Y0.16400
X1.66600 Y0.17100
X1.67600 Y0.18100
X1.67800 Y0.18700
X1.68000 Y0.18800
X1.68000 Y0.19000
X1.68200 Y0.19100
X1.68300 Y0.19500
X1.68600 Y0.19800
X1.69600 Y0.23100
X1.69700 Y0.26200
X1.69500 Y0.27700
X1.68700 Y0.30200
X1.68300 Y0.30700
X1.68100 Y0.31300
X1.67900 Y0.31400
X1.67600 Y0.32200
X1.66600 Y0.33200
X1.66200 Y0.33900
X1.65500 Y0.34300
X1.64500 Y0.35300
X1.62600 Y0.36200
X1.62500 Y0.36400
X1.59500 Y0.37300
X1.56400 Y0.37400
X1.55400 Y0.37300
X1.54200 Y0.36900
G04 P0 ( dwell for no time -- G64 should not smooth over this point )
G00 Z0.19685 ( retract )

G00 X1.95200 Y0.67300 ( rapid move to begin. )
F0.98425
G01 Z-0.01969
G04 P0 ( dwell for no time -- G64 should not smooth over this point )
F1.96850
X1.95200 Y0.67300
X1.94500 Y0.66600
X1.94300 Y0.65300
X1.94300 Y0.63800
X1.94500 Y0.63700
X1.94500 Y0.63300
X1.94800 Y0.62700
X1.95300 Y0.62100
X1.96600 Y0.61500
X1.98500 Y0.61400
X1.98500 Y0.61600
X1.98800 Y0.61600
X1.99000 Y0.61900
X1.99600 Y0.62100
X2.00100 Y0.62600
X2.00400 Y0.62600
X2.00400 Y0.63200
X2.00600 Y0.63700
X2.00600 Y0.65500
X2.00100 Y0.66600
X1.99400 Y0.67300
X1.99000 Y0.67400
X1.98900 Y0.67600
X1.98400 Y0.67600
X1.98300 Y0.67800
X1.96400 Y0.67700
X1.95800 Y0.67800
X1.95200 Y0.67300
G04 P0 ( dwell for no time -- G64 should not smooth over this point )
G00 Z0.19685 ( retract )

G00 X1.90700 Y0.77300 ( rapid move to begin. )
F0.98425
G01 Z-0.01969
G04 P0 ( dwell for no time -- G64 should not smooth over this point )
F1.96850
X1.90700 Y0.77300
X1.89700 Y0.76400
X1.89500 Y0.75600
X1.89300 Y0.75400
X1.89300 Y0.73800
X1.89500 Y0.73700
X1.89500 Y0.73300
X1.89800 Y0.72700
X1.90200 Y0.72400
X1.90200 Y0.72200
X1.90500 Y0.72200
X1.91000 Y0.71700
X1.91600 Y0.71500
X1.93500 Y0.71500
X1.94600 Y0.71800
X1.95500 Y0.72800
X1.95600 Y0.73700
X1.95600 Y0.75500
X1.95100 Y0.76600
X1.94400 Y0.77300
X1.94000 Y0.77400
X1.93900 Y0.77600
X1.93400 Y0.77600
X1.93300 Y0.77800
X1.91700 Y0.77800
X1.91500 Y0.77600
X1.91000 Y0.77600
X1.90700 Y0.77300
G04 P0 ( dwell for no time -- G64 should not smooth over this point )
G00 Z0.19685 ( retract )

G00 X1.83000 Y0.84100 ( rapid move to begin. )
F0.98425
G01 Z-0.01969
G04 P0 ( dwell for no time -- G64 should not smooth over this point )
F1.96850
X1.83000 Y0.84100
X1.82300 Y0.83500
X1.82200 Y0.83100
X1.82000 Y0.83000
X1.81700 Y0.82400
X1.81500 Y0.81400
X1.81700 Y0.79800
X1.81900 Y0.79700
X1.82300 Y0.78700
X1.83400 Y0.77700
X1.84700 Y0.77200
X1.86300 Y0.77200
X1.87900 Y0.77900
X1.88700 Y0.78700
X1.89400 Y0.80300
X1.89400 Y0.81900
X1.88700 Y0.83500
X1.87900 Y0.84300
X1.86900 Y0.84700
X1.86800 Y0.84900
X1.85700 Y0.85100
X1.84200 Y0.84900
X1.83600 Y0.84600
X1.83500 Y0.84400
X1.83100 Y0.84300
X1.83000 Y0.84100
G04 P0 ( dwell for no time -- G64 should not smooth over this point )
G00 Z0.19685 ( retract )

G00 X1.74200 Y0.87600 ( rapid move to begin. )
F0.98425
G01 Z-0.01969
G04 P0 ( dwell for no time -- G64 should not smooth over this point )
F1.96850
X1.74200 Y0.87600
X1.74200 Y0.86500
X1.74400 Y0.86500
X1.74400 Y0.72700
X1.74900 Y0.72200
X1.87900 Y0.72100
X1.88800 Y0.71800
X1.89500 Y0.71400
X1.89700 Y0.71100
X1.89900 Y0.71100
X1.90700 Y0.70300
X1.90700 Y0.70100
X1.91100 Y0.69700
X1.91200 Y0.69200
X1.92200 Y0.69200
X1.92500 Y0.69300
X1.93900 Y0.70700
X1.94100 Y0.71600
X1.91600 Y0.71500
X1.91000 Y0.71700
X1.90500 Y0.72200
X1.90200 Y0.72200
X1.90200 Y0.72400
X1.89800 Y0.72700
X1.89500 Y0.73300
X1.89500 Y0.73700
X1.89300 Y0.73800
X1.89300 Y0.75400
X1.89500 Y0.75600
X1.89700 Y0.76400
X1.90700 Y0.77400
X1.90900 Y0.77400
X1.91000 Y0.77600
X1.91500 Y0.77600
X1.91700 Y0.77800
X1.93300 Y0.77800
X1.93400 Y0.77600
X1.93900 Y0.77600
X1.94000 Y0.77400
X1.94400 Y0.77300
X1.95100 Y0.76600
X1.95600 Y0.75500
X1.95500 Y0.73000
X1.96400 Y0.73200
X1.97800 Y0.74600
X1.97800 Y0.77500
X1.87300 Y0.88000
X1.86100 Y0.88400
X1.74500 Y0.88400
X1.74200 Y0.88100
X1.74200 Y0.87600
G04 P0 ( dwell for no time -- G64 should not smooth over this point )
G00 Z0.19685 ( retract )

G00 X1.78600 Y1.09600 ( rapid move to begin. )
F0.98425
G01 Z-0.01969
G04 P0 ( dwell for no time -- G64 should not smooth over this point )
F1.96850
X1.78600 Y1.09600
X1.78700 Y1.09200
X1.99100 Y0.88800
X2.00300 Y0.88400
X2.01400 Y0.88400
X2.01100 Y0.89600
X1.80700 Y1.10000
X1.78500 Y1.10100
X1.78600 Y1.09600
G04 P0 ( dwell for no time -- G64 should not smooth over this point )
G00 Z0.19685 ( retract )

G00 X1.72000 Y1.14600 ( rapid move to begin. )
F0.98425
G01 Z-0.01969
G04 P0 ( dwell for no time -- G64 should not smooth over this point )
F1.96850
X1.72000 Y1.14600
X1.72000 Y1.14100
X1.73700 Y1.13800
X1.74500 Y1.13400
X1.75700 Y1.12200
X1.76000 Y1.12100
X1.81500 Y1.12000
X2.04600 Y0.88800
X2.05700 Y0.88400
X2.15200 Y0.88400
X2.14900 Y0.89600
X2.14000 Y0.90500
X2.13900 Y0.91200
X2.13900 Y1.03900
X2.13800 Y1.04200
X2.12900 Y1.05100
X2.12100 Y1.05300
X2.11900 Y1.06100
X2.09500 Y1.08500
X1.87400 Y1.08600
X1.86500 Y1.08900
X1.80500 Y1.15000
X1.72000 Y1.15100
X1.72000 Y1.14600
G04 P0 ( dwell for no time -- G64 should not smooth over this point )
G00 Z0.19685 ( retract )

G00 X1.70000 Y1.13600 ( rapid move to begin. )
F0.98425
G01 Z-0.01969
G04 P0 ( dwell for no time -- G64 should not smooth over this point )
F1.96850
X1.70000 Y1.13600
X1.69300 Y1.13300
X1.68300 Y1.12300
X1.67700 Y1.11000
X1.67700 Y1.10500
X1.67500 Y1.10200
X1.67500 Y1.09100
X1.68200 Y1.07100
X1.85800 Y0.89500
X1.86100 Y0.88300
X1.87300 Y0.88000
X1.97800 Y0.77500
X1.97900 Y0.74900
X1.97800 Y0.74600
X1.96400 Y0.73200
X1.95500 Y0.73000
X1.95300 Y0.72500
X1.94600 Y0.71800
X1.94100 Y0.71600
X1.93900 Y0.70700
X1.92500 Y0.69300
X1.92200 Y0.69200
X1.91200 Y0.69200
X1.91100 Y0.69700
X1.90700 Y0.70100
X1.90700 Y0.70300
X1.89900 Y0.71100
X1.89700 Y0.71100
X1.89200 Y0.71600
X1.87900 Y0.72100
X1.74900 Y0.72200
X1.74500 Y0.72700
X1.73500 Y0.72700
X1.73000 Y0.72100
X1.71100 Y0.72100
X1.69900 Y0.71800
X1.69100 Y0.71400
X1.62600 Y0.64900
X1.61700 Y0.64900
X1.60400 Y0.65400
X1.58500 Y0.65700
X1.55400 Y0.65600
X1.52400 Y0.64700
X1.51800 Y0.64400
X1.51700 Y0.64200
X1.51300 Y0.64100
X1.51200 Y0.63900
X1.50400 Y0.63600
X1.49400 Y0.62600
X1.48700 Y0.62200
X1.48300 Y0.61500
X1.47300 Y0.60500
X1.46400 Y0.58600
X1.46200 Y0.58500
X1.45300 Y0.55500
X1.45300 Y0.51400
X1.45500 Y0.51100
X1.45700 Y0.49800
X1.45900 Y0.49600
X1.46200 Y0.48400
X1.46400 Y0.48300
X1.47300 Y0.46400
X1.48300 Y0.45400
X1.48700 Y0.44700
X1.49400 Y0.44300
X1.50400 Y0.43300
X1.52300 Y0.42400
X1.52400 Y0.42200
X1.53400 Y0.42000
X1.53600 Y0.41800
X1.54600 Y0.41600
X1.54900 Y0.41400
X1.56400 Y0.41200
X1.58500 Y0.41200
X1.60800 Y0.41600
X1.61600 Y0.42000
X1.62500 Y0.42200
X1.62600 Y0.42400
X1.64500 Y0.43300
X1.65500 Y0.44300
X1.66200 Y0.44700
X1.66600 Y0.45400
X1.67600 Y0.46400
X1.67900 Y0.47200
X1.68100 Y0.47300
X1.68300 Y0.47900
X1.68500 Y0.48000
X1.69300 Y0.50100
X1.69600 Y0.51400
X1.69700 Y0.54500
X1.69500 Y0.56000
X1.68900 Y0.57700
X1.68900 Y0.58600
X1.72000 Y0.61700
X1.72900 Y0.62000
X1.73700 Y0.61900
X1.74900 Y0.63100
X1.87500 Y0.63100
X1.88800 Y0.63400
X1.89300 Y0.63800
X1.89700 Y0.63900
X1.90700 Y0.64900
X1.90800 Y0.65300
X1.91100 Y0.65600
X1.91200 Y0.66100
X1.93000 Y0.66100
X1.94500 Y0.66400
X1.94600 Y0.66800
X1.95300 Y0.67500
X1.96000 Y0.67800
X1.96200 Y0.68800
X1.96500 Y0.68900
X1.98900 Y0.71300
X1.99600 Y0.71200
X1.99800 Y0.70900
X2.00000 Y0.70900
X2.00600 Y0.70400
X2.01900 Y0.70100
X2.03000 Y0.70100
X2.03900 Y0.70400
X2.04400 Y0.70400
X2.04700 Y0.70300
X2.05800 Y0.69200
X2.05900 Y0.67600
X2.05700 Y0.67300
X2.05300 Y0.67200
X2.04600 Y0.66300
X2.04200 Y0.65000
X2.04400 Y0.63400
X2.05000 Y0.62600
X2.05000 Y0.62400
X2.05500 Y0.61900
X2.05700 Y0.61900
X2.06000 Y0.61600
X2.07000 Y0.61400
X2.08900 Y0.61600
X2.09700 Y0.62200
X2.10500 Y0.63200
X2.10700 Y0.64200
X2.10500 Y0.66100
X2.09700 Y0.67100
X2.09200 Y0.67300
X2.09000 Y0.67600
X2.08900 Y0.70300
X2.06800 Y0.72400
X2.06700 Y0.72700
X2.06800 Y0.73700
X2.07000 Y0.74100
X2.07000 Y0.79700
X2.06600 Y0.81200
X2.06400 Y0.81300
X2.06200 Y0.81800
X2.00700 Y0.87200
X2.00300 Y0.88500
X1.99100 Y0.88800
X1.78700 Y1.09200
X1.78500 Y1.10100
X1.80700 Y1.10000
X2.01100 Y0.89600
X2.01400 Y0.88400
X2.02700 Y0.88000
X2.06900 Y0.83700
X2.08800 Y0.83600
X2.09600 Y0.82700
X2.10200 Y0.82400
X2.11200 Y0.82300
X2.12000 Y0.82500
X2.12900 Y0.83200
X2.13200 Y0.83900
X2.13300 Y0.84800
X2.12900 Y0.86000
X2.11700 Y0.86900
X2.10300 Y0.86900
X2.09500 Y0.86500
X2.08800 Y0.85700
X2.07700 Y0.85800
X2.06200 Y0.87300
X2.06000 Y0.88400
X2.04600 Y0.88800
X1.81500 Y1.12000
X1.76000 Y1.12100
X1.75700 Y1.12200
X1.74500 Y1.13400
X1.73700 Y1.13800
X1.72500 Y1.14100
X1.71300 Y1.14100
X1.70600 Y1.13800
X1.70200 Y1.13800
X1.70000 Y1.13600
G04 P0 ( dwell for no time -- G64 should not smooth over this point )
G00 Z0.19685 ( retract )

G00 X1.66400 Y1.17600 ( rapid move to begin. )
F0.98425
G01 Z-0.01969
G04 P0 ( dwell for no time -- G64 should not smooth over this point )
F1.96850
X1.66400 Y1.17600
X1.57100 Y1.08200
X1.56700 Y1.08000
X1.56500 Y1.07400
X1.56500 Y0.94900
X1.55100 Y0.93700
X1.55000 Y0.93300
X1.54800 Y0.93200
X1.54800 Y0.92800
X1.54500 Y0.92100
X1.54500 Y0.91100
X1.54800 Y0.90500
X1.54800 Y0.90100
X1.55200 Y0.89400
X1.56000 Y0.88700
X1.57300 Y0.88200
X1.58700 Y0.88200
X1.58900 Y0.88400
X1.59500 Y0.88500
X1.60000 Y0.88900
X1.60400 Y0.89000
X1.60400 Y0.89200
X1.61100 Y0.90000
X1.61200 Y0.90700
X1.61400 Y0.90900
X1.61400 Y0.92300
X1.61100 Y0.92900
X1.61100 Y0.93300
X1.60200 Y0.94400
X1.59800 Y0.94500
X1.59400 Y0.94900
X1.59500 Y1.06600
X1.68000 Y1.15100
X1.68300 Y1.15200
X1.80200 Y1.15100
X1.80500 Y1.15000
X1.86800 Y1.08700
X2.09500 Y1.08500
X2.11900 Y1.06100
X2.12100 Y1.05300
X2.12900 Y1.05100
X2.13800 Y1.04200
X2.13900 Y1.03900
X2.13900 Y0.91200
X2.14000 Y0.90500
X2.14900 Y0.89600
X2.15200 Y0.88400
X2.16500 Y0.88000
X2.24800 Y0.79700
X2.28200 Y0.79600
X2.28500 Y0.79400
X2.28600 Y0.79000
X2.29000 Y0.78700
X2.29000 Y0.78500
X2.29200 Y0.78500
X2.29400 Y0.78200
X2.30100 Y0.77800
X2.30700 Y0.77800
X2.31100 Y0.77600
X2.32800 Y0.77800
X2.33600 Y0.78200
X2.34400 Y0.79000
X2.35000 Y0.80700
X2.35000 Y0.81500
X2.34700 Y0.82700
X2.34400 Y0.83000
X2.34400 Y0.83200
X2.33900 Y0.83600
X2.33900 Y0.83800
X2.32600 Y0.84500
X2.30700 Y0.84600
X2.29000 Y0.83800
X2.28500 Y0.82900
X2.28200 Y0.82700
X2.25900 Y0.82800
X2.21500 Y0.87200
X2.21200 Y0.88400
X2.20000 Y0.88700
X2.17100 Y0.91500
X2.16900 Y0.92000
X2.16900 Y1.05000
X2.16700 Y1.05200
X2.16700 Y1.05500
X2.10800 Y1.11400
X2.10200 Y1.11600
X1.88300 Y1.11600
X1.88000 Y1.11700
X1.82200 Y1.17600
X1.81900 Y1.17700
X1.81500 Y1.18400
X1.66900 Y1.18400
X1.66400 Y1.17600
G04 P0 ( dwell for no time -- G64 should not smooth over this point )
G00 Z0.19685 ( retract )

G00 X1.67900 Y1.42600 ( rapid move to begin. )
F0.98425
G01 Z-0.01969
G04 P0 ( dwell for no time -- G64 should not smooth over this point )
F1.96850
X1.67900 Y1.42600
X1.67900 Y1.35600
X1.76000 Y1.35600
X1.75900 Y1.43700
X1.68000 Y1.43700
X1.67900 Y1.42600
G04 P0 ( dwell for no time -- G64 should not smooth over this point )
G00 Z0.19685 ( retract )

G00 X2.09700 Y1.37600 ( rapid move to begin. )
F0.98425
G01 Z-0.01969
G04 P0 ( dwell for no time -- G64 should not smooth over this point )
F1.96850
X2.09700 Y1.37600
X2.09200 Y1.37000
X2.08900 Y1.36000
X2.08900 Y1.33300
X2.09200 Y1.32200
X2.10300 Y1.31000
X2.11600 Y1.30600
X2.14300 Y1.30600
X2.15600 Y1.31000
X2.16400 Y1.31700
X2.16400 Y1.31900
X2.16800 Y1.32300
X2.17000 Y1.33300
X2.17000 Y1.36000
X2.16600 Y1.37300
X2.15700 Y1.38200
X2.15500 Y1.38200
X2.15200 Y1.38500
X2.14300 Y1.38700
X2.11600 Y1.38700
X2.10600 Y1.38400
X2.09700 Y1.37600
G04 P0 ( dwell for no time -- G64 should not smooth over this point )
G00 Z0.19685 ( retract )

G00 X2.28900 Y1.37600 ( rapid move to begin. )
F0.98425
G01 Z-0.01969
G04 P0 ( dwell for no time -- G64 should not smooth over this point )
F1.96850
X2.28900 Y1.37600
X2.28900 Y1.30600
X2.37000 Y1.30600
X2.36900 Y1.38700
X2.29000 Y1.38700
X2.28900 Y1.37600
G04 P0 ( dwell for no time -- G64 should not smooth over this point )
G00 Z0.19685 ( retract )

G00 X2.01000 Y1.04600 ( rapid move to begin. )
F0.98425
G01 Z-0.01969
G04 P0 ( dwell for no time -- G64 should not smooth over this point )
F1.96850
X2.01000 Y1.04600
X2.01100 Y0.94300
X2.11800 Y0.94300
X2.11900 Y1.05100
X2.01400 Y1.05100
X2.01100 Y1.05000
X2.01000 Y1.04600
G04 P0 ( dwell for no time -- G64 should not smooth over this point )
G00 Z0.19685 ( retract )

G00 X2.10100 Y0.77300 ( rapid move to begin. )
F0.98425
G01 Z-0.01969
G04 P0 ( dwell for no time -- G64 should not smooth over this point )
F1.96850
X2.10100 Y0.77300
X2.09400 Y0.76700
X2.08800 Y0.75400
X2.08900 Y0.73400
X2.09400 Y0.72800
X2.09500 Y0.72400
X2.09900 Y0.72100
X2.09900 Y0.71900
X2.10900 Y0.71200
X2.12200 Y0.70900
X2.13700 Y0.71100
X2.14700 Y0.71600
X2.15700 Y0.72700
X2.16100 Y0.73800
X2.16200 Y0.74900
X2.15700 Y0.76600
X2.14700 Y0.77600
X2.13300 Y0.78300
X2.11300 Y0.78200
X2.10400 Y0.77700
X2.10100 Y0.77300
G04 P0 ( dwell for no time -- G64 should not smooth over this point )
G00 Z0.19685 ( retract )

G00 X2.15100 Y0.67300 ( rapid move to begin. )
F0.98425
G01 Z-0.01969
G04 P0 ( dwell for no time -- G64 should not smooth over this point )
F1.96850
X2.15100 Y0.67300
X2.14400 Y0.66700
X2.13800 Y0.65400
X2.13800 Y0.63800
X2.14500 Y0.62400
X2.14900 Y0.62100
X2.14900 Y0.61900
X2.15200 Y0.61600
X2.16600 Y0.61000
X2.17700 Y0.60900
X2.19500 Y0.61400
X2.20500 Y0.62400
X2.21100 Y0.63800
X2.21200 Y0.64900
X2.20700 Y0.66600
X2.19700 Y0.67600
X2.18300 Y0.68300
X2.16300 Y0.68200
X2.15400 Y0.67700
X2.15100 Y0.67300
G04 P0 ( dwell for no time -- G64 should not smooth over this point )
G00 Z0.19685 ( retract )

G00 X2.25700 Y0.67300 ( rapid move to begin. )
F0.98425
G01 Z-0.01969
G04 P0 ( dwell for no time -- G64 should not smooth over this point )
F1.96850
X2.25700 Y0.67300
X2.24700 Y0.66400
X2.24500 Y0.66000
X2.24500 Y0.65600
X2.24300 Y0.65400
X2.24200 Y0.63400
X2.18400 Y0.57700
X2.05300 Y0.57600
X2.05000 Y0.57700
X2.04800 Y0.58100
X2.04900 Y0.59800
X2.04600 Y0.60400
X2.04600 Y0.60800
X2.03700 Y0.61900
X2.03300 Y0.62000
X2.03000 Y0.62300
X2.02000 Y0.62600
X2.00100 Y0.62600
X1.99600 Y0.62100
X1.99000 Y0.61900
X1.98800 Y0.61600
X1.98500 Y0.61600
X1.98400 Y0.61400
X1.98300 Y0.60300
X1.98000 Y0.59600
X1.98000 Y0.58600
X1.98300 Y0.58000
X1.98300 Y0.57600
X1.98700 Y0.56900
X1.99500 Y0.56200
X2.00800 Y0.55700
X2.02500 Y0.55800
X2.02800 Y0.55700
X2.03400 Y0.55000
X2.04100 Y0.54700
X2.19600 Y0.54800
X2.20000 Y0.55000
X2.26300 Y0.61400
X2.28300 Y0.61500
X2.28900 Y0.61700
X2.29000 Y0.61900
X2.29600 Y0.62100
X2.30300 Y0.63000
X2.30300 Y0.63300
X2.30600 Y0.63800
X2.30600 Y0.65500
X2.30100 Y0.66600
X2.29400 Y0.67300
X2.29000 Y0.67400
X2.28900 Y0.67600
X2.28400 Y0.67600
X2.28300 Y0.67800
X2.26700 Y0.67800
X2.26500 Y0.67600
X2.26000 Y0.67600
X2.25700 Y0.67300
G04 P0 ( dwell for no time -- G64 should not smooth over this point )
G00 Z0.19685 ( retract )

G00 X2.67100 Y0.67300 ( rapid move to begin. )
F0.98425
G01 Z-0.01969
G04 P0 ( dwell for no time -- G64 should not smooth over this point )
F1.96850
X2.67100 Y0.67300
X2.66400 Y0.66700
X2.65800 Y0.65400
X2.65900 Y0.63400
X2.66400 Y0.62800
X2.66500 Y0.62400
X2.66900 Y0.62100
X2.66900 Y0.61900
X2.67900 Y0.61200
X2.69200 Y0.60900
X2.70700 Y0.61100
X2.71700 Y0.61600
X2.72700 Y0.62700
X2.73100 Y0.63800
X2.73200 Y0.64900
X2.72700 Y0.66600
X2.71700 Y0.67600
X2.70300 Y0.68300
X2.68300 Y0.68200
X2.67500 Y0.67800
X2.67100 Y0.67300
G04 P0 ( dwell for no time -- G64 should not smooth over this point )
G00 Z0.19685 ( retract )

G00 X2.77100 Y0.67300 ( rapid move to begin. )
F0.98425
G01 Z-0.01969
G04 P0 ( dwell for no time -- G64 should not smooth over this point )
F1.96850
X2.77100 Y0.67300
X2.76400 Y0.66700
X2.75800 Y0.65400
X2.75900 Y0.63400
X2.76400 Y0.62800
X2.76500 Y0.62400
X2.76900 Y0.62100
X2.76900 Y0.61900
X2.77900 Y0.61200
X2.79200 Y0.60900
X2.80700 Y0.61100
X2.81700 Y0.61600
X2.82700 Y0.62700
X2.83100 Y0.63800
X2.83200 Y0.64900
X2.82700 Y0.66600
X2.81700 Y0.67600
X2.80300 Y0.68300
X2.78300 Y0.68200
X2.77400 Y0.67700
X2.77100 Y0.67300
G04 P0 ( dwell for no time -- G64 should not smooth over this point )
G00 Z0.19685 ( retract )

G00 X2.87100 Y0.67300 ( rapid move to begin. )
F0.98425
G01 Z-0.01969
G04 P0 ( dwell for no time -- G64 should not smooth over this point )
F1.96850
X2.87100 Y0.67300
X2.86400 Y0.66700
X2.85800 Y0.65400
X2.85800 Y0.63800
X2.86500 Y0.62400
X2.87500 Y0.61400
X2.88600 Y0.61000
X2.89700 Y0.60900
X2.91500 Y0.61400
X2.92500 Y0.62400
X2.93100 Y0.63800
X2.93200 Y0.64900
X2.92700 Y0.66600
X2.91700 Y0.67600
X2.90300 Y0.68300
X2.88300 Y0.68200
X2.87400 Y0.67700
X2.87100 Y0.67300
G04 P0 ( dwell for no time -- G64 should not smooth over this point )
G00 Z0.19685 ( retract )

G00 X2.97100 Y0.67300 ( rapid move to begin. )
F0.98425
G01 Z-0.01969
G04 P0 ( dwell for no time -- G64 should not smooth over this point )
F1.96850
X2.97100 Y0.67300
X2.96400 Y0.66700
X2.95800 Y0.65400
X2.95900 Y0.63400
X2.96100 Y0.63300
X2.96200 Y0.62900
X2.96400 Y0.62800
X2.96500 Y0.62400
X2.96900 Y0.62100
X2.96900 Y0.61900
X2.97900 Y0.61200
X2.99200 Y0.60900
X3.00700 Y0.61100
X3.01700 Y0.61600
X3.02700 Y0.62700
X3.03100 Y0.63800
X3.03200 Y0.64900
X3.02700 Y0.66600
X3.01700 Y0.67600
X3.00300 Y0.68300
X2.98300 Y0.68200
X2.97500 Y0.67800
X2.97100 Y0.67300
G04 P0 ( dwell for no time -- G64 should not smooth over this point )
G00 Z0.19685 ( retract )

G00 X2.82100 Y0.77300 ( rapid move to begin. )
F0.98425
G01 Z-0.01969
G04 P0 ( dwell for no time -- G64 should not smooth over this point )
F1.96850
X2.82100 Y0.77300
X2.81400 Y0.76700
X2.80800 Y0.75400
X2.80900 Y0.73400
X2.81100 Y0.73300
X2.81500 Y0.72400
X2.81900 Y0.72100
X2.81900 Y0.71900
X2.82900 Y0.71200
X2.84200 Y0.70900
X2.85700 Y0.71100
X2.86700 Y0.71600
X2.87700 Y0.72700
X2.88100 Y0.73800
X2.88200 Y0.74900
X2.87700 Y0.76600
X2.86700 Y0.77600
X2.85300 Y0.78300
X2.83300 Y0.78200
X2.82400 Y0.77700
X2.82100 Y0.77300
G04 P0 ( dwell for no time -- G64 should not smooth over this point )
G00 Z0.19685 ( retract )

G00 X2.75900 Y0.87600 ( rapid move to begin. )
F0.98425
G01 Z-0.01969
G04 P0 ( dwell for no time -- G64 should not smooth over this point )
F1.96850
X2.75900 Y0.87600
X2.76000 Y0.77600
X2.76200 Y0.77300
X2.76700 Y0.77100
X2.77500 Y0.76100
X2.77700 Y0.74200
X2.77400 Y0.73000
X2.76400 Y0.71900
X2.75500 Y0.71500
X2.74000 Y0.71400
X2.73000 Y0.71600
X2.72700 Y0.71900
X2.72500 Y0.71900
X2.71600 Y0.73000
X2.71200 Y0.74200
X2.71400 Y0.75900
X2.72000 Y0.76700
X2.72000 Y0.76900
X2.72300 Y0.77200
X2.72700 Y0.77300
X2.72900 Y0.77600
X2.72800 Y0.88400
X2.21200 Y0.88400
X2.21500 Y0.87200
X2.25900 Y0.82800
X2.28200 Y0.82700
X2.28500 Y0.82900
X2.29000 Y0.83800
X2.30700 Y0.84600
X2.32600 Y0.84500
X2.33900 Y0.83800
X2.33900 Y0.83600
X2.34400 Y0.83200
X2.34800 Y0.82400
X2.34800 Y0.81900
X2.35000 Y0.81500
X2.34800 Y0.79900
X2.34400 Y0.79000
X2.33600 Y0.78200
X2.32800 Y0.77800
X2.32200 Y0.77800
X2.31900 Y0.77600
X2.31100 Y0.77600
X2.29700 Y0.78000
X2.29200 Y0.78500
X2.29000 Y0.78500
X2.29000 Y0.78700
X2.28600 Y0.79000
X2.28500 Y0.79400
X2.28200 Y0.79600
X2.25400 Y0.79600
X2.24500 Y0.79900
X2.16500 Y0.88000
X2.15300 Y0.88400
X2.06000 Y0.88400
X2.06200 Y0.87300
X2.07700 Y0.85800
X2.08800 Y0.85700
X2.09500 Y0.86500
X2.10300 Y0.86900
X2.11700 Y0.86900
X2.12900 Y0.86000
X2.13300 Y0.84800
X2.13200 Y0.83900
X2.12900 Y0.83200
X2.12000 Y0.82500
X2.10800 Y0.82300
X2.09600 Y0.82700
X2.08800 Y0.83600
X2.06900 Y0.83700
X2.02700 Y0.88000
X2.01500 Y0.88400
X2.00400 Y0.88400
X2.00700 Y0.87200
X2.06200 Y0.81800
X2.06400 Y0.81300
X2.06600 Y0.81200
X2.07000 Y0.79700
X2.07000 Y0.74100
X2.06800 Y0.73700
X2.06700 Y0.72700
X2.06800 Y0.72400
X2.08900 Y0.70300
X2.09000 Y0.67600
X2.09200 Y0.67300
X2.09700 Y0.67100
X2.10500 Y0.66100
X2.10700 Y0.65100
X2.10500 Y0.63200
X2.09400 Y0.61900
X2.09200 Y0.61900
X2.08900 Y0.61600
X2.07900 Y0.61400
X2.06000 Y0.61600
X2.05000 Y0.62400
X2.04300 Y0.63700
X2.04200 Y0.65000
X2.04600 Y0.66300
X2.05300 Y0.67200
X2.05700 Y0.67300
X2.05900 Y0.67600
X2.05900 Y0.68900
X2.05800 Y0.69200
X2.05200 Y0.69800
X2.04400 Y0.70400
X2.03900 Y0.70400
X2.03000 Y0.70100
X2.01900 Y0.70100
X2.00600 Y0.70400
X2.00000 Y0.70900
X1.99800 Y0.70900
X1.99600 Y0.71200
X1.98900 Y0.71300
X1.96500 Y0.68900
X1.96200 Y0.68800
X1.96000 Y0.67700
X1.98300 Y0.67800
X1.98400 Y0.67600
X1.98900 Y0.67600
X1.99000 Y0.67400
X1.99400 Y0.67300
X2.00100 Y0.66600
X2.00600 Y0.65500
X2.00600 Y0.63700
X2.00400 Y0.63200
X2.00400 Y0.62500
X2.02400 Y0.62500
X2.03700 Y0.61900
X2.04200 Y0.61400
X2.04200 Y0.61200
X2.04600 Y0.60800
X2.04600 Y0.60400
X2.04900 Y0.59800
X2.04800 Y0.58100
X2.05000 Y0.57700
X2.05300 Y0.57600
X2.18400 Y0.57700
X2.24200 Y0.63400
X2.24300 Y0.65400
X2.24500 Y0.65600
X2.24700 Y0.66400
X2.25700 Y0.67400
X2.25900 Y0.67400
X2.26000 Y0.67600
X2.26500 Y0.67600
X2.26700 Y0.67800
X2.28300 Y0.67800
X2.28400 Y0.67600
X2.28900 Y0.67600
X2.30100 Y0.66600
X2.30600 Y0.65500
X2.30600 Y0.63800
X2.30300 Y0.63300
X2.30300 Y0.63000
X2.29600 Y0.62100
X2.29000 Y0.61900
X2.28900 Y0.61700
X2.28300 Y0.61500
X2.26300 Y0.61400
X2.20000 Y0.55000
X2.19300 Y0.54700
X2.04100 Y0.54700
X2.03400 Y0.55000
X2.02800 Y0.55700
X2.00800 Y0.55700
X1.99500 Y0.56200
X1.98700 Y0.56900
X1.98300 Y0.57600
X1.98300 Y0.58000
X1.98000 Y0.58600
X1.98000 Y0.59600
X1.98300 Y0.60300
X1.98400 Y0.61400
X1.96600 Y0.61500
X1.96000 Y0.61700
X1.95900 Y0.61900
X1.95300 Y0.62100
X1.95000 Y0.62400
X1.94500 Y0.63300
X1.94500 Y0.63700
X1.94300 Y0.63800
X1.94300 Y0.65300
X1.94500 Y0.66400
X1.93000 Y0.66100
X1.91200 Y0.66100
X1.91100 Y0.65600
X1.90800 Y0.65300
X1.90700 Y0.64900
X1.89700 Y0.63900
X1.89300 Y0.63800
X1.88800 Y0.63400
X1.87500 Y0.63100
X1.74900 Y0.63100
X1.74400 Y0.62600
X1.74400 Y0.30700
X1.74200 Y0.30600
X1.73900 Y0.29600
X1.73900 Y0.25700
X1.74200 Y0.24700
X1.74400 Y0.24600
X1.74400 Y0.19000
X1.73500 Y0.18200
X1.72900 Y0.16100
X1.69100 Y0.12300
X1.68600 Y0.12100
X1.59900 Y0.12100
X1.59600 Y0.12400
X1.59600 Y0.12600
X1.55300 Y0.12600
X1.55300 Y0.12400
X1.55000 Y0.12100
X1.16900 Y0.12100
X1.16600 Y0.12400
X1.16600 Y0.12600
X1.12300 Y0.12600
X1.12300 Y0.12400
X1.12000 Y0.12100
X1.02000 Y0.12200
X0.94000 Y0.20200
X0.93900 Y0.23200
X0.95600 Y0.24100
X0.96600 Y0.25400
X0.96800 Y0.26400
X0.97000 Y0.26700
X0.97000 Y0.28600
X0.96800 Y0.28900
X0.96600 Y0.29900
X0.96400 Y0.30000
X0.96200 Y0.30500
X0.95000 Y0.31600
X0.93500 Y0.32100
X0.90700 Y0.34900
X0.90700 Y0.35800
X0.91100 Y0.36300
X0.91700 Y0.38100
X0.91800 Y0.40400
X0.91400 Y0.42200
X0.90500 Y0.44100
X0.88400 Y0.46200
X0.87600 Y0.46500
X0.87300 Y0.46800
X0.86700 Y0.46900
X0.85900 Y0.47300
X0.84700 Y0.47500
X0.83200 Y0.47500
X0.81400 Y0.47100
X0.81200 Y0.46900
X0.80600 Y0.46800
X0.80100 Y0.46400
X0.79200 Y0.46400
X0.75500 Y0.50200
X0.75400 Y0.62800
X0.75700 Y0.63000
X0.75700 Y0.66300
X0.75400 Y0.66400
X0.75400 Y0.71600
X0.75500 Y0.71900
X0.76100 Y0.72100
X0.76200 Y0.72400
X0.76800 Y0.73000
X0.76900 Y0.73600
X0.77100 Y0.73800
X0.77100 Y0.75400
X0.76900 Y0.75600
X0.76800 Y0.76300
X0.76400 Y0.76700
X0.75400 Y0.77600
X0.74900 Y0.77600
X0.74700 Y0.77800
X0.73100 Y0.77800
X0.73000 Y0.77600
X0.72500 Y0.77600
X0.71300 Y0.76600
X0.70800 Y0.75400
X0.70800 Y0.73800
X0.71500 Y0.72400
X0.71800 Y0.72100
X0.72400 Y0.71900
X0.72500 Y0.71600
X0.72500 Y0.66400
X0.72200 Y0.66300
X0.72300 Y0.65800
X0.72200 Y0.63000
X0.72500 Y0.62800
X0.72500 Y0.49400
X0.72900 Y0.48500
X0.77200 Y0.44300
X0.77200 Y0.43500
X0.76800 Y0.43000
X0.76200 Y0.41100
X0.46700 Y0.41100
X0.46100 Y0.43000
X0.45800 Y0.43300
X0.45500 Y0.44100
X0.43400 Y0.46200
X0.42600 Y0.46500
X0.42300 Y0.46800
X0.40400 Y0.47400
X0.38200 Y0.47500
X0.37000 Y0.47300
X0.36500 Y0.47000
X0.35600 Y0.46800
X0.35500 Y0.46600
X0.34100 Y0.45900
X0.32700 Y0.44500
X0.32000 Y0.43100
X0.31800 Y0.43000
X0.31200 Y0.41100
X0.31100 Y0.38900
X0.31500 Y0.37100
X0.31700 Y0.36900
X0.31800 Y0.36300
X0.32200 Y0.35800
X0.32200 Y0.35000
X0.29400 Y0.32100
X0.28300 Y0.31800
X0.26700 Y0.30400
X0.26700 Y0.30200
X0.26400 Y0.30000
X0.26200 Y0.29600
X0.26100 Y0.28900
X0.25900 Y0.28600
X0.25900 Y0.26700
X0.26600 Y0.24900
X0.27700 Y0.23800
X0.28500 Y0.23400
X0.29500 Y0.23100
X0.31400 Y0.23100
X0.33200 Y0.23800
X0.34300 Y0.24900
X0.35000 Y0.26700
X0.35000 Y0.28600
X0.34800 Y0.28900
X0.34800 Y0.29300
X0.34300 Y0.30400
X0.33300 Y0.31300
X0.33300 Y0.31900
X0.34300 Y0.32900
X0.35100 Y0.32900
X0.35600 Y0.32500
X0.36200 Y0.32400
X0.36400 Y0.32200
X0.38200 Y0.31800
X0.40500 Y0.31900
X0.42300 Y0.32500
X0.42400 Y0.32700
X0.43800 Y0.33400
X0.45200 Y0.34800
X0.45200 Y0.35000
X0.45500 Y0.35200
X0.45800 Y0.36000
X0.46100 Y0.36300
X0.46700 Y0.38200
X0.76200 Y0.38200
X0.76800 Y0.36300
X0.77000 Y0.36200
X0.77700 Y0.34800
X0.79100 Y0.33400
X0.80500 Y0.32700
X0.80600 Y0.32500
X0.82400 Y0.31900
X0.84700 Y0.31800
X0.86500 Y0.32200
X0.86700 Y0.32400
X0.87300 Y0.32500
X0.87800 Y0.32900
X0.88600 Y0.32900
X0.88800 Y0.32500
X0.89600 Y0.31800
X0.89500 Y0.31100
X0.88700 Y0.30400
X0.88700 Y0.30200
X0.88200 Y0.29600
X0.88100 Y0.28900
X0.87900 Y0.28600
X0.87900 Y0.26700
X0.88100 Y0.26400
X0.88300 Y0.25400
X0.88500 Y0.25300
X0.88700 Y0.24800
X0.89700 Y0.23800
X0.91000 Y0.23200
X0.91000 Y0.19400
X0.91200 Y0.18800
X1.00400 Y0.09500
X1.01100 Y0.09200
X1.69800 Y0.09200
X1.70500 Y0.09500
X1.72000 Y0.11100
X1.72900 Y0.11400
X1.73700 Y0.11300
X1.74400 Y0.12100
X1.74400 Y0.08100
X3.17500 Y0.08100
X3.17500 Y0.24200
X3.17900 Y0.24700
X3.18200 Y0.25700
X3.18200 Y0.29600
X3.17900 Y0.30600
X3.17500 Y0.31100
X3.17500 Y0.88100
X3.17200 Y0.88400
X2.76600 Y0.88400
X2.75900 Y0.88100
X2.75900 Y0.87600
G04 P0 ( dwell for no time -- G64 should not smooth over this point )
G00 Z0.19685 ( retract )

G00 X2.63400 Y1.04600 ( rapid move to begin. )
F0.98425
G01 Z-0.01969
G04 P0 ( dwell for no time -- G64 should not smooth over this point )
F1.96850
X2.63400 Y1.04600
X2.62900 Y1.04400
X2.61700 Y1.03200
X2.60700 Y1.01200
X2.60500 Y1.00000
X2.60600 Y0.98500
X2.61000 Y0.97200
X2.61400 Y0.96700
X2.61500 Y0.96300
X2.62900 Y0.94800
X2.64900 Y0.93800
X2.67600 Y0.93700
X2.68900 Y0.94100
X2.69400 Y0.94500
X2.69800 Y0.94600
X2.71300 Y0.96000
X2.72300 Y0.98000
X2.72400 Y1.00700
X2.72000 Y1.02000
X2.71600 Y1.02500
X2.71500 Y1.02900
X2.70100 Y1.04400
X2.68100 Y1.05400
X2.66900 Y1.05600
X2.65400 Y1.05500
X2.64100 Y1.05100
X2.63400 Y1.04600
G04 P0 ( dwell for no time -- G64 should not smooth over this point )
G00 Z0.19685 ( retract )

G00 X2.98300 Y1.02600 ( rapid move to begin. )
F0.98425
G01 Z-0.01969
G04 P0 ( dwell for no time -- G64 should not smooth over this point )
F1.96850
X2.98300 Y1.02600
X2.98200 Y1.01300
X2.98000 Y1.01100
X2.84700 Y1.01100
X2.84100 Y1.00900
X2.83900 Y1.00500
X2.73600 Y0.90200
X2.73200 Y0.90000
X2.73000 Y0.89400
X2.73000 Y0.88600
X2.72800 Y0.88500
X2.72900 Y0.77600
X2.72700 Y0.77300
X2.72100 Y0.77000
X2.71800 Y0.76400
X2.71600 Y0.76300
X2.71200 Y0.75000
X2.71400 Y0.73400
X2.71800 Y0.72700
X2.72000 Y0.72600
X2.72000 Y0.72400
X2.72500 Y0.71900
X2.72700 Y0.71900
X2.73000 Y0.71600
X2.74000 Y0.71400
X2.75900 Y0.71600
X2.76200 Y0.71900
X2.76400 Y0.71900
X2.77500 Y0.73200
X2.77700 Y0.74200
X2.77500 Y0.76100
X2.76700 Y0.77100
X2.76200 Y0.77300
X2.76000 Y0.77600
X2.75900 Y0.88100
X2.76700 Y0.88400
X2.77000 Y0.89600
X2.85500 Y0.98100
X2.98000 Y0.98200
X2.98200 Y0.98000
X2.98200 Y0.97000
X2.98400 Y0.96100
X2.98700 Y0.96000
X3.04800 Y0.95900
X3.05500 Y0.96100
X3.05700 Y0.96800
X3.05700 Y1.02500
X3.05400 Y1.03200
X3.04600 Y1.03400
X2.99400 Y1.03400
X2.98500 Y1.03200
X2.98300 Y1.02600
G04 P0 ( dwell for no time -- G64 should not smooth over this point )
G00 Z0.19685 ( retract )

G00 X3.08700 Y1.02600 ( rapid move to begin. )
F0.98425
G01 Z-0.01969
G04 P0 ( dwell for no time -- G64 should not smooth over this point )
F1.96850
X3.08700 Y1.02600
X3.08200 Y1.02000
X3.07900 Y1.01000
X3.07900 Y0.98300
X3.08200 Y0.97200
X3.09300 Y0.96000
X3.10600 Y0.95600
X3.13300 Y0.95600
X3.14600 Y0.96000
X3.15400 Y0.96700
X3.15600 Y0.97200
X3.15800 Y0.97300
X3.16000 Y0.98300
X3.16000 Y1.01000
X3.15600 Y1.02300
X3.15000 Y1.02900
X3.14800 Y1.02900
X3.14400 Y1.03400
X3.13900 Y1.03600
X3.10600 Y1.03700
X3.09600 Y1.03400
X3.08700 Y1.02600
G04 P0 ( dwell for no time -- G64 should not smooth over this point )
G00 Z0.19685 ( retract )

G00 X0.24400 Y1.50600 ( rapid move to begin. )
F0.98425
G01 Z-0.01969
G04 P0 ( dwell for no time -- G64 should not smooth over this point )
F1.96850
X0.24400 Y1.50600
X0.24400 Y1.50000
X0.24700 Y1.49200
X0.24900 Y1.47900
X0.24900 Y1.44400
X0.24700 Y1.43100
X0.24400 Y1.42300
X0.24400 Y1.40600
X0.35500 Y1.40600
X0.35400 Y1.51700
X0.24500 Y1.51700
X0.24400 Y1.50600
G04 P0 ( dwell for no time -- G64 should not smooth over this point )
G00 Z0.19685 ( retract )

G00 X0.16200 Y1.50600 ( rapid move to begin. )
F0.98425
G01 Z-0.01969
G04 P0 ( dwell for no time -- G64 should not smooth over this point )
F1.96850
X0.16200 Y1.50600
X0.15200 Y1.49700
X0.15100 Y1.49400
X0.14900 Y1.49400
X0.14900 Y1.42800
X0.16700 Y1.41100
X0.17400 Y1.40800
X0.18600 Y1.40600
X0.21300 Y1.40600
X0.22500 Y1.40800
X0.24000 Y1.41600
X0.24500 Y1.42300
X0.24900 Y1.44400
X0.24900 Y1.47900
X0.24400 Y1.50300
X0.24200 Y1.50500
X0.23800 Y1.50500
X0.23300 Y1.51100
X0.22900 Y1.51200
X0.22800 Y1.51400
X0.21300 Y1.51700
X0.18600 Y1.51700
X0.17400 Y1.51500
X0.17100 Y1.51200
X0.16700 Y1.51100
X0.16600 Y1.50900
X0.16400 Y1.50900
X0.16200 Y1.50600
G04 P0 ( dwell for no time -- G64 should not smooth over this point )
G00 Z0.19685 ( retract )

G00 X0.06200 Y1.50600 ( rapid move to begin. )
F0.98425
G01 Z-0.01969
G04 P0 ( dwell for no time -- G64 should not smooth over this point )
F1.96850
X0.06200 Y1.50600
X0.05000 Y1.49400
X0.04900 Y1.49000
X0.04600 Y1.48700
X0.04400 Y1.47700
X0.04500 Y1.43900
X0.05200 Y1.42500
X0.06700 Y1.41100
X0.07400 Y1.40800
X0.08600 Y1.40600
X0.11300 Y1.40600
X0.12500 Y1.40800
X0.13600 Y1.41300
X0.14900 Y1.42700
X0.14800 Y1.49700
X0.13600 Y1.50900
X0.12900 Y1.51200
X0.12800 Y1.51400
X0.11300 Y1.51700
X0.08600 Y1.51700
X0.07400 Y1.51500
X0.07100 Y1.51200
X0.06700 Y1.51100
X0.06600 Y1.50900
X0.06400 Y1.50900
X0.06200 Y1.50600
G04 P0 ( dwell for no time -- G64 should not smooth over this point )
G00 Z0.19685 ( retract )

G00 X0.01600 Y1.57600 ( rapid move to begin. )
F0.98425
G01 Z-0.01969
G04 P0 ( dwell for no time -- G64 should not smooth over this point )
F1.96850
X0.01600 Y1.57600
X0.01600 Y0.07100
X0.01900 Y0.06800
X1.73500 Y0.06800
X1.73500 Y0.11400
X1.72900 Y0.11400
X1.72000 Y0.11100
X1.70500 Y0.09500
X1.69800 Y0.09200
X1.01100 Y0.09200
X1.00400 Y0.09500
X0.91200 Y0.18800
X0.91000 Y0.19400
X0.91000 Y0.23200
X0.89700 Y0.23800
X0.88700 Y0.24800
X0.88500 Y0.25300
X0.88300 Y0.25400
X0.88100 Y0.26400
X0.87900 Y0.26700
X0.87900 Y0.28600
X0.88100 Y0.28900
X0.88200 Y0.29600
X0.88700 Y0.30200
X0.88700 Y0.30400
X0.89500 Y0.31100
X0.89600 Y0.31800
X0.88800 Y0.32500
X0.88600 Y0.32900
X0.87800 Y0.32900
X0.87300 Y0.32500
X0.86700 Y0.32400
X0.86500 Y0.32200
X0.84700 Y0.31800
X0.82400 Y0.31900
X0.80600 Y0.32500
X0.80500 Y0.32700
X0.79100 Y0.33400
X0.77700 Y0.34800
X0.77000 Y0.36200
X0.76800 Y0.36300
X0.76200 Y0.38200
X0.46700 Y0.38200
X0.46100 Y0.36300
X0.45800 Y0.36000
X0.45500 Y0.35200
X0.45200 Y0.35000
X0.45200 Y0.34800
X0.43800 Y0.33400
X0.42400 Y0.32700
X0.42300 Y0.32500
X0.40500 Y0.31900
X0.38200 Y0.31800
X0.36400 Y0.32200
X0.36200 Y0.32400
X0.35600 Y0.32500
X0.35100 Y0.32900
X0.34300 Y0.32900
X0.33300 Y0.31900
X0.33300 Y0.31300
X0.34300 Y0.30400
X0.34800 Y0.29300
X0.34800 Y0.28900
X0.35000 Y0.28600
X0.35000 Y0.26700
X0.34300 Y0.24900
X0.33200 Y0.23800
X0.31400 Y0.23100
X0.29500 Y0.23100
X0.28500 Y0.23400
X0.27700 Y0.23800
X0.26600 Y0.24900
X0.25900 Y0.26700
X0.25900 Y0.28600
X0.26100 Y0.28900
X0.26200 Y0.29600
X0.26400 Y0.30000
X0.26700 Y0.30200
X0.26700 Y0.30400
X0.28300 Y0.31800
X0.29400 Y0.32100
X0.32200 Y0.35000
X0.32200 Y0.35800
X0.31800 Y0.36300
X0.31700 Y0.36900
X0.31500 Y0.37100
X0.31100 Y0.38900
X0.31200 Y0.41100
X0.31800 Y0.43000
X0.32000 Y0.43100
X0.32700 Y0.44500
X0.34100 Y0.45900
X0.35500 Y0.46600
X0.35600 Y0.46800
X0.36500 Y0.47000
X0.37000 Y0.47300
X0.38200 Y0.47500
X0.40400 Y0.47400
X0.42300 Y0.46800
X0.42600 Y0.46500
X0.43400 Y0.46200
X0.45500 Y0.44100
X0.45800 Y0.43300
X0.46100 Y0.43000
X0.46700 Y0.41100
X0.76200 Y0.41100
X0.76800 Y0.43000
X0.77200 Y0.43500
X0.77200 Y0.44300
X0.72900 Y0.48500
X0.72500 Y0.49400
X0.72500 Y0.62800
X0.72100 Y0.63000
X0.72000 Y0.62800
X0.71500 Y0.62700
X0.71100 Y0.62100
X0.69800 Y0.61500
X0.68100 Y0.61500
X0.67500 Y0.61700
X0.67400 Y0.61900
X0.66800 Y0.62100
X0.66500 Y0.62400
X0.65800 Y0.63800
X0.65800 Y0.65400
X0.66100 Y0.66300
X0.67000 Y0.67300
X0.67400 Y0.67400
X0.67500 Y0.67600
X0.68000 Y0.67600
X0.68100 Y0.67800
X0.69700 Y0.67800
X0.69900 Y0.67600
X0.70400 Y0.67600
X0.70500 Y0.67400
X0.70700 Y0.67400
X0.71600 Y0.66500
X0.72000 Y0.66300
X0.72500 Y0.66400
X0.72500 Y0.71600
X0.72400 Y0.71900
X0.71800 Y0.72100
X0.71100 Y0.73000
X0.71100 Y0.73300
X0.70800 Y0.73800
X0.70800 Y0.75400
X0.71100 Y0.76300
X0.72000 Y0.77300
X0.72400 Y0.77400
X0.72500 Y0.77600
X0.73000 Y0.77600
X0.73100 Y0.77800
X0.74700 Y0.77800
X0.74900 Y0.77600
X0.75400 Y0.77600
X0.75900 Y0.77200
X0.76800 Y0.76300
X0.76900 Y0.75600
X0.77100 Y0.75400
X0.77100 Y0.73800
X0.76900 Y0.73600
X0.76800 Y0.73000
X0.76200 Y0.72400
X0.76100 Y0.72100
X0.75500 Y0.71900
X0.75400 Y0.71600
X0.75500 Y0.66300
X0.76300 Y0.66500
X0.77000 Y0.67300
X0.77400 Y0.67400
X0.77500 Y0.67600
X0.78000 Y0.67600
X0.78100 Y0.67800
X0.80000 Y0.67800
X0.81100 Y0.68900
X0.81700 Y0.69100
X1.32700 Y0.69100
X1.33900 Y0.70500
X1.34300 Y0.70600
X1.34400 Y0.70800
X1.35500 Y0.71100
X1.36500 Y0.71100
X1.37500 Y0.70800
X1.37800 Y0.70500
X1.38200 Y0.70400
X1.39100 Y0.69300
X1.39100 Y0.68900
X1.39400 Y0.68300
X1.39400 Y0.66900
X1.39200 Y0.66700
X1.39100 Y0.66000
X1.38400 Y0.65200
X1.38400 Y0.65000
X1.36700 Y0.64200
X1.35300 Y0.64200
X1.35100 Y0.64400
X1.34400 Y0.64500
X1.33200 Y0.65400
X1.33200 Y0.65600
X1.32700 Y0.66200
X1.18200 Y0.66200
X1.17900 Y0.65900
X1.18300 Y0.65100
X1.19800 Y0.64600
X1.20700 Y0.63900
X1.21500 Y0.63600
X1.22500 Y0.62600
X1.23200 Y0.62200
X1.23600 Y0.61500
X1.24600 Y0.60500
X1.24800 Y0.59900
X1.25000 Y0.59800
X1.25100 Y0.59400
X1.25600 Y0.58800
X1.25700 Y0.58200
X1.25900 Y0.58000
X1.26300 Y0.56800
X1.26700 Y0.54500
X1.26700 Y0.52400
X1.26400 Y0.50500
X1.25700 Y0.48400
X1.25300 Y0.47900
X1.25100 Y0.47300
X1.24900 Y0.47200
X1.24600 Y0.46400
X1.23600 Y0.45400
X1.23200 Y0.44700
X1.22500 Y0.44300
X1.21500 Y0.43300
X1.19600 Y0.42400
X1.19500 Y0.42200
X1.16500 Y0.41300
X1.13400 Y0.41200
X1.11900 Y0.41400
X1.11600 Y0.41600
X1.10600 Y0.41800
X1.10400 Y0.42000
X1.09400 Y0.42200
X1.09300 Y0.42400
X1.07400 Y0.43300
X1.06400 Y0.44300
X1.05700 Y0.44700
X1.05300 Y0.45400
X1.04300 Y0.46400
X1.03400 Y0.48300
X1.03200 Y0.48400
X1.02400 Y0.50900
X1.02200 Y0.52400
X1.02300 Y0.55500
X1.03200 Y0.58500
X1.03400 Y0.58600
X1.03800 Y0.59600
X1.04000 Y0.59700
X1.04300 Y0.60500
X1.05300 Y0.61500
X1.05700 Y0.62200
X1.06400 Y0.62600
X1.07400 Y0.63600
X1.08200 Y0.63900
X1.08300 Y0.64100
X1.08900 Y0.64300
X1.09400 Y0.64700
X1.10700 Y0.65100
X1.11100 Y0.65700
X1.11100 Y0.65900
X1.10800 Y0.66200
X0.82800 Y0.66200
X0.82100 Y0.65700
X0.82100 Y0.63800
X0.81900 Y0.63600
X0.81800 Y0.63000
X0.81200 Y0.62400
X0.81100 Y0.62100
X0.80500 Y0.61900
X0.80400 Y0.61700
X0.79800 Y0.61500
X0.78100 Y0.61500
X0.76800 Y0.62100
X0.76400 Y0.62700
X0.75900 Y0.62800
X0.75800 Y0.63000
X0.75400 Y0.62800
X0.75400 Y0.50500
X0.75600 Y0.50000
X0.79200 Y0.46400
X0.80100 Y0.46400
X0.80600 Y0.46800
X0.81200 Y0.46900
X0.81400 Y0.47100
X0.83200 Y0.47500
X0.84700 Y0.47500
X0.85900 Y0.47300
X0.86700 Y0.46900
X0.87300 Y0.46800
X0.87600 Y0.46500
X0.88400 Y0.46200
X0.90500 Y0.44100
X0.91400 Y0.42200
X0.91800 Y0.40400
X0.91700 Y0.38100
X0.91100 Y0.36300
X0.90700 Y0.35800
X0.90700 Y0.34900
X0.93500 Y0.32100
X0.94400 Y0.31900
X0.95300 Y0.31400
X0.96300 Y0.30400
X0.97000 Y0.28600
X0.97000 Y0.26700
X0.96800 Y0.26400
X0.96600 Y0.25400
X0.95600 Y0.24100
X0.93900 Y0.23200
X0.94000 Y0.20200
X1.02000 Y0.12200
X1.12000 Y0.12100
X1.12300 Y0.12400
X1.12200 Y0.12900
X1.11900 Y0.13200
X1.11500 Y0.13200
X1.09400 Y0.13900
X1.08900 Y0.14300
X1.08300 Y0.14500
X1.08200 Y0.14700
X1.07400 Y0.15000
X1.06400 Y0.16000
X1.05700 Y0.16400
X1.05300 Y0.17100
X1.04300 Y0.18100
X1.03400 Y0.20000
X1.03200 Y0.20100
X1.03000 Y0.21000
X1.02600 Y0.21800
X1.02200 Y0.24100
X1.02200 Y0.26200
X1.02300 Y0.27200
X1.03200 Y0.30200
X1.03400 Y0.30300
X1.04300 Y0.32200
X1.05300 Y0.33200
X1.05700 Y0.33900
X1.06400 Y0.34300
X1.07400 Y0.35300
X1.09300 Y0.36200
X1.09400 Y0.36400
X1.10400 Y0.36600
X1.10600 Y0.36800
X1.11600 Y0.37100
X1.13400 Y0.37400
X1.15500 Y0.37400
X1.17800 Y0.37000
X1.18600 Y0.36600
X1.19500 Y0.36400
X1.19600 Y0.36200
X1.21500 Y0.35300
X1.22500 Y0.34300
X1.23200 Y0.33900
X1.23600 Y0.33200
X1.24600 Y0.32200
X1.24900 Y0.31400
X1.25100 Y0.31300
X1.25300 Y0.30700
X1.25700 Y0.30200
X1.26600 Y0.27200
X1.26700 Y0.24100
X1.26500 Y0.22600
X1.25600 Y0.19800
X1.25100 Y0.19200
X1.25000 Y0.18800
X1.24800 Y0.18700
X1.24600 Y0.18100
X1.23600 Y0.17100
X1.23200 Y0.16400
X1.22500 Y0.16000
X1.21500 Y0.15000
X1.20900 Y0.14800
X1.20800 Y0.14600
X1.20400 Y0.14500
X1.19800 Y0.14000
X1.19200 Y0.13900
X1.19000 Y0.13700
X1.17800 Y0.13300
X1.17000 Y0.13200
X1.16600 Y0.12700
X1.16600 Y0.12400
X1.16900 Y0.12100
X1.55000 Y0.12100
X1.55300 Y0.12400
X1.55300 Y0.12700
X1.54900 Y0.13200
X1.54500 Y0.13200
X1.52400 Y0.13900
X1.51800 Y0.14200
X1.51700 Y0.14400
X1.51300 Y0.14500
X1.51200 Y0.14700
X1.50400 Y0.15000
X1.49400 Y0.16000
X1.48700 Y0.16400
X1.48300 Y0.17100
X1.47300 Y0.18100
X1.46400 Y0.20000
X1.46200 Y0.20100
X1.46000 Y0.21000
X1.45700 Y0.21500
X1.45700 Y0.22000
X1.45300 Y0.23100
X1.45200 Y0.26200
X1.45300 Y0.27200
X1.45500 Y0.27500
X1.45700 Y0.28700
X1.46000 Y0.29200
X1.46200 Y0.30200
X1.46400 Y0.30300
X1.47300 Y0.32200
X1.48300 Y0.33200
X1.48700 Y0.33900
X1.49400 Y0.34300
X1.50400 Y0.35300
X1.52300 Y0.36200
X1.52400 Y0.36400
X1.53400 Y0.36600
X1.53600 Y0.36800
X1.54600 Y0.37100
X1.56400 Y0.37400
X1.58500 Y0.37400
X1.60800 Y0.37000
X1.61600 Y0.36600
X1.62500 Y0.36400
X1.62600 Y0.36200
X1.64500 Y0.35300
X1.65500 Y0.34300
X1.66200 Y0.33900
X1.66600 Y0.33200
X1.67600 Y0.32200
X1.67900 Y0.31400
X1.68100 Y0.31300
X1.68300 Y0.30700
X1.68700 Y0.30200
X1.69600 Y0.27200
X1.69700 Y0.24100
X1.69500 Y0.22600
X1.68600 Y0.19800
X1.68300 Y0.19500
X1.68200 Y0.19100
X1.68000 Y0.19000
X1.68000 Y0.18800
X1.67800 Y0.18700
X1.67600 Y0.18100
X1.66600 Y0.17100
X1.66200 Y0.16400
X1.65500 Y0.16000
X1.64500 Y0.15000
X1.63900 Y0.14800
X1.63800 Y0.14600
X1.63400 Y0.14500
X1.62800 Y0.14000
X1.62200 Y0.13900
X1.62000 Y0.13700
X1.60800 Y0.13300
X1.60000 Y0.13200
X1.59700 Y0.12900
X1.59600 Y0.12400
X1.59900 Y0.12100
X1.68600 Y0.12100
X1.69100 Y0.12300
X1.72900 Y0.16100
X1.73500 Y0.17900
X1.73500 Y0.62000
X1.72900 Y0.62000
X1.72000 Y0.61700
X1.68900 Y0.58600
X1.68900 Y0.57700
X1.69300 Y0.56800
X1.69700 Y0.54500
X1.69600 Y0.51400
X1.68700 Y0.48400
X1.68300 Y0.47900
X1.68100 Y0.47300
X1.67900 Y0.47200
X1.67600 Y0.46400
X1.66600 Y0.45400
X1.66200 Y0.44700
X1.65500 Y0.44300
X1.64500 Y0.43300
X1.62600 Y0.42400
X1.62500 Y0.42200
X1.61600 Y0.42000
X1.61400 Y0.41800
X1.60000 Y0.41400
X1.58500 Y0.41200
X1.55400 Y0.41300
X1.52400 Y0.42200
X1.52300 Y0.42400
X1.50400 Y0.43300
X1.49400 Y0.44300
X1.48700 Y0.44700
X1.48300 Y0.45400
X1.47300 Y0.46400
X1.46400 Y0.48300
X1.46200 Y0.48400
X1.45900 Y0.49600
X1.45700 Y0.49800
X1.45200 Y0.52400
X1.45300 Y0.55500
X1.46200 Y0.58500
X1.46400 Y0.58600
X1.47300 Y0.60500
X1.48300 Y0.61500
X1.48700 Y0.62200
X1.49400 Y0.62600
X1.50400 Y0.63600
X1.51200 Y0.63900
X1.51300 Y0.64100
X1.51700 Y0.64200
X1.51800 Y0.64400
X1.52400 Y0.64700
X1.55400 Y0.65600
X1.58500 Y0.65700
X1.60400 Y0.65400
X1.61700 Y0.64900
X1.62600 Y0.64900
X1.69100 Y0.71400
X1.69900 Y0.71800
X1.71100 Y0.72100
X1.73000 Y0.72100
X1.73500 Y0.72600
X1.73500 Y0.88100
X1.74300 Y0.88100
X1.74500 Y0.88400
X1.86100 Y0.88400
X1.85800 Y0.89500
X1.68200 Y1.07100
X1.67500 Y1.09100
X1.67500 Y1.10200
X1.67700 Y1.10500
X1.67900 Y1.11600
X1.68300 Y1.12300
X1.69600 Y1.13500
X1.70900 Y1.14000
X1.72000 Y1.14100
X1.72000 Y1.15200
X1.68000 Y1.15100
X1.59500 Y1.06600
X1.59400 Y0.94900
X1.59800 Y0.94500
X1.60200 Y0.94400
X1.61100 Y0.93300
X1.61100 Y0.92900
X1.61400 Y0.92300
X1.61400 Y0.90900
X1.61200 Y0.90700
X1.61100 Y0.90000
X1.60400 Y0.89200
X1.60400 Y0.89000
X1.58700 Y0.88200
X1.57300 Y0.88200
X1.56400 Y0.88500
X1.55700 Y0.88900
X1.55000 Y0.89700
X1.54500 Y0.91100
X1.54500 Y0.92100
X1.54800 Y0.92800
X1.54800 Y0.93200
X1.55000 Y0.93300
X1.55200 Y0.93800
X1.56500 Y0.94900
X1.56500 Y1.07400
X1.56700 Y1.08000
X1.57100 Y1.08200
X1.66400 Y1.17500
X1.66900 Y1.18400
X1.81500 Y1.18400
X1.81900 Y1.17700
X1.82200 Y1.17600
X1.88000 Y1.11700
X1.88300 Y1.11600
X2.10200 Y1.11600
X2.10800 Y1.11400
X2.16700 Y1.05500
X2.16700 Y1.05200
X2.16900 Y1.05000
X2.16900 Y0.92000
X2.17100 Y0.91500
X2.19300 Y0.89300
X2.19500 Y0.89300
X2.20000 Y0.88700
X2.20900 Y0.88400
X2.72800 Y0.88400
X2.73000 Y0.88600
X2.73000 Y0.89400
X2.73200 Y0.90000
X2.73600 Y0.90200
X2.84300 Y1.01000
X2.98000 Y1.01100
X2.98200 Y1.01300
X2.98200 Y1.02200
X2.98500 Y1.03200
X2.99400 Y1.03400
X3.04600 Y1.03400
X3.05400 Y1.03200
X3.05700 Y1.02500
X3.05700 Y0.96800
X3.05500 Y0.96100
X3.04800 Y0.95900
X2.98700 Y0.96000
X2.98400 Y0.96100
X2.98200 Y0.97000
X2.98200 Y0.98000
X2.98000 Y0.98200
X2.85800 Y0.98200
X2.85500 Y0.98100
X2.77000 Y0.89600
X2.76700 Y0.88400
X3.17200 Y0.88400
X3.17400 Y0.88100
X3.18300 Y0.88100
X3.18300 Y1.57700
X3.18000 Y1.58000
X0.01900 Y1.58000
X0.01600 Y1.57600

G04 P0 ( dwell for no time -- G64 should not smooth over this point )
G00 Z0.197 ( retract )

M5 ( Spindle off. )
M9 ( Coolant off. )
M2 ( Program end. )

