( pcb2gcode 1.2.2 )
( Software-independent Gcode )

G94 ( Inches per minute feed rate. )
G20 ( Units == INCHES. )

G90 ( Absolute coordinates. )
S10000 ( RPM spindle speed. )
G64 P0.00200 ( set maximum deviation from commanded toolpath )
F1.96850 ( Feedrate. )

F1.96850 ( Feedrate. )
M3 ( Spindle on clockwise. )
G04 P0 ( dwell for no time -- G64 should not smooth over this point )
G00 Z0.19685 ( retract )

G00 X0.22300 Y0.67300 ( rapid move to begin. )
F0.98425
G01 Z-0.01969
G04 P0 ( dwell for no time -- G64 should not smooth over this point )
F1.96850
X0.22300 Y0.67300
X0.23300 Y0.66400
X0.23500 Y0.66000
X0.23500 Y0.65600
X0.23700 Y0.65400
X0.23800 Y0.63400
X0.27900 Y0.59300
X0.28400 Y0.59100
X0.84700 Y0.59100
X0.85000 Y0.59200
X0.89300 Y0.63500
X0.89400 Y0.65500
X0.89700 Y0.66000
X0.89700 Y0.66300
X0.90700 Y0.67300
X0.90900 Y0.67900
X0.91300 Y0.68000
X0.94100 Y0.67900
X0.94300 Y0.67300
X0.95300 Y0.66400
X0.95500 Y0.66000
X0.95500 Y0.65600
X0.95700 Y0.65400
X0.95700 Y0.63800
X0.95500 Y0.63700
X0.95500 Y0.63300
X0.95200 Y0.62700
X0.94800 Y0.62400
X0.94800 Y0.62200
X0.94100 Y0.61900
X0.94000 Y0.61700
X0.93400 Y0.61500
X0.91400 Y0.61400
X0.86600 Y0.56500
X0.85900 Y0.56200
X0.27200 Y0.56200
X0.26500 Y0.56500
X0.21700 Y0.61400
X0.19700 Y0.61500
X0.19100 Y0.61700
X0.19000 Y0.61900
X0.18400 Y0.62100
X0.17700 Y0.63000
X0.17700 Y0.63300
X0.17400 Y0.63800
X0.17400 Y0.65500
X0.17900 Y0.66600
X0.18600 Y0.67300
X0.19000 Y0.67400
X0.19100 Y0.67600
X0.19600 Y0.67600
X0.19700 Y0.67800
X0.21300 Y0.67800
X0.21500 Y0.67600
X0.22000 Y0.67600
X0.22300 Y0.67300
G04 P0 ( dwell for no time -- G64 should not smooth over this point )
G00 Z0.19685 ( retract )

G00 X0.32900 Y0.67300 ( rapid move to begin. )
F0.98425
G01 Z-0.01969
G04 P0 ( dwell for no time -- G64 should not smooth over this point )
F1.96850
X0.32900 Y0.67300
X0.33600 Y0.66700
X0.34200 Y0.65400
X0.34100 Y0.63400
X0.33600 Y0.62800
X0.33500 Y0.62400
X0.33100 Y0.62100
X0.33100 Y0.61900
X0.32100 Y0.61200
X0.30800 Y0.60900
X0.29300 Y0.61100
X0.28300 Y0.61600
X0.27300 Y0.62700
X0.26900 Y0.63800
X0.26800 Y0.64900
X0.27300 Y0.66600
X0.28300 Y0.67600
X0.29700 Y0.68300
X0.31700 Y0.68200
X0.32600 Y0.67700
X0.32900 Y0.67300
G04 P0 ( dwell for no time -- G64 should not smooth over this point )
G00 Z0.19685 ( retract )

G00 X0.47900 Y0.77300 ( rapid move to begin. )
F0.98425
G01 Z-0.01969
G04 P0 ( dwell for no time -- G64 should not smooth over this point )
F1.96850
X0.47900 Y0.77300
X0.48600 Y0.76700
X0.49200 Y0.75400
X0.49200 Y0.73800
X0.48500 Y0.72400
X0.48100 Y0.72100
X0.48100 Y0.71900
X0.47800 Y0.71600
X0.47100 Y0.71200
X0.45800 Y0.70900
X0.44600 Y0.71000
X0.42500 Y0.68800
X0.42500 Y0.67700
X0.43100 Y0.67300
X0.43100 Y0.67100
X0.43600 Y0.66700
X0.44100 Y0.65800
X0.44200 Y0.65400
X0.44100 Y0.63400
X0.43600 Y0.62800
X0.43500 Y0.62400
X0.43100 Y0.62100
X0.43100 Y0.61900
X0.42100 Y0.61200
X0.40300 Y0.60900
X0.38600 Y0.61400
X0.37500 Y0.62400
X0.37100 Y0.63100
X0.36800 Y0.64400
X0.36900 Y0.65500
X0.37300 Y0.66600
X0.38300 Y0.67600
X0.38600 Y0.67700
X0.38600 Y0.70100
X0.38800 Y0.70600
X0.41900 Y0.73600
X0.41800 Y0.74900
X0.42300 Y0.76600
X0.43300 Y0.77600
X0.44700 Y0.78300
X0.46700 Y0.78200
X0.47600 Y0.77700
X0.47900 Y0.77300
G04 P0 ( dwell for no time -- G64 should not smooth over this point )
G00 Z0.19685 ( retract )

G00 X0.17800 Y0.87600 ( rapid move to begin. )
F0.98425
G01 Z-0.01969
G04 P0 ( dwell for no time -- G64 should not smooth over this point )
F1.96850
X0.17800 Y0.87600
X0.26500 Y0.78900
X0.26800 Y0.78800
X0.27000 Y0.77900
X0.28000 Y0.77500
X0.28500 Y0.77000
X0.28700 Y0.76200
X0.29600 Y0.76000
X0.32100 Y0.73400
X0.32600 Y0.73200
X0.32800 Y0.72700
X0.33900 Y0.71700
X0.35100 Y0.71400
X0.36000 Y0.71400
X0.37200 Y0.71700
X0.38000 Y0.72400
X0.38700 Y0.73700
X0.38800 Y0.75800
X0.42500 Y0.79500
X0.42800 Y0.79600
X0.85300 Y0.79600
X0.85600 Y0.79000
X0.86400 Y0.78200
X0.87200 Y0.77800
X0.88900 Y0.77600
X0.90300 Y0.78000
X0.90800 Y0.78500
X0.91000 Y0.78500
X0.91000 Y0.78700
X0.91400 Y0.79000
X0.92000 Y0.80400
X0.92000 Y0.81900
X0.91700 Y0.82800
X0.91000 Y0.83600
X0.91000 Y0.83800
X0.89300 Y0.84600
X0.87400 Y0.84500
X0.86100 Y0.83800
X0.86100 Y0.83600
X0.85600 Y0.83200
X0.85600 Y0.83000
X0.85300 Y0.82700
X0.42100 Y0.82700
X0.41400 Y0.82600
X0.41200 Y0.82300
X0.41000 Y0.82300
X0.36700 Y0.77900
X0.34500 Y0.77800
X0.33400 Y0.77100
X0.32700 Y0.77100
X0.22500 Y0.87300
X0.22300 Y0.88400
X1.19800 Y0.88400
X1.19500 Y0.87200
X1.09800 Y0.77500
X1.09000 Y0.77500
X1.08600 Y0.77800
X1.07900 Y0.77900
X1.06500 Y0.77800
X1.06000 Y0.77400
X1.05400 Y0.77200
X1.05100 Y0.76900
X1.05100 Y0.76700
X1.04600 Y0.76300
X1.04300 Y0.75100
X1.04500 Y0.73200
X1.04800 Y0.72900
X1.04800 Y0.72700
X1.05500 Y0.72100
X1.05800 Y0.71500
X1.05700 Y0.71100
X0.99000 Y0.71100
X0.98800 Y0.71300
X0.96200 Y0.71300
X0.96100 Y0.71100
X0.57000 Y0.71100
X0.56800 Y0.71300
X0.54700 Y0.71200
X0.54500 Y0.70600
X0.51800 Y0.67900
X0.49700 Y0.67800
X0.49600 Y0.67600
X0.49100 Y0.67600
X0.47900 Y0.66600
X0.47400 Y0.65500
X0.47400 Y0.63800
X0.48100 Y0.62400
X0.48400 Y0.62100
X0.49000 Y0.61900
X0.49100 Y0.61700
X0.49700 Y0.61500
X0.51400 Y0.61500
X0.52700 Y0.62100
X0.52800 Y0.62400
X0.53200 Y0.62700
X0.53500 Y0.63300
X0.53500 Y0.63700
X0.53700 Y0.63800
X0.53700 Y0.65700
X0.56100 Y0.68100
X0.56400 Y0.68200
X0.90800 Y0.68200
X0.90900 Y0.67700
X0.90700 Y0.67300
X0.89900 Y0.66600
X0.89400 Y0.65500
X0.89300 Y0.63500
X0.85000 Y0.59200
X0.84700 Y0.59100
X0.28400 Y0.59100
X0.27900 Y0.59300
X0.23800 Y0.63400
X0.23700 Y0.65400
X0.23500 Y0.65600
X0.23300 Y0.66400
X0.22300 Y0.67400
X0.22100 Y0.67400
X0.22000 Y0.67600
X0.21500 Y0.67600
X0.21300 Y0.67800
X0.19700 Y0.67800
X0.19600 Y0.67600
X0.19100 Y0.67600
X0.17900 Y0.66600
X0.17400 Y0.65500
X0.17400 Y0.63800
X0.18100 Y0.62400
X0.18400 Y0.62100
X0.19000 Y0.61900
X0.19100 Y0.61700
X0.19700 Y0.61500
X0.21700 Y0.61400
X0.26500 Y0.56500
X0.27200 Y0.56200
X0.85900 Y0.56200
X0.86600 Y0.56500
X0.91400 Y0.61400
X0.93400 Y0.61500
X0.94000 Y0.61700
X0.94100 Y0.61900
X0.94700 Y0.62100
X0.94800 Y0.62400
X0.95200 Y0.62700
X0.95500 Y0.63300
X0.95500 Y0.63700
X0.95700 Y0.63800
X0.95700 Y0.65400
X0.95500 Y0.65600
X0.95300 Y0.66400
X0.94300 Y0.67300
X0.94100 Y0.67800
X0.94200 Y0.68200
X1.00800 Y0.68200
X1.00900 Y0.67900
X1.00600 Y0.67200
X1.00400 Y0.67200
X0.99500 Y0.66100
X0.99200 Y0.63600
X0.98600 Y0.63100
X0.97900 Y0.61700
X0.97800 Y0.59400
X0.98100 Y0.58500
X0.98400 Y0.58200
X0.98500 Y0.57800
X0.98800 Y0.57600
X0.98800 Y0.57400
X1.09800 Y0.46400
X1.10200 Y0.46300
X1.10700 Y0.45900
X1.12000 Y0.45600
X1.22100 Y0.45600
X1.23400 Y0.45900
X1.23700 Y0.46200
X1.23900 Y0.46200
X1.26000 Y0.48300
X1.26300 Y0.48400
X1.31600 Y0.48400
X1.31900 Y0.48000
X1.33200 Y0.48000
X1.33600 Y0.47400
X1.34700 Y0.47300
X1.35900 Y0.46700
X1.37200 Y0.46500
X1.37400 Y0.46200
X1.38300 Y0.46000
X1.38900 Y0.45400
X1.39100 Y0.44500
X1.39500 Y0.44100
X1.40400 Y0.43900
X1.44900 Y0.39400
X1.45600 Y0.37300
X1.45600 Y0.30700
X1.45800 Y0.30600
X1.46100 Y0.29600
X1.46100 Y0.25700
X1.45800 Y0.24700
X1.45600 Y0.24600
X1.45600 Y0.08100
X0.02500 Y0.08100
X0.02500 Y0.24200
X0.02100 Y0.24700
X0.01800 Y0.25700
X0.01800 Y0.29600
X0.02100 Y0.30600
X0.02500 Y0.31100
X0.02500 Y0.88100
X0.02800 Y0.88400
X0.16400 Y0.88400
X0.17600 Y0.88000
X0.17800 Y0.87600
G04 P0 ( dwell for no time -- G64 should not smooth over this point )
G00 Z0.19685 ( retract )

G00 X0.14300 Y1.02200 ( rapid move to begin. )
F0.98425
G01 Z-0.01969
G04 P0 ( dwell for no time -- G64 should not smooth over this point )
F1.96850
X0.14300 Y1.02200
X0.14300 Y0.96400
X0.13800 Y0.96400
X0.13200 Y0.96600
X0.12000 Y0.97800
X0.11700 Y0.98700
X0.11700 Y1.00600
X0.12000 Y1.01500
X0.13100 Y1.02600
X0.14300 Y1.02900
X0.14300 Y1.02200
G04 P0 ( dwell for no time -- G64 should not smooth over this point )
G00 Z0.19685 ( retract )

G00 X0.20700 Y1.53800 ( rapid move to begin. )
F0.98425
G01 Z-0.01969
G04 P0 ( dwell for no time -- G64 should not smooth over this point )
F1.96850
X0.20700 Y1.53800
X0.20700 Y1.35300
X0.20400 Y1.34900
X0.14500 Y1.34900
X0.14500 Y1.29300
X0.20300 Y1.29300
X0.20600 Y1.29200
X0.20700 Y1.28900
X0.20700 Y1.10300
X0.20600 Y1.10000
X0.20400 Y1.09900
X0.14500 Y1.09900
X0.14400 Y1.03000
X0.13100 Y1.02600
X0.12000 Y1.01500
X0.11700 Y1.00600
X0.11700 Y0.98700
X0.12000 Y0.97800
X0.13200 Y0.96600
X0.14300 Y0.96400
X0.14400 Y0.96000
X0.14700 Y0.96000
X0.14700 Y0.95500
X0.15000 Y0.94700
X0.19900 Y0.89800
X0.20100 Y0.89800
X0.20900 Y0.88800
X0.22300 Y0.88400
X0.22500 Y0.87300
X0.32700 Y0.77100
X0.33400 Y0.77100
X0.34500 Y0.77800
X0.36700 Y0.77900
X0.41000 Y0.82300
X0.41200 Y0.82300
X0.41400 Y0.82600
X0.42100 Y0.82700
X0.85300 Y0.82700
X0.85600 Y0.83000
X0.85600 Y0.83200
X0.86100 Y0.83600
X0.86100 Y0.83800
X0.87800 Y0.84600
X0.89700 Y0.84500
X0.90300 Y0.84200
X0.90400 Y0.84000
X0.91000 Y0.83800
X0.91000 Y0.83600
X0.91700 Y0.82800
X0.92000 Y0.81900
X0.92000 Y0.80400
X0.91700 Y0.79500
X0.91500 Y0.79400
X0.91400 Y0.79000
X0.91000 Y0.78700
X0.91000 Y0.78500
X0.90800 Y0.78500
X0.90600 Y0.78200
X0.89900 Y0.77800
X0.88100 Y0.77600
X0.87800 Y0.77800
X0.87200 Y0.77800
X0.86400 Y0.78200
X0.85600 Y0.79000
X0.85300 Y0.79600
X0.42800 Y0.79600
X0.42500 Y0.79500
X0.38800 Y0.75800
X0.38700 Y0.73700
X0.38200 Y0.72700
X0.37500 Y0.71900
X0.37300 Y0.71900
X0.37000 Y0.71600
X0.36000 Y0.71400
X0.34500 Y0.71500
X0.33600 Y0.71900
X0.32800 Y0.72700
X0.32600 Y0.73200
X0.32100 Y0.73400
X0.29600 Y0.76000
X0.28700 Y0.76200
X0.28500 Y0.77000
X0.27900 Y0.77600
X0.27000 Y0.77900
X0.26800 Y0.78800
X0.26400 Y0.79000
X0.17700 Y0.87700
X0.17600 Y0.88000
X0.16400 Y0.88300
X0.16000 Y0.89600
X0.09800 Y0.95800
X0.09200 Y0.96000
X0.08200 Y0.95900
X0.07200 Y0.96000
X0.05900 Y0.96500
X0.05100 Y0.97200
X0.05100 Y0.97400
X0.04700 Y0.97800
X0.04700 Y0.98300
X0.04500 Y0.98500
X0.04300 Y0.99500
X0.04400 Y1.00500
X0.04600 Y1.00700
X0.04900 Y1.01800
X0.06300 Y1.03000
X0.07000 Y1.03100
X0.07200 Y1.03300
X0.09100 Y1.03200
X0.09900 Y1.03500
X0.11400 Y1.05000
X0.11600 Y1.05500
X0.11600 Y1.09900
X0.05700 Y1.09900
X0.05400 Y1.10000
X0.05300 Y1.10300
X0.05300 Y1.28900
X0.05400 Y1.29200
X0.05700 Y1.29300
X0.11600 Y1.29300
X0.11600 Y1.34900
X0.05700 Y1.34900
X0.05400 Y1.35000
X0.05300 Y1.35300
X0.05300 Y1.53900
X0.05400 Y1.54200
X0.05700 Y1.54300
X0.20300 Y1.54300
X0.20600 Y1.54200
X0.20700 Y1.53800
G04 P0 ( dwell for no time -- G64 should not smooth over this point )
G00 Z0.19685 ( retract )

G00 X0.42500 Y1.53800 ( rapid move to begin. )
F0.98425
G01 Z-0.01969
G04 P0 ( dwell for no time -- G64 should not smooth over this point )
F1.96850
X0.42500 Y1.53800
X0.42500 Y1.46100
X0.50800 Y1.46100
X0.50800 Y1.51900
X0.50900 Y1.52200
X0.51200 Y1.52300
X0.69800 Y1.52300
X0.70100 Y1.52200
X0.70200 Y1.51900
X0.70200 Y1.46100
X0.78700 Y1.46000
X0.85900 Y1.38800
X0.87000 Y1.38400
X0.90200 Y1.38300
X0.90500 Y1.38200
X0.90700 Y1.37800
X0.90800 Y1.32000
X0.90600 Y1.31100
X0.89900 Y1.30900
X0.84200 Y1.30900
X0.83500 Y1.31100
X0.83300 Y1.31800
X0.83300 Y1.36700
X0.83000 Y1.37600
X0.77500 Y1.43100
X0.77200 Y1.43200
X0.70200 Y1.43200
X0.70200 Y1.37300
X0.69900 Y1.36900
X0.51200 Y1.36900
X0.50900 Y1.37000
X0.50800 Y1.37300
X0.50800 Y1.43200
X0.42500 Y1.43200
X0.42400 Y1.35000
X0.36300 Y1.34900
X0.36300 Y1.29300
X0.42500 Y1.29400
X0.48000 Y1.34900
X0.48600 Y1.35100
X0.73800 Y1.35100
X0.74500 Y1.34800
X0.74600 Y1.34500
X0.76400 Y1.32700
X0.76800 Y1.32500
X0.77000 Y1.31900
X0.77000 Y1.13400
X0.76800 Y1.12800
X0.62600 Y0.98500
X0.61900 Y0.98200
X0.58900 Y0.98200
X0.58700 Y0.98000
X0.58500 Y0.97100
X0.58300 Y0.97000
X0.58000 Y0.96300
X0.56800 Y0.95100
X0.55800 Y0.94600
X0.55200 Y0.94500
X0.55000 Y0.94300
X0.54100 Y0.94200
X0.53700 Y0.93800
X0.53700 Y0.93600
X0.53300 Y0.93600
X0.53300 Y0.93800
X0.52900 Y0.94200
X0.52000 Y0.94300
X0.51100 Y0.94800
X0.50600 Y0.94900
X0.50500 Y0.95100
X0.50000 Y0.95300
X0.48800 Y0.96700
X0.48400 Y0.97900
X0.48200 Y0.98100
X0.48100 Y0.98700
X0.48100 Y1.00600
X0.48800 Y1.02600
X0.50200 Y1.04100
X0.51300 Y1.04700
X0.52800 Y1.05100
X0.54200 Y1.05100
X0.55800 Y1.04700
X0.56100 Y1.04400
X0.56800 Y1.04100
X0.58300 Y1.02500
X0.58700 Y1.01300
X0.58900 Y1.01100
X0.61000 Y1.01200
X0.73900 Y1.14000
X0.74100 Y1.14500
X0.74100 Y1.30800
X0.74000 Y1.31100
X0.73000 Y1.32100
X0.72700 Y1.32200
X0.49400 Y1.32100
X0.42600 Y1.25300
X0.42500 Y1.25000
X0.42400 Y1.10000
X0.27200 Y1.10000
X0.27100 Y1.28900
X0.27200 Y1.29200
X0.27500 Y1.29300
X0.33400 Y1.29300
X0.33400 Y1.34900
X0.27500 Y1.34900
X0.27200 Y1.35000
X0.27100 Y1.35300
X0.27200 Y1.54200
X0.42100 Y1.54300
X0.42400 Y1.54200
X0.42500 Y1.53800
G04 P0 ( dwell for no time -- G64 should not smooth over this point )
G00 Z0.19685 ( retract )

G00 X0.70200 Y1.30000 ( rapid move to begin. )
F0.98425
G01 Z-0.01969
G04 P0 ( dwell for no time -- G64 should not smooth over this point )
F1.96850
X0.70200 Y1.30000
X0.70100 Y1.15200
X0.54800 Y1.15000
X0.38400 Y0.98500
X0.37700 Y0.98200
X0.22000 Y0.98200
X0.22300 Y0.97100
X0.23400 Y0.96600
X0.45300 Y0.96600
X0.45900 Y0.96400
X0.48900 Y0.93300
X0.49400 Y0.93100
X0.52900 Y0.93100
X0.53300 Y0.93600
X0.53700 Y0.93600
X0.54100 Y0.93100
X1.08700 Y0.93100
X1.09100 Y0.93600
X1.18200 Y0.93600
X1.18500 Y0.93800
X1.19200 Y0.93800
X1.20000 Y0.94100
X1.20400 Y0.94500
X1.20600 Y0.95000
X1.20600 Y1.15000
X1.20800 Y1.15200
X1.20800 Y1.15500
X1.25100 Y1.19700
X1.25400 Y1.20800
X1.25700 Y1.21100
X1.26000 Y1.21100
X1.26000 Y1.21300
X1.26400 Y1.21700
X1.26600 Y1.21700
X1.26700 Y1.22200
X1.27100 Y1.22400
X1.27900 Y1.22400
X1.28400 Y1.22100
X1.28500 Y1.21700
X1.28800 Y1.21600
X1.29200 Y1.21000
X1.29700 Y1.20800
X1.29800 Y1.19700
X1.29600 Y1.19300
X1.29100 Y1.19100
X1.28700 Y1.18600
X1.28500 Y1.18600
X1.28400 Y1.18200
X1.28100 Y1.17900
X1.27300 Y1.17800
X1.23600 Y1.14100
X1.23500 Y1.13800
X1.23500 Y0.93900
X1.23100 Y0.93000
X1.20600 Y0.90500
X1.19900 Y0.90200
X0.48200 Y0.90200
X0.47500 Y0.90500
X0.44500 Y0.93600
X0.44200 Y0.93700
X0.22300 Y0.93600
X0.21500 Y0.94000
X0.21100 Y0.94400
X0.21100 Y0.94700
X0.20800 Y0.94900
X0.20800 Y0.95200
X0.20600 Y0.95400
X0.19100 Y0.95900
X0.14400 Y0.96000
X0.14300 Y0.96300
X0.14400 Y1.03400
X0.21200 Y1.03300
X0.21600 Y1.03100
X0.21800 Y1.01300
X0.22000 Y1.01100
X0.36800 Y1.01200
X0.50700 Y1.15100
X0.50900 Y1.30400
X0.69800 Y1.30500
X0.70100 Y1.30400
X0.70200 Y1.30000
G04 P0 ( dwell for no time -- G64 should not smooth over this point )
G00 Z0.19685 ( retract )

G00 X1.11100 Y0.86400 ( rapid move to begin. )
F0.98425
G01 Z-0.01969
G04 P0 ( dwell for no time -- G64 should not smooth over this point )
F1.96850
X1.11100 Y0.86400
X1.11200 Y0.86100
X1.11500 Y0.85900
X1.11800 Y0.84800
X1.11600 Y0.83600
X1.10700 Y0.82400
X1.09900 Y0.82000
X1.08400 Y0.81900
X1.07900 Y0.82200
X1.03600 Y0.82200
X1.03500 Y0.81700
X1.03000 Y0.81300
X1.00300 Y0.81300
X1.00200 Y0.81500
X0.99600 Y0.81300
X0.99600 Y0.85900
X1.00400 Y0.85800
X1.02700 Y0.86000
X1.03200 Y0.85800
X1.03600 Y0.85100
X1.06300 Y0.85100
X1.06800 Y0.86300
X1.07300 Y0.86800
X1.07500 Y0.86800
X1.07700 Y0.87100
X1.08900 Y0.87400
X1.10300 Y0.87100
X1.11100 Y0.86400
G04 P0 ( dwell for no time -- G64 should not smooth over this point )
G00 Z0.19685 ( retract )

G00 X1.19300 Y0.77300 ( rapid move to begin. )
F0.98425
G01 Z-0.01969
G04 P0 ( dwell for no time -- G64 should not smooth over this point )
F1.96850
X1.19300 Y0.77300
X1.20300 Y0.76400
X1.20500 Y0.75600
X1.20700 Y0.75400
X1.20700 Y0.73800
X1.20500 Y0.73700
X1.20500 Y0.73300
X1.20200 Y0.72700
X1.19800 Y0.72400
X1.19700 Y0.72100
X1.19100 Y0.71900
X1.19000 Y0.71700
X1.18400 Y0.71600
X1.18200 Y0.71300
X1.15800 Y0.71300
X1.15600 Y0.72100
X1.15400 Y0.72100
X1.15100 Y0.72400
X1.14400 Y0.73800
X1.14400 Y0.75500
X1.14700 Y0.76000
X1.14700 Y0.76300
X1.15600 Y0.77300
X1.16000 Y0.77400
X1.16100 Y0.77600
X1.16600 Y0.77600
X1.16700 Y0.77800
X1.18300 Y0.77800
X1.18500 Y0.77600
X1.19000 Y0.77600
X1.19300 Y0.77300
G04 P0 ( dwell for no time -- G64 should not smooth over this point )
G00 Z0.19685 ( retract )

G00 X1.18600 Y0.70600 ( rapid move to begin. )
F0.98425
G01 Z-0.01969
G04 P0 ( dwell for no time -- G64 should not smooth over this point )
F1.96850
X1.18600 Y0.70600
X1.21200 Y0.67900
X1.23300 Y0.67800
X1.23500 Y0.67600
X1.24000 Y0.67600
X1.25300 Y0.66400
X1.25500 Y0.66000
X1.25500 Y0.65600
X1.25700 Y0.65400
X1.25700 Y0.63800
X1.25500 Y0.63700
X1.25500 Y0.63300
X1.25200 Y0.62700
X1.24800 Y0.62400
X1.24800 Y0.62200
X1.24100 Y0.61900
X1.24000 Y0.61700
X1.23600 Y0.61700
X1.23200 Y0.61000
X1.22200 Y0.61000
X1.22100 Y0.61200
X1.21800 Y0.61200
X1.21300 Y0.61600
X1.21000 Y0.61600
X1.21000 Y0.61800
X1.20400 Y0.62000
X1.19900 Y0.62500
X1.19600 Y0.62600
X1.19200 Y0.65800
X1.16800 Y0.68100
X1.14200 Y0.68100
X1.14100 Y0.67900
X1.13800 Y0.68000
X1.10900 Y0.67900
X1.10800 Y0.68100
X1.00900 Y0.68000
X1.00800 Y0.68200
X0.94200 Y0.68200
X0.94100 Y0.67900
X0.93800 Y0.68000
X0.90900 Y0.67900
X0.90800 Y0.68200
X0.56400 Y0.68200
X0.56100 Y0.68100
X0.53700 Y0.65700
X0.53700 Y0.63800
X0.53500 Y0.63700
X0.53500 Y0.63300
X0.53200 Y0.62700
X0.52800 Y0.62400
X0.52800 Y0.62200
X0.52100 Y0.61900
X0.52000 Y0.61700
X0.51400 Y0.61500
X0.49700 Y0.61500
X0.49100 Y0.61700
X0.49000 Y0.61900
X0.48400 Y0.62100
X0.48100 Y0.62400
X0.47400 Y0.63800
X0.47400 Y0.65500
X0.47900 Y0.66600
X0.49100 Y0.67600
X0.49600 Y0.67600
X0.49700 Y0.67800
X0.51800 Y0.67900
X0.54500 Y0.70600
X0.54700 Y0.71200
X0.56800 Y0.71300
X0.57000 Y0.71100
X0.96100 Y0.71100
X0.96200 Y0.71300
X0.98800 Y0.71300
X0.99000 Y0.71100
X1.05700 Y0.71100
X1.05800 Y0.71300
X1.09200 Y0.71300
X1.09300 Y0.71100
X1.15700 Y0.71100
X1.15800 Y0.71300
X1.18200 Y0.71300
X1.18600 Y0.70600
G04 P0 ( dwell for no time -- G64 should not smooth over this point )
G00 Z0.19685 ( retract )

G00 X1.14300 Y0.67300 ( rapid move to begin. )
F0.98425
G01 Z-0.01969
G04 P0 ( dwell for no time -- G64 should not smooth over this point )
F1.96850
X1.14300 Y0.67300
X1.15300 Y0.66400
X1.15500 Y0.65600
X1.15700 Y0.65400
X1.15700 Y0.63800
X1.15500 Y0.63700
X1.15500 Y0.63300
X1.15200 Y0.62700
X1.14800 Y0.62400
X1.14700 Y0.62100
X1.13400 Y0.61500
X1.11700 Y0.61500
X1.10400 Y0.62100
X1.09700 Y0.63000
X1.09700 Y0.63300
X1.09400 Y0.63800
X1.09400 Y0.65500
X1.09900 Y0.66600
X1.10700 Y0.67300
X1.10900 Y0.67900
X1.11300 Y0.68000
X1.13800 Y0.68000
X1.14200 Y0.67800
X1.14300 Y0.67300
G04 P0 ( dwell for no time -- G64 should not smooth over this point )
G00 Z0.19685 ( retract )

G00 X1.10800 Y0.67600 ( rapid move to begin. )
F0.98425
G01 Z-0.01969
G04 P0 ( dwell for no time -- G64 should not smooth over this point )
F1.96850
X1.10800 Y0.67600
X1.10700 Y0.67300
X1.09900 Y0.66600
X1.09500 Y0.65800
X1.09400 Y0.63800
X1.10100 Y0.62400
X1.10400 Y0.62100
X1.11000 Y0.61900
X1.11100 Y0.61700
X1.11700 Y0.61500
X1.13400 Y0.61500
X1.14700 Y0.62100
X1.14800 Y0.62400
X1.15200 Y0.62700
X1.15500 Y0.63300
X1.15500 Y0.63700
X1.15700 Y0.63800
X1.15700 Y0.65400
X1.15500 Y0.65600
X1.15500 Y0.66000
X1.15300 Y0.66400
X1.14300 Y0.67300
X1.14100 Y0.67800
X1.14200 Y0.68100
X1.16800 Y0.68100
X1.19200 Y0.65800
X1.19600 Y0.62600
X1.17800 Y0.62600
X1.16100 Y0.61800
X1.16100 Y0.61600
X1.15600 Y0.61200
X1.15600 Y0.61000
X1.15300 Y0.60700
X1.15000 Y0.59500
X1.15000 Y0.58700
X1.15600 Y0.57000
X1.16400 Y0.56200
X1.17200 Y0.55800
X1.18100 Y0.55700
X1.18500 Y0.55300
X1.18500 Y0.55000
X1.18200 Y0.54700
X1.14500 Y0.54800
X1.05800 Y0.63500
X1.05700 Y0.63800
X1.05800 Y0.65000
X1.05600 Y0.65900
X1.05200 Y0.66600
X1.05000 Y0.66700
X1.05000 Y0.66900
X1.04400 Y0.67300
X1.04200 Y0.68100
X1.10800 Y0.68100
X1.10800 Y0.67600
G04 P0 ( dwell for no time -- G64 should not smooth over this point )
G00 Z0.19685 ( retract )

G00 X1.20000 Y0.55200 ( rapid move to begin. )
F0.98425
G01 Z-0.01969
G04 P0 ( dwell for no time -- G64 should not smooth over this point )
F1.96850
X1.20000 Y0.55200
X1.19900 Y0.54800
X1.19600 Y0.54700
X1.18800 Y0.54700
X1.18500 Y0.55000
X1.18500 Y0.55300
X1.18900 Y0.55700
X1.20100 Y0.55700
X1.20000 Y0.55200
G04 P0 ( dwell for no time -- G64 should not smooth over this point )
G00 Z0.19685 ( retract )

G00 X1.36300 Y0.47900 ( rapid move to begin. )
F0.98425
G01 Z-0.01969
G04 P0 ( dwell for no time -- G64 should not smooth over this point )
F1.96850
X1.36300 Y0.47900
X1.36800 Y0.47500
X1.37000 Y0.46500
X1.35900 Y0.46700
X1.34700 Y0.47300
X1.33600 Y0.47400
X1.33200 Y0.48100
X1.33500 Y0.48400
X1.35500 Y0.48400
X1.35900 Y0.48300
X1.36300 Y0.47900
G04 P0 ( dwell for no time -- G64 should not smooth over this point )
G00 Z0.19685 ( retract )

G00 X1.45600 Y0.60700 ( rapid move to begin. )
F0.98425
G01 Z-0.01969
G04 P0 ( dwell for no time -- G64 should not smooth over this point )
F1.96850
X1.45600 Y0.60700
X1.45600 Y0.52700
X1.45400 Y0.52500
X1.45000 Y0.52500
X1.44100 Y0.52800
X1.42100 Y0.54800
X1.42100 Y0.55000
X1.41500 Y0.55600
X1.41100 Y0.55700
X1.40500 Y0.56400
X1.39900 Y0.56700
X1.39600 Y0.57500
X1.40100 Y0.57700
X1.40700 Y0.57700
X1.40800 Y0.57900
X1.41000 Y0.57900
X1.44100 Y0.61100
X1.45400 Y0.61400
X1.45600 Y0.61200
X1.45600 Y0.60700
G04 P0 ( dwell for no time -- G64 should not smooth over this point )
G00 Z0.19685 ( retract )

G00 X1.66200 Y0.65200 ( rapid move to begin. )
F0.98425
G01 Z-0.01969
G04 P0 ( dwell for no time -- G64 should not smooth over this point )
F1.96850
X1.66200 Y0.65200
X1.67000 Y0.64800
X1.67600 Y0.64700
X1.68100 Y0.64300
X1.68700 Y0.64100
X1.68800 Y0.63900
X1.69600 Y0.63600
X1.70600 Y0.62600
X1.71300 Y0.62200
X1.71700 Y0.61500
X1.72700 Y0.60500
X1.73600 Y0.58600
X1.73800 Y0.58500
X1.74500 Y0.56400
X1.74800 Y0.54500
X1.74800 Y0.52400
X1.74400 Y0.50100
X1.74100 Y0.49600
X1.73800 Y0.48400
X1.73600 Y0.48300
X1.72700 Y0.46400
X1.71700 Y0.45400
X1.71300 Y0.44700
X1.70600 Y0.44300
X1.69600 Y0.43300
X1.67700 Y0.42400
X1.67600 Y0.42200
X1.64600 Y0.41300
X1.61500 Y0.41200
X1.59200 Y0.41600
X1.58400 Y0.42000
X1.57500 Y0.42200
X1.57400 Y0.42400
X1.55500 Y0.43300
X1.54500 Y0.44300
X1.53800 Y0.44700
X1.53400 Y0.45400
X1.52400 Y0.46400
X1.52100 Y0.47200
X1.51900 Y0.47300
X1.51700 Y0.47900
X1.51500 Y0.48000
X1.50700 Y0.50100
X1.50300 Y0.52400
X1.50300 Y0.54500
X1.50700 Y0.56800
X1.51500 Y0.59000
X1.51900 Y0.59400
X1.52400 Y0.60500
X1.53400 Y0.61500
X1.53800 Y0.62200
X1.54500 Y0.62600
X1.55500 Y0.63600
X1.56300 Y0.63900
X1.57000 Y0.64500
X1.58700 Y0.65100
X1.59100 Y0.65800
X1.64900 Y0.65900
X1.65900 Y0.65800
X1.66200 Y0.65200
G04 P0 ( dwell for no time -- G64 should not smooth over this point )
G00 Z0.19685 ( retract )

G00 X1.85700 Y0.70600 ( rapid move to begin. )
F0.98425
G01 Z-0.01969
G04 P0 ( dwell for no time -- G64 should not smooth over this point )
F1.96850
X1.85700 Y0.70600
X1.86100 Y0.70500
X1.87200 Y0.69200
X1.87200 Y0.68800
X1.87500 Y0.68100
X1.87500 Y0.67100
X1.87200 Y0.66500
X1.87200 Y0.66100
X1.86800 Y0.65400
X1.86000 Y0.64700
X1.85300 Y0.64400
X1.84900 Y0.64400
X1.84700 Y0.64200
X1.83300 Y0.64200
X1.83100 Y0.64400
X1.82100 Y0.64700
X1.82000 Y0.64900
X1.81600 Y0.65000
X1.81600 Y0.65200
X1.81300 Y0.65400
X1.81300 Y0.65600
X1.80800 Y0.66200
X1.66200 Y0.66200
X1.65900 Y0.65800
X1.59100 Y0.65800
X1.58800 Y0.66200
X1.49400 Y0.66200
X1.49100 Y0.66100
X1.47100 Y0.64100
X1.46500 Y0.62000
X1.45700 Y0.61200
X1.45500 Y0.61200
X1.45400 Y0.61400
X1.45000 Y0.61400
X1.44100 Y0.61100
X1.40700 Y0.57700
X1.40100 Y0.57700
X1.39700 Y0.57500
X1.22200 Y0.57500
X1.21900 Y0.57100
X1.21500 Y0.56900
X1.21400 Y0.56600
X1.21200 Y0.56600
X1.20700 Y0.56000
X1.20300 Y0.55900
X1.20200 Y0.55700
X1.18900 Y0.55700
X1.18600 Y0.55300
X1.18400 Y0.55300
X1.18100 Y0.55700
X1.17200 Y0.55800
X1.16400 Y0.56200
X1.15600 Y0.57000
X1.15000 Y0.58700
X1.15200 Y0.60400
X1.15600 Y0.61200
X1.16400 Y0.62000
X1.17800 Y0.62600
X1.19700 Y0.62600
X1.20400 Y0.62000
X1.21000 Y0.61800
X1.21000 Y0.61600
X1.21300 Y0.61600
X1.21400 Y0.61400
X1.22100 Y0.61200
X1.22200 Y0.61000
X1.23200 Y0.61000
X1.23500 Y0.60600
X1.39200 Y0.60600
X1.39500 Y0.60700
X1.45000 Y0.66200
X1.45600 Y0.68300
X1.46300 Y0.69000
X1.46500 Y0.69000
X1.46700 Y0.68700
X1.47100 Y0.68700
X1.48300 Y0.69100
X1.80800 Y0.69100
X1.81800 Y0.70400
X1.83100 Y0.71000
X1.84500 Y0.71100
X1.85600 Y0.70800
X1.85700 Y0.70600
G04 P0 ( dwell for no time -- G64 should not smooth over this point )
G00 Z0.19685 ( retract )

G00 X2.01200 Y0.85100 ( rapid move to begin. )
F0.98425
G01 Z-0.01969
G04 P0 ( dwell for no time -- G64 should not smooth over this point )
F1.96850
X2.01200 Y0.85100
X2.01600 Y0.85000
X2.02400 Y0.84200
X2.02500 Y0.83800
X2.02700 Y0.83700
X2.02700 Y0.83300
X2.03000 Y0.82600
X2.02900 Y0.81200
X2.02300 Y0.79900
X2.01500 Y0.79200
X2.00200 Y0.78700
X1.98200 Y0.78700
X1.93100 Y0.73500
X1.92400 Y0.73200
X1.47000 Y0.73200
X1.46500 Y0.72600
X1.45600 Y0.72600
X1.45100 Y0.73200
X1.30500 Y0.73200
X1.30200 Y0.72900
X1.30200 Y0.72700
X1.29800 Y0.72400
X1.29800 Y0.72200
X1.29100 Y0.71900
X1.29000 Y0.71700
X1.28400 Y0.71500
X1.26700 Y0.71500
X1.25400 Y0.72100
X1.24700 Y0.73000
X1.24700 Y0.73300
X1.24400 Y0.73800
X1.24400 Y0.75500
X1.24700 Y0.76000
X1.24700 Y0.76300
X1.25600 Y0.77300
X1.26000 Y0.77400
X1.26100 Y0.77600
X1.26600 Y0.77600
X1.26700 Y0.77800
X1.28300 Y0.77800
X1.28500 Y0.77600
X1.29000 Y0.77600
X1.30500 Y0.76100
X1.45100 Y0.76100
X1.45600 Y0.76700
X1.46500 Y0.76700
X1.47000 Y0.76100
X1.91200 Y0.76100
X1.91500 Y0.76200
X1.92300 Y0.77100
X1.92700 Y0.77200
X1.93000 Y0.78200
X1.93900 Y0.78400
X1.93900 Y0.78700
X1.96100 Y0.80800
X1.96100 Y0.82800
X1.96400 Y0.83400
X1.96400 Y0.83800
X1.97300 Y0.84900
X1.97700 Y0.85000
X1.98000 Y0.85300
X1.99000 Y0.85600
X2.00000 Y0.85600
X2.01100 Y0.85300
X2.01200 Y0.85100
G04 P0 ( dwell for no time -- G64 should not smooth over this point )
G00 Z0.19685 ( retract )

G00 X2.18000 Y0.89700 ( rapid move to begin. )
F0.98425
G01 Z-0.01969
G04 P0 ( dwell for no time -- G64 should not smooth over this point )
F1.96850
X2.18000 Y0.89700
X2.17900 Y0.67900
X2.13500 Y0.63500
X2.13200 Y0.63400
X2.12600 Y0.63500
X2.12200 Y0.63900
X2.11800 Y0.64000
X2.11700 Y0.64200
X2.10600 Y0.64800
X2.08800 Y0.65400
X2.06600 Y0.65800
X2.03800 Y0.65700
X2.00400 Y0.64800
X2.00300 Y0.64600
X1.99300 Y0.64200
X1.99200 Y0.64000
X1.98200 Y0.63500
X1.97600 Y0.62800
X1.97400 Y0.62800
X1.96600 Y0.62000
X1.96100 Y0.61500
X1.96100 Y0.61300
X1.95500 Y0.60800
X1.95000 Y0.59800
X1.94800 Y0.59700
X1.94400 Y0.58700
X1.94200 Y0.58600
X1.93500 Y0.56300
X1.93500 Y0.55600
X1.93200 Y0.54500
X1.93300 Y0.51700
X1.94100 Y0.48600
X1.94900 Y0.47100
X1.95100 Y0.47000
X1.95500 Y0.46200
X1.95900 Y0.45900
X1.95900 Y0.45700
X1.96400 Y0.45300
X1.96400 Y0.45100
X1.98200 Y0.43400
X1.98600 Y0.43300
X1.98700 Y0.43100
X1.99100 Y0.43000
X1.99200 Y0.42800
X1.99600 Y0.42700
X2.00100 Y0.42300
X2.00400 Y0.42300
X2.00800 Y0.42000
X2.02300 Y0.41500
X2.03400 Y0.41400
X2.03800 Y0.41200
X2.06100 Y0.41100
X2.08800 Y0.41500
X2.11300 Y0.42500
X2.11400 Y0.42700
X2.11800 Y0.42800
X2.11900 Y0.43000
X2.12800 Y0.43400
X2.13100 Y0.43800
X2.13300 Y0.43800
X2.15200 Y0.45700
X2.15200 Y0.45900
X2.15600 Y0.46200
X2.15700 Y0.46600
X2.16200 Y0.47200
X2.16300 Y0.47600
X2.16500 Y0.47700
X2.17600 Y0.50600
X2.17600 Y0.51300
X2.17800 Y0.51700
X2.17900 Y0.54000
X2.17600 Y0.56300
X2.17000 Y0.58200
X2.16700 Y0.58600
X2.16500 Y0.59300
X2.16300 Y0.59400
X2.16200 Y0.59800
X2.15700 Y0.60400
X2.15500 Y0.61100
X2.15600 Y0.61400
X2.21000 Y0.66800
X2.21100 Y0.77600
X2.21300 Y0.77800
X2.22000 Y0.77500
X2.22300 Y0.76900
X2.22600 Y0.76700
X2.22600 Y0.76500
X2.23000 Y0.76400
X2.23500 Y0.76000
X2.24100 Y0.75900
X2.24300 Y0.75700
X2.25700 Y0.75700
X2.27300 Y0.76400
X2.27800 Y0.76900
X2.28300 Y0.77900
X2.44000 Y0.77900
X2.44100 Y0.77500
X2.43800 Y0.77100
X2.43800 Y0.76800
X2.43200 Y0.76300
X2.43100 Y0.75600
X2.42900 Y0.75400
X2.42900 Y0.73800
X2.43100 Y0.73600
X2.43200 Y0.73000
X2.43800 Y0.72400
X2.43900 Y0.72100
X2.44500 Y0.71900
X2.44600 Y0.71700
X2.45200 Y0.71500
X2.46900 Y0.71500
X2.48200 Y0.72100
X2.48900 Y0.73000
X2.48900 Y0.73300
X2.49200 Y0.73800
X2.49200 Y0.75400
X2.48900 Y0.76300
X2.48100 Y0.77300
X2.48000 Y0.77800
X2.50400 Y0.77900
X2.51000 Y0.77600
X2.52800 Y0.75800
X2.52900 Y0.73800
X2.53100 Y0.73600
X2.53200 Y0.73000
X2.53800 Y0.72400
X2.53900 Y0.72100
X2.54500 Y0.71900
X2.54600 Y0.71700
X2.55200 Y0.71600
X2.55300 Y0.71200
X2.55100 Y0.70800
X2.52200 Y0.67900
X2.50000 Y0.67800
X2.49500 Y0.67400
X2.48900 Y0.67200
X2.48200 Y0.66300
X2.47900 Y0.65600
X2.47700 Y0.63400
X2.36100 Y0.51800
X2.33100 Y0.51700
X2.32400 Y0.51600
X2.32200 Y0.51300
X2.32000 Y0.51300
X2.14800 Y0.34000
X2.14000 Y0.34000
X2.12800 Y0.35200
X2.12400 Y0.35300
X2.12300 Y0.35500
X2.11900 Y0.35600
X2.11300 Y0.36100
X2.10600 Y0.36300
X2.10200 Y0.36600
X2.08400 Y0.37200
X2.06100 Y0.37500
X2.03800 Y0.37400
X2.03400 Y0.37200
X2.02300 Y0.37100
X2.00800 Y0.36600
X2.00400 Y0.36300
X2.00100 Y0.36300
X1.98200 Y0.35100
X1.97600 Y0.35200
X1.92200 Y0.40600
X1.92100 Y0.40900
X1.92200 Y0.62700
X2.09000 Y0.79500
X2.09100 Y0.90300
X2.09500 Y0.90500
X2.09800 Y0.90100
X2.10500 Y0.90000
X2.18000 Y0.90000
X2.18000 Y0.89700
G04 P0 ( dwell for no time -- G64 should not smooth over this point )
G00 Z0.19685 ( retract )

G00 X2.25600 Y0.89500 ( rapid move to begin. )
F0.98425
G01 Z-0.01969
G04 P0 ( dwell for no time -- G64 should not smooth over this point )
F1.96850
X2.25600 Y0.89500
X2.33400 Y0.81800
X2.33500 Y0.81300
X2.33700 Y0.81100
X2.33600 Y0.80800
X2.28300 Y0.80800
X2.28000 Y0.80900
X2.27800 Y0.81300
X2.26600 Y0.82300
X2.25500 Y0.82600
X2.24500 Y0.82600
X2.23500 Y0.82300
X2.23200 Y0.82000
X2.22800 Y0.81900
X2.21700 Y0.80500
X2.21300 Y0.80400
X2.21100 Y0.80600
X2.21100 Y0.90000
X2.25100 Y0.90000
X2.25600 Y0.89500
G04 P0 ( dwell for no time -- G64 should not smooth over this point )
G00 Z0.19685 ( retract )

G00 X2.26700 Y0.82100 ( rapid move to begin. )
F0.98425
G01 Z-0.01969
G04 P0 ( dwell for no time -- G64 should not smooth over this point )
F1.96850
X2.26700 Y0.82100
X2.27100 Y0.82000
X2.27900 Y0.81200
X2.27900 Y0.81000
X2.28300 Y0.80800
X2.33600 Y0.80800
X2.33700 Y0.81000
X2.52300 Y0.81000
X2.52500 Y0.80200
X2.54800 Y0.77900
X2.57100 Y0.77800
X2.58500 Y0.76900
X2.58500 Y0.76700
X2.59100 Y0.76100
X2.59300 Y0.75000
X2.59100 Y0.73200
X2.58900 Y0.73100
X2.58800 Y0.72700
X2.58100 Y0.72100
X2.57800 Y0.71400
X2.55300 Y0.71300
X2.55200 Y0.71600
X2.54600 Y0.71700
X2.54500 Y0.71900
X2.53900 Y0.72100
X2.53800 Y0.72400
X2.53400 Y0.72700
X2.52900 Y0.73800
X2.52800 Y0.75800
X2.51000 Y0.77600
X2.50400 Y0.77900
X2.48100 Y0.77900
X2.48000 Y0.77700
X2.44100 Y0.77700
X2.44000 Y0.77900
X2.28300 Y0.77900
X2.27800 Y0.76900
X2.27300 Y0.76400
X2.25700 Y0.75700
X2.24300 Y0.75700
X2.22600 Y0.76500
X2.22100 Y0.77400
X2.21500 Y0.77700
X2.21300 Y0.78100
X2.21400 Y0.80400
X2.22100 Y0.80900
X2.22300 Y0.81400
X2.22800 Y0.81900
X2.24100 Y0.82500
X2.25500 Y0.82600
X2.26600 Y0.82300
X2.26700 Y0.82100
G04 P0 ( dwell for no time -- G64 should not smooth over this point )
G00 Z0.19685 ( retract )

G00 X2.48100 Y0.77300 ( rapid move to begin. )
F0.98425
G01 Z-0.01969
G04 P0 ( dwell for no time -- G64 should not smooth over this point )
F1.96850
X2.48100 Y0.77300
X2.48900 Y0.76300
X2.49200 Y0.75400
X2.49200 Y0.73800
X2.48500 Y0.72400
X2.48200 Y0.72100
X2.47600 Y0.71900
X2.47500 Y0.71700
X2.46900 Y0.71500
X2.45200 Y0.71500
X2.43900 Y0.72100
X2.43800 Y0.72400
X2.43200 Y0.73000
X2.43100 Y0.73600
X2.42900 Y0.73800
X2.42900 Y0.75400
X2.43100 Y0.75600
X2.43200 Y0.76300
X2.43800 Y0.76800
X2.44100 Y0.77700
X2.47700 Y0.77800
X2.48000 Y0.77700
X2.48100 Y0.77300
G04 P0 ( dwell for no time -- G64 should not smooth over this point )
G00 Z0.19685 ( retract )

G00 X2.57800 Y0.80600 ( rapid move to begin. )
F0.98425
G01 Z-0.01969
G04 P0 ( dwell for no time -- G64 should not smooth over this point )
F1.96850
X2.57800 Y0.80600
X2.62700 Y0.75800
X2.63000 Y0.73400
X2.63400 Y0.72700
X2.63600 Y0.72600
X2.63600 Y0.72400
X2.63900 Y0.72100
X2.64100 Y0.72100
X2.64300 Y0.71700
X2.64300 Y0.71200
X2.57900 Y0.71200
X2.57800 Y0.71500
X2.58100 Y0.72100
X2.58800 Y0.72700
X2.58900 Y0.73100
X2.59100 Y0.73200
X2.59300 Y0.74200
X2.59100 Y0.76100
X2.58200 Y0.77200
X2.57600 Y0.77400
X2.57100 Y0.77800
X2.54800 Y0.77900
X2.52500 Y0.80200
X2.52300 Y0.81100
X2.57300 Y0.81100
X2.57800 Y0.80600
G04 P0 ( dwell for no time -- G64 should not smooth over this point )
G00 Z0.19685 ( retract )

G00 X2.50900 Y0.91300 ( rapid move to begin. )
F0.98425
G01 Z-0.01969
G04 P0 ( dwell for no time -- G64 should not smooth over this point )
F1.96850
X2.50900 Y0.91300
X2.51000 Y0.86100
X2.50800 Y0.85300
X2.50600 Y0.85300
X2.50200 Y0.84800
X2.44900 Y0.84800
X2.44500 Y0.85300
X2.44200 Y0.85400
X2.44000 Y0.86300
X2.44000 Y0.91000
X2.44300 Y0.91900
X2.45000 Y0.92100
X2.50100 Y0.92100
X2.50400 Y0.91900
X2.50800 Y0.91900
X2.50900 Y0.91300
G04 P0 ( dwell for no time -- G64 should not smooth over this point )
G00 Z0.19685 ( retract )

G00 X2.43500 Y0.67300 ( rapid move to begin. )
F0.98425
G01 Z-0.01969
G04 P0 ( dwell for no time -- G64 should not smooth over this point )
F1.96850
X2.43500 Y0.67300
X2.44400 Y0.66400
X2.44800 Y0.64900
X2.44600 Y0.63400
X2.44100 Y0.62400
X2.43000 Y0.61400
X2.41300 Y0.60900
X2.39800 Y0.61100
X2.38800 Y0.61600
X2.37900 Y0.62700
X2.37400 Y0.63800
X2.37400 Y0.65500
X2.37900 Y0.66600
X2.39000 Y0.67700
X2.40300 Y0.68300
X2.42300 Y0.68200
X2.42400 Y0.68000
X2.43300 Y0.67600
X2.43500 Y0.67300
G04 P0 ( dwell for no time -- G64 should not smooth over this point )
G00 Z0.19685 ( retract )

G00 X2.62900 Y0.67300 ( rapid move to begin. )
F0.98425
G01 Z-0.01969
G04 P0 ( dwell for no time -- G64 should not smooth over this point )
F1.96850
X2.62900 Y0.67300
X2.63700 Y0.66600
X2.64200 Y0.65400
X2.64200 Y0.63800
X2.63500 Y0.62400
X2.63200 Y0.62100
X2.62600 Y0.61900
X2.62500 Y0.61700
X2.61900 Y0.61500
X2.60200 Y0.61500
X2.58900 Y0.62100
X2.58800 Y0.62400
X2.58200 Y0.63000
X2.58100 Y0.63600
X2.57900 Y0.63800
X2.57900 Y0.65400
X2.58100 Y0.65600
X2.58200 Y0.66300
X2.59100 Y0.67100
X2.59400 Y0.67900
X2.62300 Y0.68000
X2.62700 Y0.67900
X2.62900 Y0.67300
G04 P0 ( dwell for no time -- G64 should not smooth over this point )
G00 Z0.19685 ( retract )

G00 X2.84900 Y0.47000 ( rapid move to begin. )
F0.98425
G01 Z-0.01969
G04 P0 ( dwell for no time -- G64 should not smooth over this point )
F1.96850
X2.84900 Y0.47000
X2.86100 Y0.46400
X2.87400 Y0.45100
X2.87400 Y0.44900
X2.87800 Y0.44600
X2.88100 Y0.43900
X2.88500 Y0.43500
X2.89100 Y0.42000
X2.89400 Y0.40200
X2.89400 Y0.39100
X2.89100 Y0.37300
X2.88400 Y0.35600
X2.87900 Y0.35000
X2.87800 Y0.34600
X2.87400 Y0.34300
X2.87400 Y0.34100
X2.86100 Y0.32900
X2.85700 Y0.32800
X2.85600 Y0.32600
X2.85200 Y0.32500
X2.84700 Y0.32100
X2.84400 Y0.32100
X2.83400 Y0.31600
X2.81700 Y0.31300
X2.80400 Y0.31300
X2.78700 Y0.31600
X2.77200 Y0.32200
X2.77100 Y0.32400
X2.76100 Y0.32900
X2.75800 Y0.33300
X2.75600 Y0.33300
X2.74300 Y0.34600
X2.74200 Y0.35000
X2.74000 Y0.35100
X2.73900 Y0.35500
X2.73500 Y0.36000
X2.73500 Y0.36300
X2.73000 Y0.37300
X2.72700 Y0.39000
X2.72700 Y0.40300
X2.73000 Y0.42000
X2.73600 Y0.43500
X2.73800 Y0.43600
X2.74300 Y0.44600
X2.76100 Y0.46400
X2.76800 Y0.46700
X2.77200 Y0.47100
X2.78700 Y0.47700
X2.80500 Y0.48000
X2.82500 Y0.47900
X2.84000 Y0.47500
X2.84900 Y0.47000
G04 P0 ( dwell for no time -- G64 should not smooth over this point )
G00 Z0.19685 ( retract )

G00 X2.92400 Y0.31700 ( rapid move to begin. )
F0.98425
G01 Z-0.01969
G04 P0 ( dwell for no time -- G64 should not smooth over this point )
F1.96850
X2.92400 Y0.31700
X2.92600 Y0.31700
X2.93400 Y0.30900
X2.93800 Y0.30200
X2.94100 Y0.30000
X2.94600 Y0.28600
X2.94600 Y0.26700
X2.94200 Y0.25400
X2.93600 Y0.24700
X2.93600 Y0.24500
X2.92600 Y0.23500
X2.92200 Y0.23400
X2.92100 Y0.23200
X2.90900 Y0.22700
X2.89900 Y0.22500
X2.88200 Y0.22700
X2.87100 Y0.23100
X2.87000 Y0.23300
X2.86200 Y0.23700
X2.85100 Y0.25000
X2.84400 Y0.27300
X2.84600 Y0.29000
X2.85400 Y0.30700
X2.86100 Y0.31400
X2.86700 Y0.31700
X2.87100 Y0.32200
X2.88600 Y0.32700
X2.90900 Y0.32600
X2.91900 Y0.32200
X2.92400 Y0.31700
G04 P0 ( dwell for no time -- G64 should not smooth over this point )
G00 Z0.19685 ( retract )

G00 X3.16000 Y0.75200 ( rapid move to begin. )
F0.98425
G01 Z-0.01969
G04 P0 ( dwell for no time -- G64 should not smooth over this point )
F1.96850
X3.16000 Y0.75200
X3.16100 Y0.68300
X3.15900 Y0.67900
X3.15900 Y0.67400
X3.14900 Y0.67100
X3.08100 Y0.67100
X3.07700 Y0.67300
X3.07200 Y0.67300
X3.06900 Y0.67600
X3.06900 Y0.75600
X3.07200 Y0.75900
X3.08200 Y0.76200
X3.14900 Y0.76200
X3.15700 Y0.76000
X3.15900 Y0.75800
X3.16000 Y0.75200
G04 P0 ( dwell for no time -- G64 should not smooth over this point )
G00 Z0.19685 ( retract )

G00 X2.90600 Y0.85700 ( rapid move to begin. )
F0.98425
G01 Z-0.01969
G04 P0 ( dwell for no time -- G64 should not smooth over this point )
F1.96850
X2.90600 Y0.85700
X2.90500 Y0.75700
X2.81100 Y0.66300
X2.74000 Y0.66200
X2.73200 Y0.67200
X2.72600 Y0.67400
X2.72100 Y0.67800
X2.69900 Y0.67900
X2.67000 Y0.70800
X2.66800 Y0.71400
X2.68000 Y0.71900
X2.68800 Y0.72700
X2.69000 Y0.73100
X2.73100 Y0.73100
X2.73900 Y0.72100
X2.74600 Y0.71600
X2.76500 Y0.71400
X2.77700 Y0.71700
X2.78800 Y0.72700
X2.78900 Y0.73100
X2.79100 Y0.73200
X2.79400 Y0.75900
X2.83600 Y0.80100
X2.83800 Y0.80100
X2.89700 Y0.86100
X2.90600 Y0.86200
X2.90600 Y0.85700
G04 P0 ( dwell for no time -- G64 should not smooth over this point )
G00 Z0.19685 ( retract )

G00 X3.05700 Y1.42600 ( rapid move to begin. )
F0.98425
G01 Z-0.01969
G04 P0 ( dwell for no time -- G64 should not smooth over this point )
F1.96850
X3.05700 Y1.42600
X3.05700 Y1.42200
X3.05500 Y1.42100
X3.05500 Y1.07100
X3.05400 Y1.06800
X2.97800 Y0.99300
X2.97800 Y0.99100
X2.97400 Y0.98700
X2.97000 Y0.97200
X2.97000 Y0.43200
X2.96800 Y0.42500
X2.96800 Y0.40700
X2.97000 Y0.40000
X2.97000 Y0.26600
X2.96900 Y0.26300
X2.87300 Y0.16700
X2.86600 Y0.16200
X2.19100 Y0.16200
X2.18100 Y0.16100
X2.17000 Y0.15700
X2.16700 Y0.15400
X2.16300 Y0.15300
X2.15300 Y0.14300
X2.14700 Y0.13100
X2.14700 Y0.12600
X2.14500 Y0.12200
X2.14500 Y0.11200
X1.97500 Y0.11200
X1.97500 Y0.12100
X1.97200 Y0.13000
X1.96900 Y0.13300
X1.96800 Y0.13700
X1.96500 Y0.13900
X1.96500 Y0.14100
X1.82000 Y0.28600
X1.81800 Y0.28600
X1.81100 Y0.29200
X1.80500 Y0.29300
X1.80000 Y0.29600
X1.74000 Y0.29700
X1.73500 Y0.30900
X1.73300 Y0.31000
X1.72600 Y0.32400
X1.70700 Y0.34500
X1.70100 Y0.34800
X1.69800 Y0.35200
X1.68400 Y0.35900
X1.68300 Y0.36100
X1.67600 Y0.36300
X1.67200 Y0.36600
X1.66900 Y0.36600
X1.66700 Y0.36800
X1.65400 Y0.37200
X1.63100 Y0.37500
X1.60900 Y0.37400
X1.60500 Y0.37200
X1.59700 Y0.37300
X1.51300 Y0.45800
X1.51100 Y0.45800
X1.47200 Y0.49700
X1.46500 Y0.51800
X1.46500 Y0.62300
X1.47100 Y0.64100
X1.49100 Y0.66100
X1.49400 Y0.66200
X1.58800 Y0.66200
X1.59100 Y0.65900
X1.59100 Y0.65700
X1.58700 Y0.65100
X1.57000 Y0.64500
X1.56300 Y0.63900
X1.55500 Y0.63600
X1.54500 Y0.62600
X1.53800 Y0.62200
X1.53400 Y0.61500
X1.52400 Y0.60500
X1.52200 Y0.59900
X1.52000 Y0.59800
X1.51900 Y0.59400
X1.51400 Y0.58800
X1.51300 Y0.58200
X1.51100 Y0.58000
X1.50700 Y0.56800
X1.50300 Y0.54500
X1.50400 Y0.51400
X1.51300 Y0.48400
X1.51700 Y0.47900
X1.51900 Y0.47300
X1.52100 Y0.47200
X1.52400 Y0.46400
X1.53400 Y0.45400
X1.53800 Y0.44700
X1.54500 Y0.44300
X1.55500 Y0.43300
X1.57400 Y0.42400
X1.57500 Y0.42200
X1.59600 Y0.41500
X1.61500 Y0.41200
X1.64600 Y0.41300
X1.67600 Y0.42200
X1.67700 Y0.42400
X1.69600 Y0.43300
X1.70600 Y0.44300
X1.71300 Y0.44700
X1.71700 Y0.45400
X1.72700 Y0.46400
X1.73600 Y0.48300
X1.73800 Y0.48400
X1.74100 Y0.49600
X1.74400 Y0.50100
X1.74800 Y0.52400
X1.74800 Y0.54500
X1.74600 Y0.56000
X1.74200 Y0.57400
X1.74000 Y0.57600
X1.73800 Y0.58500
X1.73600 Y0.58600
X1.72700 Y0.60500
X1.71700 Y0.61500
X1.71300 Y0.62200
X1.70600 Y0.62600
X1.69600 Y0.63600
X1.68800 Y0.63900
X1.68700 Y0.64100
X1.68100 Y0.64300
X1.67600 Y0.64700
X1.66300 Y0.65100
X1.65900 Y0.65900
X1.66200 Y0.66200
X1.80800 Y0.66200
X1.81300 Y0.65600
X1.81300 Y0.65400
X1.81600 Y0.65200
X1.81600 Y0.65000
X1.82000 Y0.64900
X1.82100 Y0.64700
X1.83100 Y0.64400
X1.83300 Y0.64200
X1.84700 Y0.64200
X1.84900 Y0.64400
X1.85600 Y0.64500
X1.86300 Y0.64900
X1.87200 Y0.66100
X1.87200 Y0.66500
X1.87500 Y0.67100
X1.87500 Y0.68100
X1.87200 Y0.68800
X1.87200 Y0.69200
X1.87000 Y0.69300
X1.86900 Y0.69700
X1.85600 Y0.70800
X1.84500 Y0.71100
X1.83500 Y0.71100
X1.82500 Y0.70800
X1.82200 Y0.70500
X1.81800 Y0.70400
X1.80800 Y0.69100
X1.48300 Y0.69100
X1.46700 Y0.68700
X1.46500 Y0.68900
X1.46500 Y0.72700
X1.47000 Y0.73200
X1.92400 Y0.73200
X1.93100 Y0.73500
X1.98200 Y0.78700
X2.00200 Y0.78700
X2.01500 Y0.79200
X2.02300 Y0.79900
X2.02700 Y0.80600
X2.02700 Y0.81000
X2.03000 Y0.81600
X2.03000 Y0.82600
X2.02700 Y0.83300
X2.02700 Y0.83700
X2.02500 Y0.83800
X2.02400 Y0.84200
X2.01100 Y0.85300
X2.00000 Y0.85600
X1.98600 Y0.85500
X1.97300 Y0.84900
X1.96400 Y0.83800
X1.96400 Y0.83400
X1.96100 Y0.82800
X1.96100 Y0.80800
X1.93900 Y0.78700
X1.93900 Y0.78400
X1.93000 Y0.78200
X1.92700 Y0.77200
X1.92300 Y0.77100
X1.91500 Y0.76200
X1.91200 Y0.76100
X1.47000 Y0.76100
X1.46500 Y0.76600
X1.46500 Y0.88100
X1.45500 Y0.88100
X1.45300 Y0.88400
X1.25800 Y0.88400
X1.26100 Y0.89600
X1.41500 Y1.05000
X1.41600 Y1.14400
X1.44100 Y1.16900
X1.44100 Y1.17100
X1.45000 Y1.18000
X1.85200 Y1.18100
X1.85400 Y1.17900
X1.85400 Y1.13600
X1.85900 Y1.12900
X1.86500 Y1.12700
X1.94500 Y1.12700
X1.95100 Y1.12900
X1.95500 Y1.13300
X1.95700 Y1.13900
X1.95800 Y1.18100
X2.09700 Y1.18100
X2.09700 Y1.12600
X2.09800 Y1.12000
X2.10400 Y1.11900
X2.10500 Y1.11600
X2.10300 Y1.11000
X2.06500 Y1.07300
X2.06500 Y1.07100
X2.06100 Y1.06800
X2.06000 Y1.06200
X2.05900 Y0.80600
X1.89500 Y0.64300
X1.89500 Y0.64100
X1.89100 Y0.63800
X1.89000 Y0.63200
X1.89100 Y0.39500
X1.89300 Y0.39400
X1.89500 Y0.38900
X1.95600 Y0.32800
X1.95500 Y0.32200
X1.94900 Y0.31500
X1.94000 Y0.29700
X1.94000 Y0.29300
X1.93500 Y0.28000
X1.93500 Y0.27300
X1.93200 Y0.26200
X1.93300 Y0.23400
X1.94200 Y0.20000
X1.94400 Y0.19900
X1.94800 Y0.18900
X1.95000 Y0.18800
X1.95500 Y0.17800
X1.96100 Y0.17300
X1.96100 Y0.17100
X1.96400 Y0.16800
X1.98200 Y0.15100
X1.99200 Y0.14600
X1.99300 Y0.14400
X2.00300 Y0.14000
X2.00400 Y0.13800
X2.02700 Y0.13100
X2.03400 Y0.13100
X2.04500 Y0.12800
X2.06600 Y0.12800
X2.08800 Y0.13200
X2.11400 Y0.14200
X2.11500 Y0.14400
X2.11900 Y0.14500
X2.12600 Y0.15100
X2.12800 Y0.15100
X2.13700 Y0.16000
X2.13900 Y0.16000
X2.15600 Y0.17800
X2.15700 Y0.18200
X2.16200 Y0.18800
X2.16300 Y0.19200
X2.16500 Y0.19300
X2.16700 Y0.20000
X2.17000 Y0.20400
X2.17800 Y0.23400
X2.17900 Y0.25700
X2.17600 Y0.28000
X2.17200 Y0.29300
X2.16400 Y0.31000
X2.16500 Y0.31500
X2.27600 Y0.42600
X2.28600 Y0.42800
X2.28200 Y0.40400
X2.28200 Y0.38900
X2.28400 Y0.37700
X2.28800 Y0.36900
X2.28900 Y0.36300
X2.29200 Y0.36000
X2.29500 Y0.35200
X2.30300 Y0.34400
X2.30300 Y0.34200
X2.31600 Y0.33100
X2.32600 Y0.32700
X2.32700 Y0.32500
X2.33300 Y0.32400
X2.34100 Y0.32000
X2.35300 Y0.31800
X2.36800 Y0.31800
X2.38000 Y0.32000
X2.38800 Y0.32400
X2.39400 Y0.32500
X2.39500 Y0.32700
X2.40500 Y0.33100
X2.41800 Y0.34200
X2.41800 Y0.34400
X2.42600 Y0.35200
X2.43000 Y0.36200
X2.43200 Y0.36300
X2.43300 Y0.36900
X2.43700 Y0.37700
X2.43900 Y0.38900
X2.43900 Y0.40400
X2.43700 Y0.41600
X2.43300 Y0.42400
X2.43200 Y0.43000
X2.43000 Y0.43100
X2.42600 Y0.44100
X2.41500 Y0.45400
X2.41300 Y0.45400
X2.40500 Y0.46200
X2.39500 Y0.46600
X2.39400 Y0.46800
X2.38800 Y0.46900
X2.38000 Y0.47300
X2.36800 Y0.47500
X2.35300 Y0.47500
X2.32900 Y0.47100
X2.33100 Y0.48100
X2.33800 Y0.48600
X2.36600 Y0.48600
X2.37500 Y0.48900
X2.49800 Y0.61300
X2.52100 Y0.61500
X2.53000 Y0.61900
X2.54100 Y0.63200
X2.54400 Y0.65800
X2.56200 Y0.67500
X2.56200 Y0.67700
X2.56500 Y0.68000
X2.59400 Y0.68000
X2.59100 Y0.67100
X2.58200 Y0.66300
X2.58100 Y0.65600
X2.57900 Y0.65400
X2.57900 Y0.63800
X2.58100 Y0.63600
X2.58200 Y0.63000
X2.58800 Y0.62400
X2.58800 Y0.62200
X2.60200 Y0.61500
X2.61900 Y0.61500
X2.62500 Y0.61700
X2.62600 Y0.61900
X2.63200 Y0.62100
X2.63500 Y0.62400
X2.64100 Y0.63500
X2.64200 Y0.65400
X2.63700 Y0.66600
X2.62900 Y0.67300
X2.62700 Y0.67700
X2.62800 Y0.68100
X2.65500 Y0.68000
X2.67700 Y0.65800
X2.68000 Y0.63400
X2.68600 Y0.62600
X2.68600 Y0.62400
X2.69600 Y0.61600
X2.70600 Y0.61400
X2.72500 Y0.61600
X2.73200 Y0.62100
X2.74000 Y0.63100
X2.82200 Y0.63200
X2.93400 Y0.74300
X2.93400 Y0.74500
X2.93600 Y0.74600
X2.93700 Y0.75300
X2.93700 Y0.89400
X2.93400 Y0.90000
X2.90600 Y0.90000
X2.90600 Y0.93900
X2.90700 Y0.94200
X3.01500 Y1.05000
X3.01600 Y1.41100
X3.02100 Y1.41200
X3.02400 Y1.41500
X3.03500 Y1.42000
X3.04300 Y1.42800
X3.04400 Y1.43200
X3.04700 Y1.43200
X3.04900 Y1.43400
X3.05500 Y1.43200
X3.05700 Y1.43000
X3.05700 Y1.42600
G04 P0 ( dwell for no time -- G64 should not smooth over this point )
G00 Z0.19685 ( retract )

G00 X3.02600 Y1.50600 ( rapid move to begin. )
F0.98425
G01 Z-0.01969
G04 P0 ( dwell for no time -- G64 should not smooth over this point )
F1.96850
X3.02600 Y1.50600
X3.03400 Y1.50200
X3.04200 Y1.49400
X3.04400 Y1.48900
X3.05100 Y1.48700
X3.05100 Y1.43400
X3.04400 Y1.43200
X3.04300 Y1.42800
X3.03200 Y1.41800
X3.02400 Y1.41500
X3.02100 Y1.41200
X3.01600 Y1.41100
X3.01500 Y1.05000
X2.90700 Y0.94200
X2.90600 Y0.86200
X2.89700 Y0.86100
X2.83800 Y0.80100
X2.83600 Y0.80100
X2.79400 Y0.75900
X2.79300 Y0.74200
X2.79100 Y0.73200
X2.78900 Y0.73100
X2.78800 Y0.72700
X2.77500 Y0.71600
X2.75600 Y0.71400
X2.74600 Y0.71600
X2.74300 Y0.71900
X2.74100 Y0.71900
X2.73100 Y0.73100
X2.69000 Y0.73100
X2.68800 Y0.72700
X2.68000 Y0.71900
X2.67800 Y0.71900
X2.67500 Y0.71600
X2.67100 Y0.71600
X2.66800 Y0.71300
X2.64300 Y0.71400
X2.64100 Y0.72100
X2.63900 Y0.72100
X2.63600 Y0.72400
X2.63600 Y0.72600
X2.63400 Y0.72700
X2.63000 Y0.73400
X2.62700 Y0.75800
X2.57300 Y0.81100
X2.33700 Y0.81000
X2.33400 Y0.81800
X2.25300 Y0.89900
X2.21100 Y0.90000
X2.21100 Y0.80600
X2.21400 Y0.80400
X2.21400 Y0.77800
X2.21100 Y0.77600
X2.21000 Y0.66800
X2.15600 Y0.61400
X2.15500 Y0.61100
X2.15700 Y0.60400
X2.15900 Y0.60300
X2.16300 Y0.59400
X2.16500 Y0.59300
X2.16700 Y0.58600
X2.17000 Y0.58200
X2.17600 Y0.56300
X2.17900 Y0.54000
X2.17800 Y0.51700
X2.17600 Y0.51300
X2.17600 Y0.50600
X2.16500 Y0.47700
X2.16300 Y0.47600
X2.15600 Y0.46200
X2.14700 Y0.45300
X2.14700 Y0.45100
X2.12800 Y0.43400
X2.12400 Y0.43300
X2.12300 Y0.43100
X2.11900 Y0.43000
X2.11800 Y0.42800
X2.11400 Y0.42700
X2.10900 Y0.42300
X2.10600 Y0.42300
X2.10200 Y0.42000
X2.08400 Y0.41400
X2.06100 Y0.41100
X2.03800 Y0.41200
X2.03400 Y0.41400
X2.02700 Y0.41400
X2.00100 Y0.42300
X1.99600 Y0.42700
X1.99200 Y0.42800
X1.99100 Y0.43000
X1.98700 Y0.43100
X1.98600 Y0.43300
X1.98200 Y0.43400
X1.97700 Y0.44000
X1.97500 Y0.44000
X1.95900 Y0.45700
X1.95900 Y0.45900
X1.95500 Y0.46200
X1.95500 Y0.46400
X1.94900 Y0.47100
X1.94800 Y0.47500
X1.94600 Y0.47600
X1.94100 Y0.48600
X1.94000 Y0.49300
X1.93600 Y0.50200
X1.93200 Y0.52400
X1.93200 Y0.54500
X1.93600 Y0.56700
X1.94000 Y0.57600
X1.94200 Y0.58600
X1.94400 Y0.58700
X1.94800 Y0.59700
X1.95000 Y0.59800
X1.95500 Y0.60800
X1.97400 Y0.62800
X1.97600 Y0.62800
X1.98200 Y0.63500
X1.99200 Y0.64000
X1.99300 Y0.64200
X2.01000 Y0.65000
X2.03800 Y0.65700
X2.06600 Y0.65800
X2.07700 Y0.65500
X2.08400 Y0.65500
X2.10600 Y0.64800
X2.11700 Y0.64200
X2.11800 Y0.64000
X2.12200 Y0.63900
X2.12600 Y0.63500
X2.13200 Y0.63400
X2.13600 Y0.63600
X2.17900 Y0.67900
X2.18000 Y0.68200
X2.18000 Y0.90000
X2.10500 Y0.90000
X2.09800 Y0.90100
X2.09400 Y0.90500
X2.09400 Y1.04900
X2.09600 Y1.05500
X2.29100 Y1.05400
X2.29200 Y0.90500
X2.29400 Y0.90000
X2.35300 Y0.84200
X2.44400 Y0.84100
X2.44900 Y0.84700
X2.50200 Y0.84700
X2.50700 Y0.84100
X2.58300 Y0.84100
X2.58900 Y0.83900
X2.64800 Y0.77900
X2.66900 Y0.77800
X2.67000 Y0.77600
X2.67500 Y0.77600
X2.67600 Y0.77400
X2.68000 Y0.77300
X2.69000 Y0.76100
X2.73100 Y0.76100
X2.74600 Y0.77600
X2.75100 Y0.77600
X2.75300 Y0.77800
X2.77200 Y0.77800
X2.87500 Y0.88100
X2.87600 Y0.95000
X2.88000 Y0.95800
X2.91800 Y0.99600
X2.92000 Y0.99600
X2.98500 Y1.06200
X2.98600 Y1.41000
X2.98300 Y1.41300
X2.97700 Y1.41400
X2.96900 Y1.41800
X2.96500 Y1.42200
X2.95500 Y1.42500
X2.95100 Y1.44400
X2.95100 Y1.47900
X2.95400 Y1.49700
X2.96600 Y1.50000
X2.97700 Y1.50900
X2.98500 Y1.51000
X2.99100 Y1.51300
X3.01000 Y1.51300
X3.01500 Y1.51000
X3.02100 Y1.51000
X3.02600 Y1.50600
G04 P0 ( dwell for no time -- G64 should not smooth over this point )
G00 Z0.19685 ( retract )

G00 X2.95200 Y1.50600 ( rapid move to begin. )
F0.98425
G01 Z-0.01969
G04 P0 ( dwell for no time -- G64 should not smooth over this point )
F1.96850
X2.95200 Y1.50600
X2.95400 Y1.49200
X2.95100 Y1.47900
X2.95100 Y1.44400
X2.95500 Y1.42500
X2.95300 Y1.42400
X2.95100 Y1.41100
X2.94400 Y1.40900
X2.91700 Y1.40900
X2.91500 Y1.40700
X2.91500 Y1.10900
X2.91300 Y1.10300
X2.71100 Y0.90100
X2.70900 Y0.89500
X2.70900 Y0.87800
X2.70700 Y0.87500
X2.70700 Y0.87100
X2.69700 Y0.85800
X2.69300 Y0.85700
X2.69200 Y0.85500
X2.68700 Y0.85500
X2.68500 Y0.85300
X2.67800 Y0.85200
X2.67100 Y0.85200
X2.65900 Y0.85500
X2.64700 Y0.86500
X2.64200 Y0.87600
X2.64100 Y0.88900
X2.64500 Y0.90500
X2.65900 Y0.91800
X2.66400 Y0.91800
X2.66700 Y0.92000
X2.68400 Y0.92000
X2.69000 Y0.92200
X2.80300 Y1.03600
X2.80500 Y1.03600
X2.88400 Y1.11500
X2.88600 Y1.12000
X2.88600 Y1.40700
X2.88400 Y1.40900
X2.85700 Y1.40900
X2.85000 Y1.41100
X2.84800 Y1.41800
X2.84800 Y1.44000
X2.84600 Y1.44200
X2.81500 Y1.44200
X2.81400 Y1.43900
X2.81100 Y1.43800
X2.78600 Y1.43800
X2.78500 Y1.47300
X2.79100 Y1.47500
X2.80900 Y1.47500
X2.81400 Y1.47400
X2.81500 Y1.47100
X2.84600 Y1.47100
X2.84800 Y1.47300
X2.84800 Y1.50500
X2.85100 Y1.51200
X2.85900 Y1.51400
X2.94100 Y1.51400
X2.95000 Y1.51200
X2.95200 Y1.50600
G04 P0 ( dwell for no time -- G64 should not smooth over this point )
G00 Z0.19685 ( retract )

G00 X3.12600 Y1.50600 ( rapid move to begin. )
F0.98425
G01 Z-0.01969
G04 P0 ( dwell for no time -- G64 should not smooth over this point )
F1.96850
X3.12600 Y1.50600
X3.13400 Y1.50200
X3.14200 Y1.49400
X3.14300 Y1.49000
X3.14500 Y1.48900
X3.14600 Y1.48500
X3.14900 Y1.48200
X3.15000 Y1.47400
X3.15200 Y1.47100
X3.15200 Y1.45100
X3.15000 Y1.44800
X3.14800 Y1.43800
X3.14500 Y1.43400
X3.14500 Y1.04600
X3.14100 Y1.03200
X3.13800 Y1.02600
X3.13500 Y1.02400
X3.13500 Y1.02200
X3.06100 Y0.94900
X3.06000 Y0.94600
X3.06000 Y0.76100
X3.06600 Y0.75600
X3.06600 Y0.67600
X3.06000 Y0.67100
X3.06000 Y0.43500
X3.06300 Y0.41900
X3.06200 Y0.40400
X3.06000 Y0.39800
X3.05900 Y0.23300
X3.06100 Y0.23200
X3.06100 Y0.23000
X3.05400 Y0.22700
X3.05400 Y0.22300
X3.05000 Y0.21900
X3.05000 Y0.21700
X2.91500 Y0.08200
X2.90500 Y0.07700
X2.90100 Y0.06800
X2.17400 Y0.06800
X2.17100 Y0.07500
X2.16200 Y0.08100
X1.96500 Y0.08100
X1.95800 Y0.07600
X1.95500 Y0.06800
X1.90600 Y0.06800
X1.90300 Y0.07600
X1.89700 Y0.07900
X1.89700 Y0.08100
X1.77100 Y0.20600
X1.74000 Y0.20600
X1.73500 Y0.19300
X1.73000 Y0.18700
X1.72600 Y0.17800
X1.71900 Y0.17200
X1.71900 Y0.17000
X1.69800 Y0.15100
X1.69600 Y0.15100
X1.68900 Y0.14500
X1.68500 Y0.14400
X1.68400 Y0.14200
X1.67600 Y0.13800
X1.65800 Y0.13200
X1.63600 Y0.12800
X1.61500 Y0.12800
X1.59300 Y0.13200
X1.58400 Y0.13600
X1.57400 Y0.13800
X1.57300 Y0.14000
X1.56300 Y0.14400
X1.56200 Y0.14600
X1.55200 Y0.15100
X1.52500 Y0.17800
X1.52000 Y0.18800
X1.51800 Y0.18900
X1.51400 Y0.19900
X1.51200 Y0.20000
X1.50300 Y0.23400
X1.50200 Y0.26200
X1.50500 Y0.27300
X1.50500 Y0.28000
X1.51000 Y0.29300
X1.51000 Y0.29700
X1.51800 Y0.31400
X1.52100 Y0.31700
X1.52000 Y0.32300
X1.48000 Y0.36300
X1.47100 Y0.36600
X1.46700 Y0.36600
X1.46600 Y0.36400
X1.46400 Y0.36400
X1.45500 Y0.37300
X1.44900 Y0.39400
X1.40400 Y0.43900
X1.39500 Y0.44100
X1.39100 Y0.44500
X1.38900 Y0.45400
X1.38300 Y0.46000
X1.37400 Y0.46200
X1.37200 Y0.46500
X1.37000 Y0.46500
X1.36800 Y0.47500
X1.36200 Y0.48100
X1.35500 Y0.48400
X1.33500 Y0.48400
X1.33200 Y0.48000
X1.31900 Y0.48000
X1.31600 Y0.48400
X1.26300 Y0.48400
X1.26000 Y0.48300
X1.24200 Y0.46400
X1.24000 Y0.46400
X1.23400 Y0.45900
X1.22100 Y0.45600
X1.12000 Y0.45600
X1.10700 Y0.45900
X1.10200 Y0.46300
X1.09800 Y0.46400
X0.99600 Y0.56600
X0.98800 Y0.57400
X0.98800 Y0.57600
X0.98500 Y0.57800
X0.98400 Y0.58200
X0.98100 Y0.58500
X0.97800 Y0.59400
X0.97800 Y0.61300
X0.98000 Y0.62000
X0.98300 Y0.62600
X0.98500 Y0.62700
X0.98600 Y0.63100
X0.99200 Y0.63600
X0.99300 Y0.65100
X0.99600 Y0.66300
X1.00100 Y0.66700
X1.00100 Y0.66900
X1.00400 Y0.67200
X1.00600 Y0.67200
X1.00900 Y0.68000
X1.04200 Y0.68000
X1.04400 Y0.67300
X1.05000 Y0.66900
X1.05000 Y0.66700
X1.05200 Y0.66600
X1.05600 Y0.65900
X1.05800 Y0.65000
X1.05700 Y0.64400
X1.05800 Y0.63500
X1.14500 Y0.54800
X1.14800 Y0.54700
X1.18200 Y0.54700
X1.18400 Y0.55000
X1.18600 Y0.55000
X1.18800 Y0.54700
X1.19900 Y0.54800
X1.20100 Y0.55700
X1.20700 Y0.56000
X1.22200 Y0.57500
X1.39600 Y0.57500
X1.39900 Y0.56700
X1.40500 Y0.56400
X1.41100 Y0.55700
X1.41500 Y0.55600
X1.42100 Y0.55000
X1.42100 Y0.54800
X1.44100 Y0.52800
X1.45000 Y0.52500
X1.45400 Y0.52500
X1.45500 Y0.52700
X1.45700 Y0.52700
X1.46600 Y0.51800
X1.47200 Y0.49700
X1.51100 Y0.45800
X1.51300 Y0.45800
X1.59700 Y0.37300
X1.60500 Y0.37200
X1.60900 Y0.37400
X1.63100 Y0.37500
X1.65400 Y0.37200
X1.66700 Y0.36800
X1.66900 Y0.36600
X1.67200 Y0.36600
X1.67600 Y0.36300
X1.68300 Y0.36100
X1.68400 Y0.35900
X1.69800 Y0.35200
X1.70100 Y0.34800
X1.70700 Y0.34500
X1.72600 Y0.32400
X1.73000 Y0.31500
X1.73500 Y0.30900
X1.74000 Y0.29700
X1.80000 Y0.29600
X1.80500 Y0.29300
X1.81100 Y0.29200
X1.81800 Y0.28600
X1.82000 Y0.28600
X1.96500 Y0.14100
X1.96500 Y0.13900
X1.96800 Y0.13700
X1.96900 Y0.13300
X1.97200 Y0.13000
X1.97500 Y0.12100
X1.97500 Y0.11200
X2.14500 Y0.11200
X2.14500 Y0.12200
X2.14700 Y0.12600
X2.14700 Y0.13100
X2.15300 Y0.14300
X2.16300 Y0.15300
X2.16700 Y0.15400
X2.17000 Y0.15700
X2.18100 Y0.16100
X2.19100 Y0.16200
X2.86900 Y0.16300
X2.96900 Y0.26300
X2.97000 Y0.26600
X2.97000 Y0.40000
X2.96800 Y0.40700
X2.96800 Y0.42500
X2.97000 Y0.43200
X2.97000 Y0.97200
X2.97400 Y0.98700
X2.97800 Y0.99100
X2.97800 Y0.99300
X3.05400 Y1.06800
X3.05500 Y1.07100
X3.05500 Y1.42100
X3.05700 Y1.42200
X3.05700 Y1.43000
X3.05100 Y1.43400
X3.05100 Y1.48700
X3.05500 Y1.48800
X3.05700 Y1.49200
X3.06900 Y1.50400
X3.07600 Y1.50700
X3.07700 Y1.50900
X3.08500 Y1.51000
X3.08700 Y1.51200
X3.11000 Y1.51300
X3.11500 Y1.51000
X3.12100 Y1.51000
X3.12600 Y1.50600
G04 P0 ( dwell for no time -- G64 should not smooth over this point )
G00 Z0.19685 ( retract )

G00 X3.18400 Y1.57600 ( rapid move to begin. )
F0.98425
G01 Z-0.01969
G04 P0 ( dwell for no time -- G64 should not smooth over this point )
F1.96850
X3.18400 Y1.57600
X3.18400 Y0.07100
X3.18100 Y0.06800
X2.90100 Y0.06800
X2.90500 Y0.07700
X2.91500 Y0.08200
X3.05000 Y0.21700
X3.05000 Y0.21900
X3.05400 Y0.22300
X3.05400 Y0.22700
X3.06100 Y0.23000
X3.06100 Y0.23200
X3.05900 Y0.23300
X3.06000 Y0.39800
X3.06200 Y0.40400
X3.06300 Y0.41900
X3.06000 Y0.43500
X3.06000 Y0.67100
X3.06500 Y0.67600
X3.07000 Y0.67600
X3.07200 Y0.67300
X3.07700 Y0.67300
X3.08100 Y0.67100
X3.14900 Y0.67100
X3.15900 Y0.67400
X3.15900 Y0.67900
X3.16100 Y0.68300
X3.16100 Y0.75000
X3.15900 Y0.75800
X3.15700 Y0.76000
X3.14900 Y0.76200
X3.08200 Y0.76200
X3.07400 Y0.76000
X3.07000 Y0.75600
X3.06500 Y0.75600
X3.06000 Y0.76100
X3.06000 Y0.94600
X3.06100 Y0.94900
X3.13500 Y1.02200
X3.13500 Y1.02400
X3.13800 Y1.02600
X3.14100 Y1.03200
X3.14500 Y1.04600
X3.14500 Y1.43400
X3.14800 Y1.43800
X3.15000 Y1.44800
X3.15200 Y1.45100
X3.15200 Y1.47100
X3.15000 Y1.47400
X3.14900 Y1.48200
X3.14000 Y1.49600
X3.13400 Y1.50200
X3.12400 Y1.50700
X3.12300 Y1.50900
X3.11500 Y1.51000
X3.11000 Y1.51300
X3.09100 Y1.51300
X3.08500 Y1.51000
X3.07700 Y1.50900
X3.07600 Y1.50700
X3.06900 Y1.50400
X3.05700 Y1.49200
X3.05500 Y1.48800
X3.04800 Y1.48700
X3.04300 Y1.49000
X3.04200 Y1.49400
X3.03400 Y1.50200
X3.03200 Y1.50200
X3.03100 Y1.50400
X3.02900 Y1.50400
X3.02100 Y1.51000
X3.01500 Y1.51000
X3.01000 Y1.51300
X2.98700 Y1.51200
X2.98500 Y1.51000
X2.97700 Y1.50900
X2.96600 Y1.50000
X2.95300 Y1.49700
X2.95100 Y1.51100
X2.94700 Y1.51300
X2.85900 Y1.51400
X2.85100 Y1.51200
X2.84800 Y1.50500
X2.84800 Y1.47300
X2.84600 Y1.47100
X2.81500 Y1.47100
X2.81400 Y1.47400
X2.80900 Y1.47500
X2.79100 Y1.47500
X2.78500 Y1.47300
X2.78600 Y1.43800
X2.81100 Y1.43800
X2.81400 Y1.43900
X2.81500 Y1.44200
X2.84600 Y1.44200
X2.84800 Y1.44000
X2.84800 Y1.41800
X2.85000 Y1.41100
X2.85700 Y1.40900
X2.88400 Y1.40900
X2.88600 Y1.40700
X2.88600 Y1.12000
X2.88400 Y1.11500
X2.80500 Y1.03600
X2.80300 Y1.03600
X2.69000 Y0.92200
X2.68400 Y0.92000
X2.66700 Y0.92000
X2.66400 Y0.91800
X2.65900 Y0.91800
X2.64500 Y0.90500
X2.64100 Y0.88900
X2.64200 Y0.87600
X2.64400 Y0.87400
X2.64500 Y0.86800
X2.65400 Y0.85800
X2.66500 Y0.85300
X2.67100 Y0.85200
X2.68500 Y0.85300
X2.68700 Y0.85500
X2.69200 Y0.85500
X2.69300 Y0.85700
X2.69700 Y0.85800
X2.70700 Y0.87100
X2.70700 Y0.87500
X2.70900 Y0.87800
X2.70900 Y0.89500
X2.71100 Y0.90100
X2.91300 Y1.10300
X2.91500 Y1.10900
X2.91500 Y1.40700
X2.91700 Y1.40900
X2.94400 Y1.40900
X2.95100 Y1.41100
X2.95400 Y1.42500
X2.96500 Y1.42200
X2.96900 Y1.41800
X2.97700 Y1.41400
X2.98300 Y1.41300
X2.98600 Y1.41000
X2.98600 Y1.06500
X2.98400 Y1.06000
X2.87800 Y0.95500
X2.87800 Y0.95200
X2.87600 Y0.95000
X2.87500 Y0.88100
X2.77200 Y0.77800
X2.75300 Y0.77800
X2.75100 Y0.77600
X2.74600 Y0.77600
X2.73100 Y0.76100
X2.69000 Y0.76100
X2.68400 Y0.76900
X2.67500 Y0.77600
X2.67000 Y0.77600
X2.66900 Y0.77800
X2.64800 Y0.77900
X2.58700 Y0.84000
X2.50700 Y0.84100
X2.50200 Y0.84600
X2.50200 Y0.84900
X2.50600 Y0.85300
X2.50800 Y0.85300
X2.51000 Y0.86100
X2.51000 Y0.91200
X2.50800 Y0.91500
X2.50800 Y0.91900
X2.50400 Y0.91900
X2.50100 Y0.92100
X2.45000 Y0.92100
X2.44200 Y0.91800
X2.44000 Y0.91000
X2.44000 Y0.86300
X2.44200 Y0.85400
X2.44900 Y0.84900
X2.44900 Y0.84600
X2.44400 Y0.84100
X2.35300 Y0.84200
X2.29400 Y0.90000
X2.29200 Y0.90500
X2.29100 Y1.05400
X2.09700 Y1.05500
X2.09900 Y1.06400
X2.15300 Y1.11800
X2.29100 Y1.12000
X2.29200 Y1.26900
X2.29100 Y1.27200
X2.28800 Y1.27300
X2.10200 Y1.27300
X2.09900 Y1.27200
X2.09800 Y1.26900
X2.09800 Y1.21100
X1.95800 Y1.21100
X1.95600 Y1.21300
X1.95600 Y1.22600
X2.00900 Y1.27800
X2.01300 Y1.28700
X2.01300 Y1.42900
X2.02500 Y1.42900
X2.02800 Y1.43100
X2.02800 Y1.51000
X2.02700 Y1.51200
X2.02400 Y1.51300
X1.97200 Y1.51300
X1.96900 Y1.51200
X1.96800 Y1.50900
X1.96800 Y1.43300
X1.96900 Y1.43000
X1.97200 Y1.42900
X1.98400 Y1.42900
X1.98400 Y1.29800
X1.98200 Y1.29300
X1.95300 Y1.26400
X1.94900 Y1.26500
X1.86100 Y1.26400
X1.85400 Y1.25600
X1.85400 Y1.21300
X1.85200 Y1.21100
X1.44300 Y1.21100
X1.43700 Y1.20900
X1.38800 Y1.16000
X1.38800 Y1.15700
X1.38600 Y1.15500
X1.38500 Y1.06200
X1.21000 Y0.88700
X1.20100 Y0.88400
X0.22000 Y0.88400
X0.20900 Y0.88800
X0.20300 Y0.89400
X0.20300 Y0.89600
X0.19900 Y0.89800
X0.15000 Y0.94700
X0.14700 Y0.95900
X0.19100 Y0.95900
X0.20600 Y0.95400
X0.20800 Y0.95200
X0.20800 Y0.94900
X0.21100 Y0.94700
X0.21100 Y0.94400
X0.21500 Y0.94000
X0.22300 Y0.93600
X0.44200 Y0.93700
X0.44500 Y0.93600
X0.47500 Y0.90500
X0.48200 Y0.90200
X1.20200 Y0.90300
X1.20600 Y0.90500
X1.23100 Y0.93000
X1.23500 Y0.93900
X1.23500 Y1.13800
X1.23600 Y1.14100
X1.27300 Y1.17800
X1.28100 Y1.17900
X1.28400 Y1.18200
X1.28500 Y1.18600
X1.28700 Y1.18600
X1.29100 Y1.19100
X1.29600 Y1.19300
X1.29800 Y1.19700
X1.29800 Y1.20500
X1.29700 Y1.20800
X1.29200 Y1.21000
X1.29000 Y1.21400
X1.28700 Y1.21700
X1.28500 Y1.21700
X1.28200 Y1.22300
X1.27100 Y1.22400
X1.26700 Y1.22200
X1.26600 Y1.21700
X1.26400 Y1.21700
X1.26000 Y1.21300
X1.26000 Y1.21100
X1.25700 Y1.21100
X1.25400 Y1.20800
X1.25100 Y1.19700
X1.20800 Y1.15500
X1.20800 Y1.15200
X1.20600 Y1.15000
X1.20600 Y0.95000
X1.20400 Y0.94500
X1.20000 Y0.94100
X1.18800 Y0.93800
X1.18800 Y0.94000
X1.19000 Y0.94100
X1.18900 Y1.05000
X1.10400 Y1.05100
X1.09900 Y1.05300
X1.08700 Y1.06500
X1.08500 Y1.07000
X1.08500 Y1.31200
X1.09200 Y1.31500
X1.09800 Y1.32100
X1.10500 Y1.33200
X1.43400 Y1.33200
X1.44100 Y1.33500
X1.46100 Y1.35600
X1.47000 Y1.35900
X1.50900 Y1.35900
X1.51600 Y1.36100
X1.51800 Y1.37000
X1.51800 Y1.38000
X1.52000 Y1.38200
X1.80900 Y1.38200
X1.81600 Y1.38500
X1.85800 Y1.42800
X1.90900 Y1.43000
X1.91000 Y1.50900
X1.90900 Y1.51200
X1.90600 Y1.51300
X1.85100 Y1.51200
X1.84900 Y1.46100
X1.80000 Y1.41200
X1.79700 Y1.41100
X1.52000 Y1.41100
X1.51800 Y1.41300
X1.51800 Y1.42200
X1.51500 Y1.43200
X1.50600 Y1.43400
X1.45400 Y1.43400
X1.44600 Y1.43200
X1.44300 Y1.42500
X1.44300 Y1.38600
X1.44000 Y1.37700
X1.42500 Y1.36200
X1.42200 Y1.36100
X1.10500 Y1.36100
X1.10100 Y1.36800
X1.09900 Y1.36900
X1.09900 Y1.37100
X1.08500 Y1.38100
X1.08100 Y1.38100
X1.07900 Y1.38300
X1.06200 Y1.38300
X1.06000 Y1.38100
X1.05300 Y1.38000
X1.03900 Y1.36800
X1.03600 Y1.35700
X1.03400 Y1.35500
X1.03300 Y1.34500
X1.03400 Y1.33800
X1.03700 Y1.33300
X1.03700 Y1.32800
X1.03900 Y1.32700
X1.04100 Y1.32200
X1.04600 Y1.31700
X1.05500 Y1.31300
X1.05600 Y1.31100
X1.05600 Y1.05800
X1.06000 Y1.05000
X1.08000 Y1.03100
X1.08100 Y1.02800
X1.08100 Y0.94500
X1.08200 Y0.94300
X1.08700 Y0.94200
X1.09100 Y0.93800
X1.09100 Y0.93500
X1.08700 Y0.93100
X0.54100 Y0.93100
X0.53700 Y0.93500
X0.53700 Y0.93800
X0.54100 Y0.94200
X0.55000 Y0.94300
X0.55200 Y0.94500
X0.55800 Y0.94600
X0.56800 Y0.95100
X0.58000 Y0.96300
X0.58300 Y0.97000
X0.58500 Y0.97100
X0.58700 Y0.98000
X0.58900 Y0.98200
X0.61900 Y0.98200
X0.62600 Y0.98500
X0.76800 Y1.12800
X0.77000 Y1.13400
X0.77000 Y1.31900
X0.76700 Y1.32600
X0.76200 Y1.32900
X0.74600 Y1.34500
X0.74400 Y1.34900
X0.73800 Y1.35100
X0.48600 Y1.35100
X0.48000 Y1.34900
X0.42500 Y1.29400
X0.36300 Y1.29300
X0.36300 Y1.34900
X0.42400 Y1.35000
X0.42500 Y1.43200
X0.50800 Y1.43200
X0.50800 Y1.37300
X0.50900 Y1.37000
X0.51200 Y1.36900
X0.69900 Y1.36900
X0.70200 Y1.37300
X0.70200 Y1.43200
X0.77200 Y1.43200
X0.77500 Y1.43100
X0.83000 Y1.37600
X0.83300 Y1.36700
X0.83300 Y1.31800
X0.83500 Y1.31100
X0.84200 Y1.30900
X0.89900 Y1.30900
X0.90600 Y1.31100
X0.90800 Y1.32000
X0.90800 Y1.37200
X0.90600 Y1.38100
X0.89600 Y1.38400
X0.87000 Y1.38400
X0.85900 Y1.38800
X0.78700 Y1.46000
X0.70200 Y1.46100
X0.70200 Y1.51900
X0.70100 Y1.52200
X0.69800 Y1.52300
X0.51200 Y1.52300
X0.50900 Y1.52200
X0.50800 Y1.51900
X0.50800 Y1.46100
X0.42500 Y1.46100
X0.42400 Y1.54200
X0.42100 Y1.54300
X0.27200 Y1.54200
X0.27100 Y1.35300
X0.27200 Y1.35000
X0.27500 Y1.34900
X0.33400 Y1.34900
X0.33400 Y1.29300
X0.27500 Y1.29300
X0.27200 Y1.29200
X0.27100 Y1.28900
X0.27200 Y1.10000
X0.42400 Y1.10000
X0.42500 Y1.25000
X0.42600 Y1.25300
X0.49400 Y1.32100
X0.72700 Y1.32200
X0.73000 Y1.32100
X0.74000 Y1.31100
X0.74100 Y1.14500
X0.73900 Y1.14000
X0.61000 Y1.01200
X0.58900 Y1.01100
X0.58000 Y1.02900
X0.56800 Y1.04100
X0.55500 Y1.04800
X0.54200 Y1.05100
X0.52800 Y1.05100
X0.51300 Y1.04700
X0.50200 Y1.04100
X0.49000 Y1.02900
X0.48600 Y1.02200
X0.48400 Y1.01300
X0.48200 Y1.01100
X0.48100 Y1.00600
X0.48200 Y0.98100
X0.49100 Y0.96200
X0.50000 Y0.95300
X0.52000 Y0.94300
X0.52900 Y0.94200
X0.53300 Y0.93800
X0.53300 Y0.93500
X0.52900 Y0.93100
X0.49400 Y0.93100
X0.48900 Y0.93300
X0.45900 Y0.96400
X0.45300 Y0.96600
X0.23400 Y0.96600
X0.22300 Y0.97100
X0.22000 Y0.98200
X0.38000 Y0.98300
X0.38400 Y0.98500
X0.54800 Y1.15000
X0.70100 Y1.15200
X0.70200 Y1.15500
X0.70100 Y1.30400
X0.69800 Y1.30500
X0.50900 Y1.30400
X0.50700 Y1.15100
X0.36800 Y1.01200
X0.22000 Y1.01100
X0.21800 Y1.01300
X0.21600 Y1.03100
X0.21200 Y1.03300
X0.14400 Y1.03400
X0.14500 Y1.09900
X0.20400 Y1.09900
X0.20600 Y1.10000
X0.20700 Y1.10300
X0.20700 Y1.28900
X0.20600 Y1.29200
X0.20300 Y1.29300
X0.14500 Y1.29300
X0.14500 Y1.34900
X0.20400 Y1.34900
X0.20700 Y1.35300
X0.20700 Y1.53900
X0.20600 Y1.54200
X0.20300 Y1.54300
X0.05700 Y1.54300
X0.05400 Y1.54200
X0.05300 Y1.53900
X0.05300 Y1.35300
X0.05400 Y1.35000
X0.05700 Y1.34900
X0.11600 Y1.34900
X0.11600 Y1.29300
X0.05700 Y1.29300
X0.05400 Y1.29200
X0.05300 Y1.28900
X0.05300 Y1.10300
X0.05400 Y1.10000
X0.05700 Y1.09900
X0.11600 Y1.09900
X0.11600 Y1.05500
X0.11400 Y1.05000
X0.09900 Y1.03500
X0.09100 Y1.03200
X0.07200 Y1.03300
X0.07000 Y1.03100
X0.06100 Y1.02900
X0.05700 Y1.02400
X0.05500 Y1.02400
X0.04900 Y1.01800
X0.04600 Y1.00700
X0.04400 Y1.00500
X0.04300 Y0.99800
X0.04400 Y0.98800
X0.04700 Y0.98300
X0.04700 Y0.97800
X0.05100 Y0.97400
X0.05100 Y0.97200
X0.05900 Y0.96500
X0.07200 Y0.96000
X0.07800 Y0.95900
X0.09200 Y0.96000
X0.09800 Y0.95800
X0.16000 Y0.89600
X0.16300 Y0.88400
X0.02800 Y0.88400
X0.02600 Y0.88100
X0.01700 Y0.88100
X0.01700 Y1.57700
X0.02000 Y1.58000
X3.18100 Y1.58000
X3.18400 Y1.57600
G04 P0 ( dwell for no time -- G64 should not smooth over this point )
G00 Z0.19685 ( retract )

G00 X2.02800 Y1.50800 ( rapid move to begin. )
F0.98425
G01 Z-0.01969
G04 P0 ( dwell for no time -- G64 should not smooth over this point )
F1.96850
X2.02800 Y1.50800
X2.02800 Y1.43100
X2.02500 Y1.42900
X2.01300 Y1.42900
X2.01300 Y1.28700
X2.00900 Y1.27800
X1.95600 Y1.22600
X1.95600 Y1.21300
X1.95800 Y1.21100
X2.09800 Y1.21100
X2.09800 Y1.26900
X2.09900 Y1.27200
X2.10200 Y1.27300
X2.28800 Y1.27300
X2.29100 Y1.27200
X2.29200 Y1.26900
X2.29200 Y1.12300
X2.28900 Y1.11900
X2.15600 Y1.11900
X2.15300 Y1.11800
X2.09900 Y1.06400
X2.09400 Y1.04900
X2.09400 Y0.90500
X2.09100 Y0.90300
X2.09000 Y0.79500
X1.92200 Y0.62700
X1.92100 Y0.62400
X1.92100 Y0.40900
X1.92200 Y0.40600
X1.97600 Y0.35200
X1.98200 Y0.35100
X2.00100 Y0.36300
X2.00400 Y0.36300
X2.00800 Y0.36600
X2.02300 Y0.37100
X2.03400 Y0.37200
X2.03800 Y0.37400
X2.06100 Y0.37500
X2.08400 Y0.37200
X2.10200 Y0.36600
X2.10600 Y0.36300
X2.11300 Y0.36100
X2.11400 Y0.35900
X2.12300 Y0.35500
X2.12400 Y0.35300
X2.12800 Y0.35200
X2.14000 Y0.34000
X2.14800 Y0.34000
X2.32000 Y0.51300
X2.32200 Y0.51300
X2.32400 Y0.51600
X2.33100 Y0.51700
X2.36100 Y0.51800
X2.47700 Y0.63400
X2.47900 Y0.65600
X2.48600 Y0.66900
X2.50000 Y0.67800
X2.52200 Y0.67900
X2.55100 Y0.70800
X2.55300 Y0.71300
X2.57300 Y0.71400
X2.57800 Y0.71400
X2.57900 Y0.71200
X2.64300 Y0.71200
X2.64300 Y0.71400
X2.66800 Y0.71300
X2.67000 Y0.70800
X2.69900 Y0.67900
X2.72100 Y0.67800
X2.72600 Y0.67400
X2.73200 Y0.67200
X2.74000 Y0.66200
X2.81100 Y0.66300
X2.90500 Y0.75700
X2.90600 Y0.90000
X2.93400 Y0.90000
X2.93700 Y0.89400
X2.93600 Y0.74600
X2.82500 Y0.63400
X2.81600 Y0.63100
X2.74000 Y0.63100
X2.73300 Y0.62200
X2.72500 Y0.61600
X2.71500 Y0.61400
X2.70000 Y0.61500
X2.69100 Y0.61900
X2.68200 Y0.63000
X2.67800 Y0.64200
X2.67700 Y0.65800
X2.65300 Y0.68100
X2.62800 Y0.68100
X2.62700 Y0.67900
X2.62300 Y0.68000
X2.59400 Y0.67900
X2.59300 Y0.68100
X2.56500 Y0.68000
X2.56200 Y0.67700
X2.56200 Y0.67500
X2.54400 Y0.65800
X2.54100 Y0.63200
X2.53000 Y0.61900
X2.52100 Y0.61500
X2.49800 Y0.61300
X2.37500 Y0.48900
X2.36600 Y0.48600
X2.33500 Y0.48500
X2.33100 Y0.48100
X2.32900 Y0.47100
X2.32300 Y0.46900
X2.31900 Y0.46400
X2.31500 Y0.46300
X2.31200 Y0.46000
X2.29400 Y0.44200
X2.29300 Y0.43800
X2.28800 Y0.43400
X2.28600 Y0.42800
X2.27600 Y0.42600
X2.16500 Y0.31500
X2.16400 Y0.31000
X2.17200 Y0.29300
X2.17600 Y0.28000
X2.17900 Y0.25700
X2.17800 Y0.23400
X2.17600 Y0.23000
X2.17600 Y0.22300
X2.16500 Y0.19300
X2.16300 Y0.19200
X2.16200 Y0.18800
X2.15700 Y0.18200
X2.15600 Y0.17800
X2.14900 Y0.17200
X2.14900 Y0.17000
X2.13300 Y0.15500
X2.13100 Y0.15500
X2.12800 Y0.15100
X2.12600 Y0.15100
X2.11900 Y0.14500
X2.10100 Y0.13600
X2.09700 Y0.13600
X2.08400 Y0.13100
X2.07700 Y0.13100
X2.06600 Y0.12800
X2.04500 Y0.12800
X2.03400 Y0.13100
X2.02700 Y0.13100
X2.00400 Y0.13800
X2.00300 Y0.14000
X1.99300 Y0.14400
X1.99200 Y0.14600
X1.98200 Y0.15100
X1.96100 Y0.17100
X1.96100 Y0.17300
X1.95500 Y0.17800
X1.95300 Y0.18300
X1.95100 Y0.18400
X1.94400 Y0.19900
X1.94200 Y0.20000
X1.93300 Y0.23400
X1.93200 Y0.26200
X1.93500 Y0.27300
X1.93500 Y0.28000
X1.94000 Y0.29300
X1.94000 Y0.29700
X1.94600 Y0.31000
X1.94800 Y0.31100
X1.95300 Y0.32100
X1.95500 Y0.32200
X1.95600 Y0.32800
X1.89500 Y0.38900
X1.89500 Y0.39100
X1.89100 Y0.39500
X1.89000 Y0.63200
X1.89100 Y0.63800
X1.89500 Y0.64100
X1.89500 Y0.64300
X2.05900 Y0.80600
X2.06000 Y1.06200
X2.06100 Y1.06800
X2.06500 Y1.07100
X2.06500 Y1.07300
X2.10300 Y1.11000
X2.10500 Y1.11600
X2.10400 Y1.11900
X2.09800 Y1.12000
X2.09700 Y1.12600
X2.09700 Y1.18100
X1.95800 Y1.18100
X1.95700 Y1.13900
X1.95500 Y1.13300
X1.95100 Y1.12900
X1.94500 Y1.12700
X1.86500 Y1.12700
X1.85900 Y1.12900
X1.85400 Y1.13600
X1.85400 Y1.17900
X1.85200 Y1.18100
X1.45000 Y1.18000
X1.44100 Y1.17100
X1.44100 Y1.16900
X1.41600 Y1.14400
X1.41600 Y1.05700
X1.41500 Y1.05000
X1.41300 Y1.04900
X1.41300 Y1.04700
X1.26100 Y0.89600
X1.25700 Y0.88300
X1.24500 Y0.88000
X1.10900 Y0.74400
X1.10900 Y0.74100
X1.10700 Y0.74000
X1.10400 Y0.73000
X1.10200 Y0.72900
X1.09900 Y0.72300
X1.09500 Y0.72100
X1.09200 Y0.71300
X1.05800 Y0.71300
X1.05500 Y0.72100
X1.04600 Y0.73000
X1.04300 Y0.74200
X1.04500 Y0.76100
X1.05400 Y0.77200
X1.06000 Y0.77400
X1.06500 Y0.77800
X1.07100 Y0.77900
X1.08600 Y0.77800
X1.09000 Y0.77500
X1.09800 Y0.77500
X1.19500 Y0.87200
X1.19800 Y0.88400
X1.21000 Y0.88700
X1.38500 Y1.06200
X1.38600 Y1.15500
X1.38800 Y1.15700
X1.38800 Y1.16000
X1.43700 Y1.20900
X1.44300 Y1.21100
X1.85200 Y1.21100
X1.85400 Y1.21300
X1.85400 Y1.25600
X1.86100 Y1.26400
X1.86300 Y1.26500
X1.95300 Y1.26400
X1.98200 Y1.29300
X1.98400 Y1.29800
X1.98400 Y1.42900
X1.97200 Y1.42900
X1.96900 Y1.43000
X1.96800 Y1.43300
X1.96800 Y1.50900
X1.96900 Y1.51200
X1.97200 Y1.51300
X2.02400 Y1.51300
X2.02700 Y1.51200
X2.02800 Y1.50800
G04 P0 ( dwell for no time -- G64 should not smooth over this point )
G00 Z0.19685 ( retract )

G00 X1.91000 Y1.50800 ( rapid move to begin. )
F0.98425
G01 Z-0.01969
G04 P0 ( dwell for no time -- G64 should not smooth over this point )
F1.96850
X1.91000 Y1.50800
X1.90900 Y1.43000
X1.85800 Y1.42800
X1.81600 Y1.38500
X1.80900 Y1.38200
X1.52000 Y1.38200
X1.51800 Y1.38000
X1.51800 Y1.37000
X1.51600 Y1.36100
X1.50900 Y1.35900
X1.47000 Y1.35900
X1.46100 Y1.35600
X1.44100 Y1.33500
X1.43400 Y1.33200
X1.10500 Y1.33200
X1.09800 Y1.32100
X1.09200 Y1.31500
X1.08500 Y1.31200
X1.08500 Y1.07000
X1.08700 Y1.06500
X1.09900 Y1.05300
X1.10400 Y1.05100
X1.18900 Y1.05000
X1.19000 Y0.94100
X1.18800 Y0.94000
X1.18800 Y0.93800
X1.18200 Y0.93600
X1.09100 Y0.93600
X1.09100 Y0.93800
X1.08700 Y0.94200
X1.08200 Y0.94300
X1.08100 Y1.02800
X1.08000 Y1.03100
X1.06000 Y1.05000
X1.05600 Y1.05800
X1.05600 Y1.31100
X1.05500 Y1.31300
X1.04600 Y1.31700
X1.04100 Y1.32200
X1.04100 Y1.32400
X1.03700 Y1.32800
X1.03700 Y1.33300
X1.03500 Y1.33500
X1.03300 Y1.34500
X1.03400 Y1.35500
X1.03600 Y1.35700
X1.03700 Y1.36400
X1.03900 Y1.36800
X1.04800 Y1.37700
X1.05000 Y1.37700
X1.05300 Y1.38000
X1.06000 Y1.38100
X1.06200 Y1.38300
X1.07900 Y1.38300
X1.09500 Y1.37500
X1.10500 Y1.36100
X1.42200 Y1.36100
X1.42500 Y1.36200
X1.44000 Y1.37700
X1.44300 Y1.38600
X1.44300 Y1.42500
X1.44600 Y1.43200
X1.45400 Y1.43400
X1.50600 Y1.43400
X1.51500 Y1.43200
X1.51800 Y1.42200
X1.51800 Y1.41300
X1.52000 Y1.41100
X1.79700 Y1.41100
X1.80000 Y1.41200
X1.84900 Y1.46100
X1.85100 Y1.51200
X1.90600 Y1.51300
X1.90900 Y1.51200
X1.91000 Y1.50800
G04 P0 ( dwell for no time -- G64 should not smooth over this point )
G00 Z0.19685 ( retract )

G00 X1.63700 Y0.94600 ( rapid move to begin. )
F0.98425
G01 Z-0.01969
G04 P0 ( dwell for no time -- G64 should not smooth over this point )
F1.96850
X1.63700 Y0.94600
X1.64100 Y0.94500
X1.65200 Y0.93200
X1.65200 Y0.92800
X1.65500 Y0.92100
X1.65400 Y0.91200
X1.65500 Y0.90200
X1.72900 Y0.82800
X1.73400 Y0.82600
X1.86800 Y0.82600
X1.87300 Y0.83200
X1.87300 Y0.83400
X1.88300 Y0.84200
X1.89500 Y0.84600
X1.90500 Y0.84600
X1.91600 Y0.84300
X1.91700 Y0.84100
X1.92100 Y0.84000
X1.93200 Y0.82700
X1.93200 Y0.82300
X1.93500 Y0.81600
X1.93500 Y0.80600
X1.93100 Y0.79400
X1.92900 Y0.79400
X1.92700 Y0.78400
X1.91700 Y0.78200
X1.91600 Y0.78000
X1.90700 Y0.77700
X1.89300 Y0.77700
X1.87600 Y0.78500
X1.87600 Y0.78700
X1.87300 Y0.78900
X1.87300 Y0.79100
X1.86800 Y0.79700
X1.72200 Y0.79700
X1.71500 Y0.80000
X1.63400 Y0.88200
X1.61300 Y0.88200
X1.61100 Y0.88400
X1.60500 Y0.88500
X1.60000 Y0.88900
X1.59600 Y0.89000
X1.59600 Y0.89200
X1.58900 Y0.90000
X1.58800 Y0.90700
X1.58600 Y0.90900
X1.58600 Y0.92300
X1.58900 Y0.92900
X1.58900 Y0.93300
X1.59800 Y0.94400
X1.60200 Y0.94500
X1.60500 Y0.94800
X1.61500 Y0.95100
X1.62500 Y0.95100
X1.63600 Y0.94800
X1.63700 Y0.94600
G04 P0 ( dwell for no time -- G64 should not smooth over this point )
G00 Z0.19685 ( retract )

G00 X1.45600 Y0.87600 ( rapid move to begin. )
F0.98425
G01 Z-0.01969
G04 P0 ( dwell for no time -- G64 should not smooth over this point )
F1.96850
X1.45600 Y0.87600
X1.45600 Y0.76600
X1.45100 Y0.76100
X1.30500 Y0.76100
X1.29000 Y0.77600
X1.28500 Y0.77600
X1.28300 Y0.77800
X1.26700 Y0.77800
X1.26600 Y0.77600
X1.26100 Y0.77600
X1.26000 Y0.77400
X1.25400 Y0.77100
X1.24700 Y0.76300
X1.24700 Y0.76000
X1.24400 Y0.75500
X1.24400 Y0.73800
X1.24700 Y0.73300
X1.24700 Y0.73000
X1.25400 Y0.72100
X1.26700 Y0.71500
X1.28400 Y0.71500
X1.29000 Y0.71700
X1.29100 Y0.71900
X1.29700 Y0.72100
X1.30500 Y0.73200
X1.45100 Y0.73200
X1.45600 Y0.72700
X1.45600 Y0.68000
X1.45000 Y0.66200
X1.39500 Y0.60700
X1.23500 Y0.60600
X1.23200 Y0.60900
X1.23200 Y0.61200
X1.23600 Y0.61500
X1.23600 Y0.61700
X1.24000 Y0.61700
X1.24100 Y0.61900
X1.24700 Y0.62100
X1.25500 Y0.63300
X1.25500 Y0.63700
X1.25700 Y0.63800
X1.25700 Y0.65400
X1.25500 Y0.65600
X1.25300 Y0.66400
X1.24300 Y0.67400
X1.24100 Y0.67400
X1.24000 Y0.67600
X1.23500 Y0.67600
X1.23300 Y0.67800
X1.21200 Y0.67900
X1.18400 Y0.70800
X1.18200 Y0.71400
X1.18600 Y0.71700
X1.19000 Y0.71700
X1.19100 Y0.71900
X1.19700 Y0.72100
X1.19800 Y0.72400
X1.20200 Y0.72700
X1.20500 Y0.73300
X1.20500 Y0.73700
X1.20700 Y0.73800
X1.20700 Y0.75400
X1.20500 Y0.75600
X1.20500 Y0.76000
X1.20300 Y0.76400
X1.19000 Y0.77600
X1.18500 Y0.77600
X1.18300 Y0.77800
X1.16700 Y0.77800
X1.16600 Y0.77600
X1.16100 Y0.77600
X1.16000 Y0.77400
X1.15600 Y0.77300
X1.14700 Y0.76300
X1.14700 Y0.76000
X1.14400 Y0.75500
X1.14400 Y0.73800
X1.14900 Y0.72700
X1.15400 Y0.72100
X1.15600 Y0.72100
X1.15800 Y0.71700
X1.15700 Y0.71100
X1.09200 Y0.71200
X1.09500 Y0.72100
X1.09800 Y0.72200
X1.10400 Y0.73000
X1.10700 Y0.74000
X1.10900 Y0.74100
X1.10900 Y0.74400
X1.24500 Y0.88000
X1.25700 Y0.88400
X1.45300 Y0.88400
X1.45600 Y0.88100
X1.45600 Y0.87600
G04 P0 ( dwell for no time -- G64 should not smooth over this point )
G00 Z0.19685 ( retract )

G00 X1.37000 Y0.84100 ( rapid move to begin. )
F0.98425
G01 Z-0.01969
G04 P0 ( dwell for no time -- G64 should not smooth over this point )
F1.96850
X1.37000 Y0.84100
X1.37700 Y0.83500
X1.37800 Y0.83100
X1.38000 Y0.83000
X1.38300 Y0.82400
X1.38500 Y0.81400
X1.38300 Y0.79800
X1.38100 Y0.79700
X1.37700 Y0.78700
X1.36600 Y0.77700
X1.35300 Y0.77200
X1.33700 Y0.77200
X1.32100 Y0.77900
X1.31300 Y0.78700
X1.30600 Y0.80300
X1.30600 Y0.81900
X1.31300 Y0.83500
X1.32100 Y0.84300
X1.33100 Y0.84700
X1.33200 Y0.84900
X1.34300 Y0.85100
X1.35800 Y0.84900
X1.36400 Y0.84600
X1.36500 Y0.84400
X1.36900 Y0.84300
X1.37000 Y0.84100
G04 P0 ( dwell for no time -- G64 should not smooth over this point )
G00 Z0.19685 ( retract )

G00 X1.48300 Y0.35900 ( rapid move to begin. )
F0.98425
G01 Z-0.01969
G04 P0 ( dwell for no time -- G64 should not smooth over this point )
F1.96850
X1.48300 Y0.35900
X1.52100 Y0.32100
X1.52100 Y0.31700
X1.51800 Y0.31400
X1.51000 Y0.29700
X1.50300 Y0.26900
X1.50200 Y0.24100
X1.50500 Y0.23000
X1.50500 Y0.22300
X1.51200 Y0.20000
X1.51400 Y0.19900
X1.52100 Y0.18400
X1.52300 Y0.18300
X1.52500 Y0.17800
X1.53100 Y0.17300
X1.53100 Y0.17100
X1.55200 Y0.15100
X1.56200 Y0.14600
X1.56300 Y0.14400
X1.57300 Y0.14000
X1.57400 Y0.13800
X1.60800 Y0.12900
X1.63600 Y0.12800
X1.65800 Y0.13200
X1.68400 Y0.14200
X1.68500 Y0.14400
X1.68900 Y0.14500
X1.69300 Y0.14900
X1.69800 Y0.15100
X1.70700 Y0.16000
X1.70900 Y0.16000
X1.72600 Y0.17800
X1.72700 Y0.18200
X1.72900 Y0.18300
X1.73000 Y0.18700
X1.73500 Y0.19300
X1.74000 Y0.20600
X1.77100 Y0.20600
X1.89700 Y0.08100
X1.89700 Y0.07900
X1.90300 Y0.07600
X1.90600 Y0.06800
X1.46500 Y0.06800
X1.46500 Y0.36400
X1.46700 Y0.36600
X1.47100 Y0.36600
X1.48000 Y0.36300
X1.48300 Y0.35900
G04 P0 ( dwell for no time -- G64 should not smooth over this point )
G00 Z0.19685 ( retract )

G00 X2.16800 Y0.07600 ( rapid move to begin. )
F0.98425
G01 Z-0.01969
G04 P0 ( dwell for no time -- G64 should not smooth over this point )
F1.96850
X2.16800 Y0.07600
X2.17100 Y0.07500
X2.17400 Y0.06800
X1.95500 Y0.06800
X1.95800 Y0.07600
X1.96500 Y0.08100
X2.16200 Y0.08100
X2.16800 Y0.07600
G04 P0 ( dwell for no time -- G64 should not smooth over this point )
G00 Z0.19685 ( retract )

G00 X2.30400 Y0.31700 ( rapid move to begin. )
F0.98425
G01 Z-0.01969
G04 P0 ( dwell for no time -- G64 should not smooth over this point )
F1.96850
X2.30400 Y0.31700
X2.30600 Y0.31700
X2.32100 Y0.30000
X2.32600 Y0.28600
X2.32600 Y0.26700
X2.32200 Y0.25400
X2.31600 Y0.24700
X2.31600 Y0.24500
X2.30600 Y0.23500
X2.30200 Y0.23400
X2.30100 Y0.23200
X2.28900 Y0.22700
X2.27900 Y0.22500
X2.26200 Y0.22700
X2.24400 Y0.23500
X2.23400 Y0.24500
X2.23300 Y0.24900
X2.23100 Y0.25000
X2.22400 Y0.27300
X2.22600 Y0.29000
X2.23400 Y0.30700
X2.25100 Y0.32200
X2.26600 Y0.32700
X2.28900 Y0.32600
X2.29900 Y0.32200
X2.30400 Y0.31700
G04 P0 ( dwell for no time -- G64 should not smooth over this point )
G00 Z0.19685 ( retract )

G00 X2.38600 Y0.47000 ( rapid move to begin. )
F0.98425
G01 Z-0.01969
G04 P0 ( dwell for no time -- G64 should not smooth over this point )
F1.96850
X2.38600 Y0.47000
X2.39400 Y0.46800
X2.39500 Y0.46600
X2.40500 Y0.46200
X2.41300 Y0.45400
X2.41500 Y0.45400
X2.42600 Y0.44100
X2.43000 Y0.43100
X2.43200 Y0.43000
X2.43800 Y0.41100
X2.43900 Y0.38900
X2.43700 Y0.37700
X2.43300 Y0.36900
X2.43200 Y0.36300
X2.43000 Y0.36200
X2.42600 Y0.35200
X2.41800 Y0.34400
X2.41800 Y0.34200
X2.40500 Y0.33100
X2.39500 Y0.32700
X2.39400 Y0.32500
X2.37600 Y0.31900
X2.35300 Y0.31800
X2.34100 Y0.32000
X2.33300 Y0.32400
X2.32700 Y0.32500
X2.32600 Y0.32700
X2.31200 Y0.33400
X2.29800 Y0.34800
X2.29200 Y0.36000
X2.29000 Y0.36100
X2.28400 Y0.37700
X2.28200 Y0.38900
X2.28200 Y0.40400
X2.28600 Y0.42200
X2.28600 Y0.43000
X2.28800 Y0.43400
X2.29300 Y0.43800
X2.29600 Y0.44400
X2.31500 Y0.46300
X2.31900 Y0.46400
X2.32300 Y0.46900
X2.32700 Y0.47100
X2.33500 Y0.47100
X2.35300 Y0.47500
X2.36800 Y0.47500
X2.38000 Y0.47300
X2.38600 Y0.47000

G04 P0 ( dwell for no time -- G64 should not smooth over this point )
G00 Z0.197 ( retract )

M5 ( Spindle off. )
M9 ( Coolant off. )
M2 ( Program end. )

