( pcb2gcode 1.2.2 )

( This file uses a mill head of 0.03000inch to drill the 7bit sizes. )
( Bit sizes: [0.03800] [0.03500] [0.18700] [0.12800] [0.06300] [0.02000] [0.03500] )

G94       (Inches per minute feed rate.)
G20       (Units == INCHES.)
G90       (Absolute coordinates.)
S10000    (RPM spindle speed.)
M3
G91.1
G0 Z0.10000
F1.00000 (Feedrate)

G00 Z0.02000
G0 X0.18400 Y0.21500
G1 Z[-0.10000+12*0.00800]
G2 I-0.00400 J0
G1 Z[-0.10000+11*0.00800]
G2 I-0.00400 J0
G1 Z[-0.10000+10*0.00800]
G2 I-0.00400 J0
G1 Z[-0.10000+9*0.00800]
G2 I-0.00400 J0
G1 Z[-0.10000+8*0.00800]
G2 I-0.00400 J0
G1 Z[-0.10000+7*0.00800]
G2 I-0.00400 J0
G1 Z[-0.10000+6*0.00800]
G2 I-0.00400 J0
G1 Z[-0.10000+5*0.00800]
G2 I-0.00400 J0
G1 Z[-0.10000+4*0.00800]
G2 I-0.00400 J0
G1 Z[-0.10000+3*0.00800]
G2 I-0.00400 J0
G1 Z[-0.10000+2*0.00800]
G2 I-0.00400 J0
G1 Z[-0.10000+1*0.00800]
G2 I-0.00400 J0
G0 Z0.02000

G0 X0.18400 Y0.31500
G1 Z[-0.10000+12*0.00800]
G2 I-0.00400 J0
G1 Z[-0.10000+11*0.00800]
G2 I-0.00400 J0
G1 Z[-0.10000+10*0.00800]
G2 I-0.00400 J0
G1 Z[-0.10000+9*0.00800]
G2 I-0.00400 J0
G1 Z[-0.10000+8*0.00800]
G2 I-0.00400 J0
G1 Z[-0.10000+7*0.00800]
G2 I-0.00400 J0
G1 Z[-0.10000+6*0.00800]
G2 I-0.00400 J0
G1 Z[-0.10000+5*0.00800]
G2 I-0.00400 J0
G1 Z[-0.10000+4*0.00800]
G2 I-0.00400 J0
G1 Z[-0.10000+3*0.00800]
G2 I-0.00400 J0
G1 Z[-0.10000+2*0.00800]
G2 I-0.00400 J0
G1 Z[-0.10000+1*0.00800]
G2 I-0.00400 J0
G0 Z0.02000

G0 X0.07400 Y0.93500
G1 Z[-0.10000+12*0.00800]
G2 I-0.00400 J0
G1 Z[-0.10000+11*0.00800]
G2 I-0.00400 J0
G1 Z[-0.10000+10*0.00800]
G2 I-0.00400 J0
G1 Z[-0.10000+9*0.00800]
G2 I-0.00400 J0
G1 Z[-0.10000+8*0.00800]
G2 I-0.00400 J0
G1 Z[-0.10000+7*0.00800]
G2 I-0.00400 J0
G1 Z[-0.10000+6*0.00800]
G2 I-0.00400 J0
G1 Z[-0.10000+5*0.00800]
G2 I-0.00400 J0
G1 Z[-0.10000+4*0.00800]
G2 I-0.00400 J0
G1 Z[-0.10000+3*0.00800]
G2 I-0.00400 J0
G1 Z[-0.10000+2*0.00800]
G2 I-0.00400 J0
G1 Z[-0.10000+1*0.00800]
G2 I-0.00400 J0
G0 Z0.02000

G0 X0.07400 Y1.03500
G1 Z[-0.10000+12*0.00800]
G2 I-0.00400 J0
G1 Z[-0.10000+11*0.00800]
G2 I-0.00400 J0
G1 Z[-0.10000+10*0.00800]
G2 I-0.00400 J0
G1 Z[-0.10000+9*0.00800]
G2 I-0.00400 J0
G1 Z[-0.10000+8*0.00800]
G2 I-0.00400 J0
G1 Z[-0.10000+7*0.00800]
G2 I-0.00400 J0
G1 Z[-0.10000+6*0.00800]
G2 I-0.00400 J0
G1 Z[-0.10000+5*0.00800]
G2 I-0.00400 J0
G1 Z[-0.10000+4*0.00800]
G2 I-0.00400 J0
G1 Z[-0.10000+3*0.00800]
G2 I-0.00400 J0
G1 Z[-0.10000+2*0.00800]
G2 I-0.00400 J0
G1 Z[-0.10000+1*0.00800]
G2 I-0.00400 J0
G0 Z0.02000

G0 X0.19750 Y0.55500
G1 Z[-0.10000+12*0.00800]
G2 I-0.00250 J0
G1 Z[-0.10000+11*0.00800]
G2 I-0.00250 J0
G1 Z[-0.10000+10*0.00800]
G2 I-0.00250 J0
G1 Z[-0.10000+9*0.00800]
G2 I-0.00250 J0
G1 Z[-0.10000+8*0.00800]
G2 I-0.00250 J0
G1 Z[-0.10000+7*0.00800]
G2 I-0.00250 J0
G1 Z[-0.10000+6*0.00800]
G2 I-0.00250 J0
G1 Z[-0.10000+5*0.00800]
G2 I-0.00250 J0
G1 Z[-0.10000+4*0.00800]
G2 I-0.00250 J0
G1 Z[-0.10000+3*0.00800]
G2 I-0.00250 J0
G1 Z[-0.10000+2*0.00800]
G2 I-0.00250 J0
G1 Z[-0.10000+1*0.00800]
G2 I-0.00250 J0
G0 Z0.02000

G0 X0.19750 Y0.65500
G1 Z[-0.10000+12*0.00800]
G2 I-0.00250 J0
G1 Z[-0.10000+11*0.00800]
G2 I-0.00250 J0
G1 Z[-0.10000+10*0.00800]
G2 I-0.00250 J0
G1 Z[-0.10000+9*0.00800]
G2 I-0.00250 J0
G1 Z[-0.10000+8*0.00800]
G2 I-0.00250 J0
G1 Z[-0.10000+7*0.00800]
G2 I-0.00250 J0
G1 Z[-0.10000+6*0.00800]
G2 I-0.00250 J0
G1 Z[-0.10000+5*0.00800]
G2 I-0.00250 J0
G1 Z[-0.10000+4*0.00800]
G2 I-0.00250 J0
G1 Z[-0.10000+3*0.00800]
G2 I-0.00250 J0
G1 Z[-0.10000+2*0.00800]
G2 I-0.00250 J0
G1 Z[-0.10000+1*0.00800]
G2 I-0.00250 J0
G0 Z0.02000

G0 X0.19750 Y0.75500
G1 Z[-0.10000+12*0.00800]
G2 I-0.00250 J0
G1 Z[-0.10000+11*0.00800]
G2 I-0.00250 J0
G1 Z[-0.10000+10*0.00800]
G2 I-0.00250 J0
G1 Z[-0.10000+9*0.00800]
G2 I-0.00250 J0
G1 Z[-0.10000+8*0.00800]
G2 I-0.00250 J0
G1 Z[-0.10000+7*0.00800]
G2 I-0.00250 J0
G1 Z[-0.10000+6*0.00800]
G2 I-0.00250 J0
G1 Z[-0.10000+5*0.00800]
G2 I-0.00250 J0
G1 Z[-0.10000+4*0.00800]
G2 I-0.00250 J0
G1 Z[-0.10000+3*0.00800]
G2 I-0.00250 J0
G1 Z[-0.10000+2*0.00800]
G2 I-0.00250 J0
G1 Z[-0.10000+1*0.00800]
G2 I-0.00250 J0
G0 Z0.02000

G0 X0.19750 Y0.85500
G1 Z[-0.10000+12*0.00800]
G2 I-0.00250 J0
G1 Z[-0.10000+11*0.00800]
G2 I-0.00250 J0
G1 Z[-0.10000+10*0.00800]
G2 I-0.00250 J0
G1 Z[-0.10000+9*0.00800]
G2 I-0.00250 J0
G1 Z[-0.10000+8*0.00800]
G2 I-0.00250 J0
G1 Z[-0.10000+7*0.00800]
G2 I-0.00250 J0
G1 Z[-0.10000+6*0.00800]
G2 I-0.00250 J0
G1 Z[-0.10000+5*0.00800]
G2 I-0.00250 J0
G1 Z[-0.10000+4*0.00800]
G2 I-0.00250 J0
G1 Z[-0.10000+3*0.00800]
G2 I-0.00250 J0
G1 Z[-0.10000+2*0.00800]
G2 I-0.00250 J0
G1 Z[-0.10000+1*0.00800]
G2 I-0.00250 J0
G0 Z0.02000

G0 X0.29750 Y0.90500
G1 Z[-0.10000+12*0.00800]
G2 I-0.00250 J0
G1 Z[-0.10000+11*0.00800]
G2 I-0.00250 J0
G1 Z[-0.10000+10*0.00800]
G2 I-0.00250 J0
G1 Z[-0.10000+9*0.00800]
G2 I-0.00250 J0
G1 Z[-0.10000+8*0.00800]
G2 I-0.00250 J0
G1 Z[-0.10000+7*0.00800]
G2 I-0.00250 J0
G1 Z[-0.10000+6*0.00800]
G2 I-0.00250 J0
G1 Z[-0.10000+5*0.00800]
G2 I-0.00250 J0
G1 Z[-0.10000+4*0.00800]
G2 I-0.00250 J0
G1 Z[-0.10000+3*0.00800]
G2 I-0.00250 J0
G1 Z[-0.10000+2*0.00800]
G2 I-0.00250 J0
G1 Z[-0.10000+1*0.00800]
G2 I-0.00250 J0
G0 Z0.02000

G0 X0.29750 Y0.80500
G1 Z[-0.10000+12*0.00800]
G2 I-0.00250 J0
G1 Z[-0.10000+11*0.00800]
G2 I-0.00250 J0
G1 Z[-0.10000+10*0.00800]
G2 I-0.00250 J0
G1 Z[-0.10000+9*0.00800]
G2 I-0.00250 J0
G1 Z[-0.10000+8*0.00800]
G2 I-0.00250 J0
G1 Z[-0.10000+7*0.00800]
G2 I-0.00250 J0
G1 Z[-0.10000+6*0.00800]
G2 I-0.00250 J0
G1 Z[-0.10000+5*0.00800]
G2 I-0.00250 J0
G1 Z[-0.10000+4*0.00800]
G2 I-0.00250 J0
G1 Z[-0.10000+3*0.00800]
G2 I-0.00250 J0
G1 Z[-0.10000+2*0.00800]
G2 I-0.00250 J0
G1 Z[-0.10000+1*0.00800]
G2 I-0.00250 J0
G0 Z0.02000

G0 X0.29750 Y0.70500
G1 Z[-0.10000+12*0.00800]
G2 I-0.00250 J0
G1 Z[-0.10000+11*0.00800]
G2 I-0.00250 J0
G1 Z[-0.10000+10*0.00800]
G2 I-0.00250 J0
G1 Z[-0.10000+9*0.00800]
G2 I-0.00250 J0
G1 Z[-0.10000+8*0.00800]
G2 I-0.00250 J0
G1 Z[-0.10000+7*0.00800]
G2 I-0.00250 J0
G1 Z[-0.10000+6*0.00800]
G2 I-0.00250 J0
G1 Z[-0.10000+5*0.00800]
G2 I-0.00250 J0
G1 Z[-0.10000+4*0.00800]
G2 I-0.00250 J0
G1 Z[-0.10000+3*0.00800]
G2 I-0.00250 J0
G1 Z[-0.10000+2*0.00800]
G2 I-0.00250 J0
G1 Z[-0.10000+1*0.00800]
G2 I-0.00250 J0
G0 Z0.02000

G0 X0.29750 Y0.60500
G1 Z[-0.10000+12*0.00800]
G2 I-0.00250 J0
G1 Z[-0.10000+11*0.00800]
G2 I-0.00250 J0
G1 Z[-0.10000+10*0.00800]
G2 I-0.00250 J0
G1 Z[-0.10000+9*0.00800]
G2 I-0.00250 J0
G1 Z[-0.10000+8*0.00800]
G2 I-0.00250 J0
G1 Z[-0.10000+7*0.00800]
G2 I-0.00250 J0
G1 Z[-0.10000+6*0.00800]
G2 I-0.00250 J0
G1 Z[-0.10000+5*0.00800]
G2 I-0.00250 J0
G1 Z[-0.10000+4*0.00800]
G2 I-0.00250 J0
G1 Z[-0.10000+3*0.00800]
G2 I-0.00250 J0
G1 Z[-0.10000+2*0.00800]
G2 I-0.00250 J0
G1 Z[-0.10000+1*0.00800]
G2 I-0.00250 J0
G0 Z0.02000

G0 X0.48500 Y0.20500
G1 Z[-0.10000+12*0.00800]
G2 I-0.07850 J0
G1 Z[-0.10000+11*0.00800]
G2 I-0.07850 J0
G1 Z[-0.10000+10*0.00800]
G2 I-0.07850 J0
G1 Z[-0.10000+9*0.00800]
G2 I-0.07850 J0
G1 Z[-0.10000+8*0.00800]
G2 I-0.07850 J0
G1 Z[-0.10000+7*0.00800]
G2 I-0.07850 J0
G1 Z[-0.10000+6*0.00800]
G2 I-0.07850 J0
G1 Z[-0.10000+5*0.00800]
G2 I-0.07850 J0
G1 Z[-0.10000+4*0.00800]
G2 I-0.07850 J0
G1 Z[-0.10000+3*0.00800]
G2 I-0.07850 J0
G1 Z[-0.10000+2*0.00800]
G2 I-0.07850 J0
G1 Z[-0.10000+1*0.00800]
G2 I-0.07850 J0
G0 Z0.02000

G0 X0.76850 Y0.20500
G1 Z[-0.10000+12*0.00800]
G2 I-0.07850 J0
G1 Z[-0.10000+11*0.00800]
G2 I-0.07850 J0
G1 Z[-0.10000+10*0.00800]
G2 I-0.07850 J0
G1 Z[-0.10000+9*0.00800]
G2 I-0.07850 J0
G1 Z[-0.10000+8*0.00800]
G2 I-0.07850 J0
G1 Z[-0.10000+7*0.00800]
G2 I-0.07850 J0
G1 Z[-0.10000+6*0.00800]
G2 I-0.07850 J0
G1 Z[-0.10000+5*0.00800]
G2 I-0.07850 J0
G1 Z[-0.10000+4*0.00800]
G2 I-0.07850 J0
G1 Z[-0.10000+3*0.00800]
G2 I-0.07850 J0
G1 Z[-0.10000+2*0.00800]
G2 I-0.07850 J0
G1 Z[-0.10000+1*0.00800]
G2 I-0.07850 J0
G0 Z0.02000

G0 X0.59400 Y0.50500
G1 Z[-0.10000+12*0.00800]
G2 I-0.04900 J0
G1 Z[-0.10000+11*0.00800]
G2 I-0.04900 J0
G1 Z[-0.10000+10*0.00800]
G2 I-0.04900 J0
G1 Z[-0.10000+9*0.00800]
G2 I-0.04900 J0
G1 Z[-0.10000+8*0.00800]
G2 I-0.04900 J0
G1 Z[-0.10000+7*0.00800]
G2 I-0.04900 J0
G1 Z[-0.10000+6*0.00800]
G2 I-0.04900 J0
G1 Z[-0.10000+5*0.00800]
G2 I-0.04900 J0
G1 Z[-0.10000+4*0.00800]
G2 I-0.04900 J0
G1 Z[-0.10000+3*0.00800]
G2 I-0.04900 J0
G1 Z[-0.10000+2*0.00800]
G2 I-0.04900 J0
G1 Z[-0.10000+1*0.00800]
G2 I-0.04900 J0
G0 Z0.02000

G0 X0.59400 Y0.95500
G1 Z[-0.10000+12*0.00800]
G2 I-0.04900 J0
G1 Z[-0.10000+11*0.00800]
G2 I-0.04900 J0
G1 Z[-0.10000+10*0.00800]
G2 I-0.04900 J0
G1 Z[-0.10000+9*0.00800]
G2 I-0.04900 J0
G1 Z[-0.10000+8*0.00800]
G2 I-0.04900 J0
G1 Z[-0.10000+7*0.00800]
G2 I-0.04900 J0
G1 Z[-0.10000+6*0.00800]
G2 I-0.04900 J0
G1 Z[-0.10000+5*0.00800]
G2 I-0.04900 J0
G1 Z[-0.10000+4*0.00800]
G2 I-0.04900 J0
G1 Z[-0.10000+3*0.00800]
G2 I-0.04900 J0
G1 Z[-0.10000+2*0.00800]
G2 I-0.04900 J0
G1 Z[-0.10000+1*0.00800]
G2 I-0.04900 J0
G0 Z0.02000

G0 X0.68160 Y0.42040
G1 Z[-0.10000+12*0.00800]
G2 I-0.01650 J0
G1 Z[-0.10000+11*0.00800]
G2 I-0.01650 J0
G1 Z[-0.10000+10*0.00800]
G2 I-0.01650 J0
G1 Z[-0.10000+9*0.00800]
G2 I-0.01650 J0
G1 Z[-0.10000+8*0.00800]
G2 I-0.01650 J0
G1 Z[-0.10000+7*0.00800]
G2 I-0.01650 J0
G1 Z[-0.10000+6*0.00800]
G2 I-0.01650 J0
G1 Z[-0.10000+5*0.00800]
G2 I-0.01650 J0
G1 Z[-0.10000+4*0.00800]
G2 I-0.01650 J0
G1 Z[-0.10000+3*0.00800]
G2 I-0.01650 J0
G1 Z[-0.10000+2*0.00800]
G2 I-0.01650 J0
G1 Z[-0.10000+1*0.00800]
G2 I-0.01650 J0
G0 Z0.02000

G0 X0.68160 Y1.04040
G1 Z[-0.10000+12*0.00800]
G2 I-0.01650 J0
G1 Z[-0.10000+11*0.00800]
G2 I-0.01650 J0
G1 Z[-0.10000+10*0.00800]
G2 I-0.01650 J0
G1 Z[-0.10000+9*0.00800]
G2 I-0.01650 J0
G1 Z[-0.10000+8*0.00800]
G2 I-0.01650 J0
G1 Z[-0.10000+7*0.00800]
G2 I-0.01650 J0
G1 Z[-0.10000+6*0.00800]
G2 I-0.01650 J0
G1 Z[-0.10000+5*0.00800]
G2 I-0.01650 J0
G1 Z[-0.10000+4*0.00800]
G2 I-0.01650 J0
G1 Z[-0.10000+3*0.00800]
G2 I-0.01650 J0
G1 Z[-0.10000+2*0.00800]
G2 I-0.01650 J0
G1 Z[-0.10000+1*0.00800]
G2 I-0.01650 J0
G0 Z0.02000

G0 X0.21000 Y0.49500
G1 Z-0.10000
G0 Z0.02000

G0 X0.72500 Y0.60200
G1 Z-0.10000
G0 Z0.02000

G0 X0.72500 Y0.82000
G1 Z-0.10000
G0 Z0.02000

G0 X0.31250 Y0.43000
G1 Z[-0.10000+12*0.00800]
G2 I-0.00250 J0
G1 Z[-0.10000+11*0.00800]
G2 I-0.00250 J0
G1 Z[-0.10000+10*0.00800]
G2 I-0.00250 J0
G1 Z[-0.10000+9*0.00800]
G2 I-0.00250 J0
G1 Z[-0.10000+8*0.00800]
G2 I-0.00250 J0
G1 Z[-0.10000+7*0.00800]
G2 I-0.00250 J0
G1 Z[-0.10000+6*0.00800]
G2 I-0.00250 J0
G1 Z[-0.10000+5*0.00800]
G2 I-0.00250 J0
G1 Z[-0.10000+4*0.00800]
G2 I-0.00250 J0
G1 Z[-0.10000+3*0.00800]
G2 I-0.00250 J0
G1 Z[-0.10000+2*0.00800]
G2 I-0.00250 J0
G1 Z[-0.10000+1*0.00800]
G2 I-0.00250 J0
G0 Z0.02000

G00 Z0.02000 ( All done -- retract )
M5      (Spindle off.)
M9      (Coolant off.)
M2      (Program end.)

