( pcb2gcode 1.2.2 )
( Software-independent Gcode )
      
G94 ( Inches per minute feed rate. )
G20 ( Units == INCHES. )

G90 ( Absolute coordinates. )
S10000 ( RPM spindle speed. )
G64 P0.00200 ( set maximum deviation from commanded toolpath )
F1.75000 ( Feedrate. )

F1.75000 ( Feedrate. )
M3 ( Spindle on clockwise. )
G04 P0 ( dwell for no time -- G64 should not smooth over this point )
G00 Z0.02000 ( retract )

G00 X0.98100 Y1.10500 ( rapid move to begin. )
G01 Z-0.01500 F0.87500 ( plunge. )
G04 P0 ( dwell for no time -- G64 should not smooth over this point )
F1.75000
X0.98100 Y1.10500
X0.98100 Y0.77800
X0.98000 Y0.77800
X0.98000 Y0.77600
X0.97900 Y0.77600
X0.97900 Y0.77500
X0.97800 Y0.77500
X0.97800 Y0.77400
X0.97700 Y0.77400
X0.97700 Y0.77300
X0.97600 Y0.77300
X0.97600 Y0.77200
X0.97500 Y0.77200
X0.97500 Y0.77100
X0.97400 Y0.77100
X0.97400 Y0.77000
X0.97300 Y0.77000
X0.97300 Y0.76900
X0.97200 Y0.76900
X0.97200 Y0.76800
X0.97100 Y0.76800
X0.97100 Y0.76700
X0.97000 Y0.76700
X0.97000 Y0.76600
X0.96900 Y0.76600
X0.96900 Y0.76500
X0.96800 Y0.76500
X0.96800 Y0.76400
X0.96700 Y0.76400
X0.96700 Y0.76300
X0.96600 Y0.76300
X0.96600 Y0.76200
X0.96500 Y0.76200
X0.96500 Y0.76100
X0.96400 Y0.76100
X0.96400 Y0.76000
X0.96300 Y0.76000
X0.96300 Y0.75900
X0.96200 Y0.75900
X0.96200 Y0.75800
X0.96100 Y0.75800
X0.96100 Y0.75700
X0.96000 Y0.75700
X0.96000 Y0.75600
X0.95800 Y0.75600
X0.95800 Y0.75500
X0.87300 Y0.75500
X0.87300 Y0.75400
X0.87200 Y0.75400
X0.87200 Y0.75300
X0.87100 Y0.75300
X0.87100 Y0.75200
X0.87000 Y0.75200
X0.87000 Y0.75100
X0.86900 Y0.75100
X0.86900 Y0.75000
X0.86800 Y0.75000
X0.86800 Y0.74900
X0.86700 Y0.74900
X0.86700 Y0.74800
X0.86600 Y0.74800
X0.86600 Y0.05800
X0.86500 Y0.05800
X0.86500 Y0.05600
X0.86400 Y0.05600
X0.86400 Y0.05500
X0.86300 Y0.05500
X0.86300 Y0.05400
X0.86200 Y0.05400
X0.86200 Y0.05300
X0.86100 Y0.05300
X0.86100 Y0.05200
X0.86000 Y0.05200
X0.86000 Y0.05100
X0.85900 Y0.05100
X0.85900 Y0.05000
X0.85800 Y0.05000
X0.85800 Y0.04900
X0.85700 Y0.04900
X0.85700 Y0.04800
X0.85600 Y0.04800
X0.85600 Y0.04700
X0.85500 Y0.04700
X0.85500 Y0.04600
X0.85400 Y0.04600
X0.85400 Y0.04500
X0.85300 Y0.04500
X0.85300 Y0.04400
X0.85200 Y0.04400
X0.85200 Y0.04300
X0.85100 Y0.04300
X0.85100 Y0.04200
X0.85000 Y0.04200
X0.85000 Y0.04100
X0.84900 Y0.04100
X0.84900 Y0.04000
X0.84800 Y0.04000
X0.84800 Y0.03900
X0.84700 Y0.03900
X0.84700 Y0.03800
X0.84600 Y0.03800
X0.84600 Y0.03700
X0.84500 Y0.03700
X0.84500 Y0.03600
X0.84300 Y0.03600
X0.84300 Y0.03500
X0.76800 Y0.03500
X0.76800 Y0.03400
X0.76700 Y0.03400
X0.76700 Y0.03300
X0.76600 Y0.03300
X0.76600 Y0.03200
X0.76500 Y0.03200
X0.76500 Y0.03100
X0.76400 Y0.03100
X0.76400 Y0.03000
X0.76300 Y0.03000
X0.76300 Y0.02900
X0.76200 Y0.02900
X0.76200 Y0.02800
X0.76100 Y0.02800
X0.76100 Y-0.06700
X0.76000 Y-0.06700
X0.76000 Y-0.06900
X0.75900 Y-0.06900
X0.75900 Y-0.07000
X0.75800 Y-0.07000
X0.75800 Y-0.07100
X0.75700 Y-0.07100
X0.75700 Y-0.07200
X0.75600 Y-0.07200
X0.75600 Y-0.07300
X0.75500 Y-0.07300
X0.75500 Y-0.07400
X0.75400 Y-0.07400
X0.75400 Y-0.07500
X0.75300 Y-0.07500
X0.75300 Y-0.07600
X0.75200 Y-0.07600
X0.75200 Y-0.07700
X0.75100 Y-0.07700
X0.75100 Y-0.07800
X0.75000 Y-0.07800
X0.75000 Y-0.07900
X0.74900 Y-0.07900
X0.74900 Y-0.08000
X0.74800 Y-0.08000
X0.74800 Y-0.08100
X0.74700 Y-0.08100
X0.74700 Y-0.08200
X0.74600 Y-0.08200
X0.74600 Y-0.08300
X0.74500 Y-0.08300
X0.74500 Y-0.08400
X0.74400 Y-0.08400
X0.74400 Y-0.08500
X0.74300 Y-0.08500
X0.74300 Y-0.08600
X0.74200 Y-0.08600
X0.74200 Y-0.08700
X0.74100 Y-0.08700
X0.74100 Y-0.08800
X0.74000 Y-0.08800
X0.74000 Y-0.08900
X0.73800 Y-0.08900
X0.73800 Y-0.09000
X-0.10200 Y-0.09000
X-0.10200 Y-0.08900
X-0.10300 Y-0.08900
X-0.10300 Y-0.08800
X-0.10400 Y-0.08800
X-0.10400 Y-0.08700
X-0.10500 Y-0.08700
X-0.10500 Y1.20300
X-0.10400 Y1.20300
X-0.10400 Y1.20400
X-0.10300 Y1.20400
X-0.10300 Y1.20500
X-0.10200 Y1.20500
X-0.10200 Y1.20600
X0.97800 Y1.20600
X0.97800 Y1.20500
X0.97900 Y1.20500
X0.97900 Y1.20400
X0.98000 Y1.20400
X0.98000 Y1.20300
X0.98100 Y1.20300
X0.98100 Y1.10500
G01 Z-0.05000 F0.87500 ( plunge. )
G04 P0 ( dwell for no time -- G64 should not smooth over this point )
F1.75000
X0.98100 Y1.10500
X0.98100 Y0.77800
X0.98000 Y0.77800
X0.98000 Y0.77600
X0.97900 Y0.77600
X0.97900 Y0.77500
X0.97800 Y0.77500
X0.97800 Y0.77400
X0.97700 Y0.77400
X0.97700 Y0.77300
X0.97600 Y0.77300
X0.97600 Y0.77200
X0.97500 Y0.77200
X0.97500 Y0.77100
X0.97400 Y0.77100
X0.97400 Y0.77000
X0.97300 Y0.77000
X0.97300 Y0.76900
X0.97200 Y0.76900
X0.97200 Y0.76800
X0.97100 Y0.76800
X0.97100 Y0.76700
X0.97000 Y0.76700
X0.97000 Y0.76600
X0.96900 Y0.76600
X0.96900 Y0.76500
X0.96800 Y0.76500
X0.96800 Y0.76400
X0.96700 Y0.76400
X0.96700 Y0.76300
X0.96600 Y0.76300
X0.96600 Y0.76200
X0.96500 Y0.76200
X0.96500 Y0.76100
X0.96400 Y0.76100
X0.96400 Y0.76000
X0.96300 Y0.76000
X0.96300 Y0.75900
X0.96200 Y0.75900
X0.96200 Y0.75800
X0.96100 Y0.75800
X0.96100 Y0.75700
X0.96000 Y0.75700
X0.96000 Y0.75600
X0.95800 Y0.75600
X0.95800 Y0.75500
X0.87300 Y0.75500
X0.87300 Y0.75400
X0.87200 Y0.75400
X0.87200 Y0.75300
X0.87100 Y0.75300
X0.87100 Y0.75200
X0.87000 Y0.75200
X0.87000 Y0.75100
X0.86900 Y0.75100
X0.86900 Y0.75000
X0.86800 Y0.75000
X0.86800 Y0.74900
X0.86700 Y0.74900
X0.86700 Y0.74800
X0.86600 Y0.74800
X0.86600 Y0.05800
X0.86500 Y0.05800
X0.86500 Y0.05600
X0.86400 Y0.05600
X0.86400 Y0.05500
X0.86300 Y0.05500
X0.86300 Y0.05400
X0.86200 Y0.05400
X0.86200 Y0.05300
X0.86100 Y0.05300
X0.86100 Y0.05200
X0.86000 Y0.05200
X0.86000 Y0.05100
X0.85900 Y0.05100
X0.85900 Y0.05000
X0.85800 Y0.05000
X0.85800 Y0.04900
X0.85700 Y0.04900
X0.85700 Y0.04800
X0.85600 Y0.04800
X0.85600 Y0.04700
X0.85500 Y0.04700
X0.85500 Y0.04600
X0.85400 Y0.04600
X0.85400 Y0.04500
X0.85300 Y0.04500
X0.85300 Y0.04400
X0.85200 Y0.04400
X0.85200 Y0.04300
X0.85100 Y0.04300
X0.85100 Y0.04200
X0.85000 Y0.04200
X0.85000 Y0.04100
X0.84900 Y0.04100
X0.84900 Y0.04000
X0.84800 Y0.04000
X0.84800 Y0.03900
X0.84700 Y0.03900
X0.84700 Y0.03800
X0.84600 Y0.03800
X0.84600 Y0.03700
X0.84500 Y0.03700
X0.84500 Y0.03600
X0.84300 Y0.03600
X0.84300 Y0.03500
X0.76800 Y0.03500
X0.76800 Y0.03400
X0.76700 Y0.03400
X0.76700 Y0.03300
X0.76600 Y0.03300
X0.76600 Y0.03200
X0.76500 Y0.03200
X0.76500 Y0.03100
X0.76400 Y0.03100
X0.76400 Y0.03000
X0.76300 Y0.03000
X0.76300 Y0.02900
X0.76200 Y0.02900
X0.76200 Y0.02800
X0.76100 Y0.02800
X0.76100 Y-0.06700
X0.76000 Y-0.06700
X0.76000 Y-0.06900
X0.75900 Y-0.06900
X0.75900 Y-0.07000
X0.75800 Y-0.07000
X0.75800 Y-0.07100
X0.75700 Y-0.07100
X0.75700 Y-0.07200
X0.75600 Y-0.07200
X0.75600 Y-0.07300
X0.75500 Y-0.07300
X0.75500 Y-0.07400
X0.75400 Y-0.07400
X0.75400 Y-0.07500
X0.75300 Y-0.07500
X0.75300 Y-0.07600
X0.75200 Y-0.07600
X0.75200 Y-0.07700
X0.75100 Y-0.07700
X0.75100 Y-0.07800
X0.75000 Y-0.07800
X0.75000 Y-0.07900
X0.74900 Y-0.07900
X0.74900 Y-0.08000
X0.74800 Y-0.08000
X0.74800 Y-0.08100
X0.74700 Y-0.08100
X0.74700 Y-0.08200
X0.74600 Y-0.08200
X0.74600 Y-0.08300
X0.74500 Y-0.08300
X0.74500 Y-0.08400
X0.74400 Y-0.08400
X0.74400 Y-0.08500
X0.74300 Y-0.08500
X0.74300 Y-0.08600
X0.74200 Y-0.08600
X0.74200 Y-0.08700
X0.74100 Y-0.08700
X0.74100 Y-0.08800
X0.74000 Y-0.08800
X0.74000 Y-0.08900
X0.73800 Y-0.08900
X0.73800 Y-0.09000
X-0.10200 Y-0.09000
X-0.10200 Y-0.08900
X-0.10300 Y-0.08900
X-0.10300 Y-0.08800
X-0.10400 Y-0.08800
X-0.10400 Y-0.08700
X-0.10500 Y-0.08700
X-0.10500 Y1.20300
X-0.10400 Y1.20300
X-0.10400 Y1.20400
X-0.10300 Y1.20400
X-0.10300 Y1.20500
X-0.10200 Y1.20500
X-0.10200 Y1.20600
X0.97800 Y1.20600
X0.97800 Y1.20500
X0.97900 Y1.20500
X0.97900 Y1.20400
X0.98000 Y1.20400
X0.98000 Y1.20300
X0.98100 Y1.20300
X0.98100 Y1.10500
G01 Z-0.08500 F0.87500 ( plunge. )
G04 P0 ( dwell for no time -- G64 should not smooth over this point )
F1.75000
X0.98100 Y1.10500
X0.98100 Y0.77800
X0.98000 Y0.77800
X0.98000 Y0.77600
X0.97900 Y0.77600
X0.97900 Y0.77500
X0.97800 Y0.77500
X0.97800 Y0.77400
X0.97700 Y0.77400
X0.97700 Y0.77300
X0.97600 Y0.77300
X0.97600 Y0.77200
X0.97500 Y0.77200
X0.97500 Y0.77100
X0.97400 Y0.77100
X0.97400 Y0.77000
X0.97300 Y0.77000
X0.97300 Y0.76900
X0.97200 Y0.76900
X0.97200 Y0.76800
X0.97100 Y0.76800
X0.97100 Y0.76700
X0.97000 Y0.76700
X0.97000 Y0.76600
X0.96900 Y0.76600
X0.96900 Y0.76500
X0.96800 Y0.76500
X0.96800 Y0.76400
X0.96700 Y0.76400
X0.96700 Y0.76300
X0.96600 Y0.76300
X0.96600 Y0.76200
X0.96500 Y0.76200
X0.96500 Y0.76100
X0.96400 Y0.76100
X0.96400 Y0.76000
X0.96300 Y0.76000
X0.96300 Y0.75900
X0.96200 Y0.75900
X0.96200 Y0.75800
X0.96100 Y0.75800
X0.96100 Y0.75700
X0.96000 Y0.75700
X0.96000 Y0.75600
X0.95800 Y0.75600
X0.95800 Y0.75500
X0.87300 Y0.75500
X0.87300 Y0.75400
X0.87200 Y0.75400
X0.87200 Y0.75300
X0.87100 Y0.75300
X0.87100 Y0.75200
X0.87000 Y0.75200
X0.87000 Y0.75100
X0.86900 Y0.75100
X0.86900 Y0.75000
X0.86800 Y0.75000
X0.86800 Y0.74900
X0.86700 Y0.74900
X0.86700 Y0.74800
X0.86600 Y0.74800
X0.86600 Y0.05800
X0.86500 Y0.05800
X0.86500 Y0.05600
X0.86400 Y0.05600
X0.86400 Y0.05500
X0.86300 Y0.05500
X0.86300 Y0.05400
X0.86200 Y0.05400
X0.86200 Y0.05300
X0.86100 Y0.05300
X0.86100 Y0.05200
X0.86000 Y0.05200
X0.86000 Y0.05100
X0.85900 Y0.05100
X0.85900 Y0.05000
X0.85800 Y0.05000
X0.85800 Y0.04900
X0.85700 Y0.04900
X0.85700 Y0.04800
X0.85600 Y0.04800
X0.85600 Y0.04700
X0.85500 Y0.04700
X0.85500 Y0.04600
X0.85400 Y0.04600
X0.85400 Y0.04500
X0.85300 Y0.04500
X0.85300 Y0.04400
X0.85200 Y0.04400
X0.85200 Y0.04300
X0.85100 Y0.04300
X0.85100 Y0.04200
X0.85000 Y0.04200
X0.85000 Y0.04100
X0.84900 Y0.04100
X0.84900 Y0.04000
X0.84800 Y0.04000
X0.84800 Y0.03900
X0.84700 Y0.03900
X0.84700 Y0.03800
X0.84600 Y0.03800
X0.84600 Y0.03700
X0.84500 Y0.03700
X0.84500 Y0.03600
X0.84300 Y0.03600
X0.84300 Y0.03500
X0.76800 Y0.03500
X0.76800 Y0.03400
X0.76700 Y0.03400
X0.76700 Y0.03300
X0.76600 Y0.03300
X0.76600 Y0.03200
X0.76500 Y0.03200
X0.76500 Y0.03100
X0.76400 Y0.03100
X0.76400 Y0.03000
X0.76300 Y0.03000
X0.76300 Y0.02900
X0.76200 Y0.02900
X0.76200 Y0.02800
X0.76100 Y0.02800
X0.76100 Y-0.06700
X0.76000 Y-0.06700
X0.76000 Y-0.06900
X0.75900 Y-0.06900
X0.75900 Y-0.07000
X0.75800 Y-0.07000
X0.75800 Y-0.07100
X0.75700 Y-0.07100
X0.75700 Y-0.07200
X0.75600 Y-0.07200
X0.75600 Y-0.07300
X0.75500 Y-0.07300
X0.75500 Y-0.07400
X0.75400 Y-0.07400
X0.75400 Y-0.07500
X0.75300 Y-0.07500
X0.75300 Y-0.07600
X0.75200 Y-0.07600
X0.75200 Y-0.07700
X0.75100 Y-0.07700
X0.75100 Y-0.07800
X0.75000 Y-0.07800
X0.75000 Y-0.07900
X0.74900 Y-0.07900
X0.74900 Y-0.08000
X0.74800 Y-0.08000
X0.74800 Y-0.08100
X0.74700 Y-0.08100
X0.74700 Y-0.08200
X0.74600 Y-0.08200
X0.74600 Y-0.08300
X0.74500 Y-0.08300
X0.74500 Y-0.08400
X0.74400 Y-0.08400
X0.74400 Y-0.08500
X0.74300 Y-0.08500
X0.74300 Y-0.08600
X0.74200 Y-0.08600
X0.74200 Y-0.08700
X0.74100 Y-0.08700
X0.74100 Y-0.08800
X0.74000 Y-0.08800
X0.74000 Y-0.08900
X0.73800 Y-0.08900
X0.73800 Y-0.09000
X-0.10200 Y-0.09000
X-0.10200 Y-0.08900
X-0.10300 Y-0.08900
X-0.10300 Y-0.08800
X-0.10400 Y-0.08800
X-0.10400 Y-0.08700
X-0.10500 Y-0.08700
X-0.10500 Y1.20300
X-0.10400 Y1.20300
X-0.10400 Y1.20400
X-0.10300 Y1.20400
X-0.10300 Y1.20500
X-0.10200 Y1.20500
X-0.10200 Y1.20600
X0.97800 Y1.20600
X0.97800 Y1.20500
X0.97900 Y1.20500
X0.97900 Y1.20400
X0.98000 Y1.20400
X0.98000 Y1.20300
X0.98100 Y1.20300
X0.98100 Y1.10500

G04 P0 ( dwell for no time -- G64 should not smooth over this point )
G00 Z0.02000 ( retract )

M5 ( Spindle off. )
M9 ( Coolant off. )
M2 ( Program end. )

