M106 S255 (Fan on.)
G0 x100 y100 f2000 (  Set origin and speed.  )
( pcb2gcode 1.2.2 )
( Software-independent Gcode )





S10000 ( RPM spindle speed. )
G64 P0.00200 ( set maximum deviation from commanded toolpath )
F2000.00000 ( Feedrate. )

F2000.00000 ( Feedrate. )
M400
M5
M42 P13 S0 (OFF - LASER)
G00 Z0.25000 ( retract )

G00 X101.54508 Y110.20368 F2000 (rapid move to begin)
F1000.00000
G01 Z0.00000
F2000.00000
G0 X101.54508 Y110.20368 F240
G0 X101.54508 Y109.64488 F240
G0 X101.92608 Y109.64488 F240
G0 X101.92608 Y110.22908 F240
G0 X101.54508 Y110.22908 F240
G0 X101.54508 Y110.20368 F240
M400
M5
M42 P13 S0 (OFF - LASER)
G00 Z0.25000 ( retract )

G00 X102.35788 Y110.20368 F2000 (rapid move to begin)
F1000.00000
G01 Z0.00000
F2000.00000
G0 X102.35788 Y110.20368 F240
G0 X102.35788 Y109.64488 F240
G0 X102.71348 Y109.64488 F240
G0 X102.71348 Y110.22908 F240
G0 X102.35788 Y110.22908 F240
G0 X102.35788 Y110.20368 F240
M400
M5
M42 P13 S0 (OFF - LASER)
G00 Z0.25000 ( retract )

G00 X102.35788 Y111.60068 F2000 (rapid move to begin)
F1000.00000
G01 Z0.00000
F2000.00000
G0 X102.35788 Y111.60068 F240
G0 X102.35788 Y111.04188 F240
G0 X102.71348 Y111.04188 F240
G0 X102.71348 Y111.62608 F240
G0 X102.35788 Y111.62608 F240
G0 X102.35788 Y111.60068 F240
M400
M5
M42 P13 S0 (OFF - LASER)
G00 Z0.25000 ( retract )

G00 X101.54508 Y111.60068 F2000 (rapid move to begin)
F1000.00000
G01 Z0.00000
F2000.00000
G0 X101.54508 Y111.60068 F240
G0 X101.54508 Y111.04188 F240
G0 X101.92608 Y111.04188 F240
G0 X101.92608 Y111.62608 F240
G0 X101.54508 Y111.62608 F240
G0 X101.54508 Y111.60068 F240
M400
M5
M42 P13 S0 (OFF - LASER)
G00 Z0.25000 ( retract )

G00 X107.74268 Y117.06168 F2000 (rapid move to begin)
F1000.00000
G01 Z0.00000
F2000.00000
G0 X107.74268 Y117.06168 F240
G0 X107.74268 Y113.53108 F240
G0 X112.31468 Y113.53108 F240
G0 X112.31468 Y117.08708 F240
G0 X107.74268 Y117.08708 F240
G0 X107.74268 Y117.06168 F240
M400
M5
M42 P13 S0 (OFF - LASER)
G00 Z0.25000 ( retract )

G00 X107.74268 Y122.59888 F2000 (rapid move to begin)
F1000.00000
G01 Z0.00000
F2000.00000
G0 X107.74268 Y122.59888 F240
G0 X107.74268 Y119.06828 F240
G0 X112.31468 Y119.06828 F240
G0 X112.31468 Y122.62428 F240
G0 X107.74268 Y122.62428 F240
G0 X107.74268 Y122.59888 F240

M400
M5
M42 P13 S0 (OFF - LASER)
G00 Z0.25000 ( retract )

M5 ( Spindle off. )
M9 ( Coolant off. )

M106 S0 (Fan off.)
