M106 S255 (Fan on.)
G0 x100 y100 f2000 (  Set origin and speed.  )
( pcb2gcode 1.2.2 )
( Software-independent Gcode )





S10000 ( RPM spindle speed. )
G64 P0.00200 ( set maximum deviation from commanded toolpath )
F2000.00000 ( Feedrate. )

F2000.00000 ( Feedrate. )
M400
M5
M42 P13 S0 (OFF - LASER)
G00 Z0.25000 ( retract )

G00 X101.54508 Y110.22908 F2000 (rapid move to begin)
F1000.00000
G01 Z0.00000
F2000.00000
G0 X101.54508 Y110.22908 F240
G0 X101.54508 Y109.64488 F240
G0 X101.95148 Y109.64488 F240
G0 X101.95148 Y110.25448 F240
G0 X101.54508 Y110.25448 F240
G0 X101.54508 Y110.22908 F240
M400
M5
M42 P13 S0 (OFF - LASER)
G00 Z0.25000 ( retract )

G00 X102.35788 Y110.22908 F2000 (rapid move to begin)
F1000.00000
G01 Z0.00000
F2000.00000
G0 X102.35788 Y110.22908 F240
G0 X102.35788 Y109.64488 F240
G0 X102.73888 Y109.64488 F240
G0 X102.73888 Y110.25448 F240
G0 X102.35788 Y110.25448 F240
G0 X102.35788 Y110.22908 F240
M400
M5
M42 P13 S0 (OFF - LASER)
G00 Z0.25000 ( retract )

G00 X102.35788 Y111.62608 F2000 (rapid move to begin)
F1000.00000
G01 Z0.00000
F2000.00000
G0 X102.35788 Y111.62608 F240
G0 X102.35788 Y111.04188 F240
G0 X102.73888 Y111.04188 F240
G0 X102.73888 Y111.65148 F240
G0 X102.35788 Y111.65148 F240
G0 X102.35788 Y111.62608 F240
M400
M5
M42 P13 S0 (OFF - LASER)
G00 Z0.25000 ( retract )

G00 X101.54508 Y111.62608 F2000 (rapid move to begin)
F1000.00000
G01 Z0.00000
F2000.00000
G0 X101.54508 Y111.62608 F240
G0 X101.54508 Y111.04188 F240
G0 X101.95148 Y111.04188 F240
G0 X101.95148 Y111.65148 F240
G0 X101.54508 Y111.65148 F240
G0 X101.54508 Y111.62608 F240
M400
M5
M42 P13 S0 (OFF - LASER)
G00 Z0.25000 ( retract )

G00 X107.74268 Y117.08708 F2000 (rapid move to begin)
F1000.00000
G01 Z0.00000
F2000.00000
G0 X107.74268 Y117.08708 F240
G0 X107.74268 Y113.53108 F240
G0 X112.34008 Y113.53108 F240
G0 X112.34008 Y117.11248 F240
G0 X107.74268 Y117.11248 F240
G0 X107.74268 Y117.08708 F240
M400
M5
M42 P13 S0 (OFF - LASER)
G00 Z0.25000 ( retract )

G00 X107.74268 Y122.62428 F2000 (rapid move to begin)
F1000.00000
G01 Z0.00000
F2000.00000
G0 X107.74268 Y122.62428 F240
G0 X107.74268 Y119.06828 F240
G0 X112.34008 Y119.06828 F240
G0 X112.34008 Y122.64968 F240
G0 X107.74268 Y122.64968 F240
G0 X107.74268 Y122.62428 F240

M400
M5
M42 P13 S0 (OFF - LASER)
G00 Z0.25000 ( retract )

M5 ( Spindle off. )
M9 ( Coolant off. )

M106 S0 (Fan off.)
