M106 S255 (Fan on.)
G0 x100 y100 f2000 (  Set origin and speed.  )
( pcb2gcode 1.2.2 )
( Software-independent Gcode )





S10000 ( RPM spindle speed. )
G64 P0.00200 ( set maximum deviation from commanded toolpath )
F2000.00000 ( Feedrate. )

F2000.00000 ( Feedrate. )
M400
M5
M42 P13 S0 (OFF - LASER)
G00 Z0.25000 ( retract )

G00 X101.57048 Y110.17828 F2000 (rapid move to begin)
F1000.00000
G01 Z0.00000
F2000.00000
G0 X101.57048 Y110.17828 F240
G0 X101.57048 Y109.67028 F240
G0 X101.90068 Y109.67028 F240
G0 X101.90068 Y110.20368 F240
G0 X101.57048 Y110.20368 F240
G0 X101.57048 Y110.17828 F240
M400
M5
M42 P13 S0 (OFF - LASER)
G00 Z0.25000 ( retract )

G00 X102.38328 Y110.17828 F2000 (rapid move to begin)
F1000.00000
G01 Z0.00000
F2000.00000
G0 X102.38328 Y110.17828 F240
G0 X102.38328 Y109.67028 F240
G0 X102.68808 Y109.67028 F240
G0 X102.68808 Y110.20368 F240
G0 X102.38328 Y110.20368 F240
G0 X102.38328 Y110.17828 F240
M400
M5
M42 P13 S0 (OFF - LASER)
G00 Z0.25000 ( retract )

G00 X102.38328 Y111.57528 F2000 (rapid move to begin)
F1000.00000
G01 Z0.00000
F2000.00000
G0 X102.38328 Y111.57528 F240
G0 X102.38328 Y111.06728 F240
G0 X102.68808 Y111.06728 F240
G0 X102.68808 Y111.60068 F240
G0 X102.38328 Y111.60068 F240
G0 X102.38328 Y111.57528 F240
M400
M5
M42 P13 S0 (OFF - LASER)
G00 Z0.25000 ( retract )

G00 X101.57048 Y111.57528 F2000 (rapid move to begin)
F1000.00000
G01 Z0.00000
F2000.00000
G0 X101.57048 Y111.57528 F240
G0 X101.57048 Y111.06728 F240
G0 X101.90068 Y111.06728 F240
G0 X101.90068 Y111.60068 F240
G0 X101.57048 Y111.60068 F240
G0 X101.57048 Y111.57528 F240
M400
M5
M42 P13 S0 (OFF - LASER)
G00 Z0.25000 ( retract )

G00 X107.76808 Y117.03628 F2000 (rapid move to begin)
F1000.00000
G01 Z0.00000
F2000.00000
G0 X107.76808 Y117.03628 F240
G0 X107.76808 Y113.55648 F240
G0 X112.28928 Y113.55648 F240
G0 X112.28928 Y117.06168 F240
G0 X107.76808 Y117.06168 F240
G0 X107.76808 Y117.03628 F240
M400
M5
M42 P13 S0 (OFF - LASER)
G00 Z0.25000 ( retract )

G00 X107.76808 Y122.57348 F2000 (rapid move to begin)
F1000.00000
G01 Z0.00000
F2000.00000
G0 X107.76808 Y122.57348 F240
G0 X107.76808 Y119.09368 F240
G0 X112.28928 Y119.09368 F240
G0 X112.28928 Y122.59888 F240
G0 X107.76808 Y122.59888 F240
G0 X107.76808 Y122.57348 F240

M400
M5
M42 P13 S0 (OFF - LASER)
G00 Z0.25000 ( retract )

M5 ( Spindle off. )
M9 ( Coolant off. )

M106 S0 (Fan off.)
