M106 S255 (Fan on.)
G0 x100 y100 f2000 (  Set origin and speed.  )
( pcb2gcode 1.2.2 )
( Software-independent Gcode )





S10000 ( RPM spindle speed. )
G64 P0.00200 ( set maximum deviation from commanded toolpath )
F2000.00000 ( Feedrate. )

F2000.00000 ( Feedrate. )
M400
M5
M42 P13 S0 (OFF - LASER)
G00 Z0.25000 ( retract )

G00 X105.05460 Y132.63188 F2000 (rapid move to begin)
F1000.00000
G01 Z0.00000
F2000.00000
G0 X105.05460 Y132.63188 F240
G0 X105.05460 Y128.08528 F240
G0 X101.49860 Y128.08528 F240
G0 X101.49860 Y132.65728 F240
G0 X105.05460 Y132.65728 F240
G0 X105.05460 Y132.63188 F240
M400
M5
M42 P13 S0 (OFF - LASER)
G00 Z0.25000 ( retract )

G00 X110.59180 Y132.63188 F2000 (rapid move to begin)
F1000.00000
G01 Z0.00000
F2000.00000
G0 X110.59180 Y132.63188 F240
G0 X110.59180 Y128.08528 F240
G0 X107.03580 Y128.08528 F240
G0 X107.03580 Y132.65728 F240
G0 X110.59180 Y132.65728 F240
G0 X110.59180 Y132.63188 F240
M400
M5
M42 P13 S0 (OFF - LASER)
G00 Z0.25000 ( retract )

G00 X110.59180 Y138.98188 F2000 (rapid move to begin)
F1000.00000
G01 Z0.00000
F2000.00000
G0 X110.59180 Y138.98188 F240
G0 X110.59180 Y134.43528 F240
G0 X107.03580 Y134.43528 F240
G0 X107.03580 Y139.00728 F240
G0 X110.59180 Y139.00728 F240
G0 X110.59180 Y138.98188 F240
M400
M5
M42 P13 S0 (OFF - LASER)
G00 Z0.25000 ( retract )

G00 X105.05460 Y138.98188 F2000 (rapid move to begin)
F1000.00000
G01 Z0.00000
F2000.00000
G0 X105.05460 Y138.98188 F240
G0 X105.05460 Y134.43528 F240
G0 X101.49860 Y134.43528 F240
G0 X101.49860 Y139.00728 F240
G0 X105.05460 Y139.00728 F240
G0 X105.05460 Y138.98188 F240
M400
M5
M42 P13 S0 (OFF - LASER)
G00 Z0.25000 ( retract )

G00 X117.62760 Y138.47388 F2000 (rapid move to begin)
F1000.00000
G01 Z0.00000
F2000.00000
G0 X117.62760 Y138.47388 F240
G0 X117.62760 Y134.94328 F240
G0 X113.05560 Y134.94328 F240
G0 X113.05560 Y138.49928 F240
G0 X117.62760 Y138.49928 F240
G0 X117.62760 Y138.47388 F240
M400
M5
M42 P13 S0 (OFF - LASER)
G00 Z0.25000 ( retract )

G00 X117.62760 Y132.93668 F2000 (rapid move to begin)
F1000.00000
G01 Z0.00000
F2000.00000
G0 X117.62760 Y132.93668 F240
G0 X117.62760 Y129.40608 F240
G0 X113.05560 Y129.40608 F240
G0 X113.05560 Y132.96208 F240
G0 X117.62760 Y132.96208 F240
G0 X117.62760 Y132.93668 F240
M400
M5
M42 P13 S0 (OFF - LASER)
G00 Z0.25000 ( retract )

G00 X139.90340 Y122.64968 F2000 (rapid move to begin)
F1000.00000
G01 Z0.00000
F2000.00000
G0 X139.90340 Y122.64968 F240
G0 X139.90340 Y122.09088 F240
G0 X139.54780 Y122.09088 F240
G0 X139.54780 Y122.67508 F240
G0 X139.90340 Y122.67508 F240
G0 X139.90340 Y122.64968 F240
M400
M5
M42 P13 S0 (OFF - LASER)
G00 Z0.25000 ( retract )

G00 X140.71620 Y122.64968 F2000 (rapid move to begin)
F1000.00000
G01 Z0.00000
F2000.00000
G0 X140.71620 Y122.64968 F240
G0 X140.71620 Y122.09088 F240
G0 X140.33520 Y122.09088 F240
G0 X140.33520 Y122.67508 F240
G0 X140.71620 Y122.67508 F240
G0 X140.71620 Y122.64968 F240
M400
M5
M42 P13 S0 (OFF - LASER)
G00 Z0.25000 ( retract )

G00 X149.40300 Y126.76448 F2000 (rapid move to begin)
F1000.00000
G01 Z0.00000
F2000.00000
G0 X149.40300 Y126.76448 F240
G0 X149.45380 Y126.76448 F240
G0 X149.45380 Y126.73908 F240
G0 X149.47920 Y126.73908 F240
G0 X149.47920 Y126.71368 F240
G0 X149.50460 Y126.71368 F240
G0 X149.50460 Y126.66288 F240
G0 X149.53000 Y126.66288 F240
G0 X149.53000 Y123.69108 F240
G0 X149.50460 Y123.69108 F240
G0 X149.50460 Y123.64028 F240
G0 X149.47920 Y123.64028 F240
G0 X149.47920 Y123.61488 F240
G0 X149.45380 Y123.61488 F240
G0 X149.45380 Y123.58948 F240
G0 X149.40300 Y123.58948 F240
G0 X149.40300 Y123.56408 F240
G0 X147.32020 Y123.56408 F240
G0 X147.32020 Y123.58948 F240
G0 X147.26940 Y123.58948 F240
G0 X147.26940 Y123.61488 F240
G0 X147.24400 Y123.61488 F240
G0 X147.24400 Y123.64028 F240
G0 X147.21860 Y123.64028 F240
G0 X147.21860 Y123.69108 F240
G0 X147.19320 Y123.69108 F240
G0 X147.19320 Y126.66288 F240
G0 X147.21860 Y126.66288 F240
G0 X147.21860 Y126.71368 F240
G0 X147.24400 Y126.71368 F240
G0 X147.24400 Y126.73908 F240
G0 X147.26940 Y126.73908 F240
G0 X147.26940 Y126.76448 F240
G0 X147.32020 Y126.76448 F240
G0 X147.32020 Y126.78988 F240
G0 X149.40300 Y126.78988 F240
G0 X149.40300 Y126.76448 F240
M400
M5
M42 P13 S0 (OFF - LASER)
G00 Z0.25000 ( retract )

G00 X149.40300 Y131.97148 F2000 (rapid move to begin)
F1000.00000
G01 Z0.00000
F2000.00000
G0 X149.40300 Y131.97148 F240
G0 X149.45380 Y131.97148 F240
G0 X149.45380 Y131.94608 F240
G0 X149.47920 Y131.94608 F240
G0 X149.47920 Y131.92068 F240
G0 X149.50460 Y131.92068 F240
G0 X149.50460 Y131.86988 F240
G0 X149.53000 Y131.86988 F240
G0 X149.53000 Y128.89808 F240
G0 X149.50460 Y128.89808 F240
G0 X149.50460 Y128.84728 F240
G0 X149.47920 Y128.84728 F240
G0 X149.47920 Y128.82188 F240
G0 X149.45380 Y128.82188 F240
G0 X149.45380 Y128.79648 F240
G0 X149.40300 Y128.79648 F240
G0 X149.40300 Y128.77108 F240
G0 X147.32020 Y128.77108 F240
G0 X147.32020 Y128.79648 F240
G0 X147.26940 Y128.79648 F240
G0 X147.26940 Y128.82188 F240
G0 X147.24400 Y128.82188 F240
G0 X147.24400 Y128.84728 F240
G0 X147.21860 Y128.84728 F240
G0 X147.21860 Y128.89808 F240
G0 X147.19320 Y128.89808 F240
G0 X147.19320 Y131.86988 F240
G0 X147.21860 Y131.86988 F240
G0 X147.21860 Y131.92068 F240
G0 X147.24400 Y131.92068 F240
G0 X147.24400 Y131.94608 F240
G0 X147.26940 Y131.94608 F240
G0 X147.26940 Y131.97148 F240
G0 X147.32020 Y131.97148 F240
G0 X147.32020 Y131.99688 F240
G0 X149.40300 Y131.99688 F240
G0 X149.40300 Y131.97148 F240
M400
M5
M42 P13 S0 (OFF - LASER)
G00 Z0.25000 ( retract )

G00 X148.31080 Y138.21988 F2000 (rapid move to begin)
F1000.00000
G01 Z0.00000
F2000.00000
G0 X148.31080 Y138.21988 F240
G0 X148.31080 Y136.46728 F240
G0 X147.14240 Y136.46728 F240
G0 X147.14240 Y138.24528 F240
G0 X148.31080 Y138.24528 F240
G0 X148.31080 Y138.21988 F240
M400
M5
M42 P13 S0 (OFF - LASER)
G00 Z0.25000 ( retract )

G00 X151.30800 Y138.21988 F2000 (rapid move to begin)
F1000.00000
G01 Z0.00000
F2000.00000
G0 X151.30800 Y138.21988 F240
G0 X151.30800 Y136.46728 F240
G0 X150.13960 Y136.46728 F240
G0 X150.13960 Y138.24528 F240
G0 X151.30800 Y138.24528 F240
G0 X151.30800 Y138.21988 F240
M400
M5
M42 P13 S0 (OFF - LASER)
G00 Z0.25000 ( retract )

G00 X158.01360 Y132.12388 F2000 (rapid move to begin)
F1000.00000
G01 Z0.00000
F2000.00000
G0 X158.01360 Y132.12388 F240
G0 X158.01360 Y128.59328 F240
G0 X153.44160 Y128.59328 F240
G0 X153.44160 Y132.14928 F240
G0 X158.01360 Y132.14928 F240
G0 X158.01360 Y132.12388 F240
M400
M5
M42 P13 S0 (OFF - LASER)
G00 Z0.25000 ( retract )

G00 X158.01360 Y126.58668 F2000 (rapid move to begin)
F1000.00000
G01 Z0.00000
F2000.00000
G0 X158.01360 Y126.58668 F240
G0 X158.01360 Y123.05608 F240
G0 X153.44160 Y123.05608 F240
G0 X153.44160 Y126.61208 F240
G0 X158.01360 Y126.61208 F240
G0 X158.01360 Y126.58668 F240
M400
M5
M42 P13 S0 (OFF - LASER)
G00 Z0.25000 ( retract )

G00 X173.55840 Y122.64968 F2000 (rapid move to begin)
F1000.00000
G01 Z0.00000
F2000.00000
G0 X173.55840 Y122.64968 F240
G0 X173.55840 Y122.09088 F240
G0 X173.20280 Y122.09088 F240
G0 X173.20280 Y122.67508 F240
G0 X173.55840 Y122.67508 F240
G0 X173.55840 Y122.64968 F240
M400
M5
M42 P13 S0 (OFF - LASER)
G00 Z0.25000 ( retract )

G00 X174.37120 Y122.64968 F2000 (rapid move to begin)
F1000.00000
G01 Z0.00000
F2000.00000
G0 X174.37120 Y122.64968 F240
G0 X174.37120 Y122.09088 F240
G0 X173.99020 Y122.09088 F240
G0 X173.99020 Y122.67508 F240
G0 X174.37120 Y122.67508 F240
G0 X174.37120 Y122.64968 F240
M400
M5
M42 P13 S0 (OFF - LASER)
G00 Z0.25000 ( retract )

G00 X171.27240 Y137.25468 F2000 (rapid move to begin)
F1000.00000
G01 Z0.00000
F2000.00000
G0 X171.27240 Y137.25468 F240
G0 X171.27240 Y136.69588 F240
G0 X170.91680 Y136.69588 F240
G0 X170.91680 Y137.28008 F240
G0 X171.27240 Y137.28008 F240
G0 X171.27240 Y137.25468 F240
M400
M5
M42 P13 S0 (OFF - LASER)
G00 Z0.25000 ( retract )

G00 X170.48500 Y137.25468 F2000 (rapid move to begin)
F1000.00000
G01 Z0.00000
F2000.00000
G0 X170.48500 Y137.25468 F240
G0 X170.48500 Y136.69588 F240
G0 X170.10400 Y136.69588 F240
G0 X170.10400 Y137.28008 F240
G0 X170.48500 Y137.28008 F240
G0 X170.48500 Y137.25468 F240

M400
M5
M42 P13 S0 (OFF - LASER)
G00 Z0.25000 ( retract )

M5 ( Spindle off. )
M9 ( Coolant off. )

M106 S0 (Fan off.)
