M106 S255 (Fan on.)
G0 x100 y100 f2000 (  Set origin and speed.  )
( pcb2gcode 1.2.2 )
( Software-independent Gcode )





S10000 ( RPM spindle speed. )
G64 P0.00200 ( set maximum deviation from commanded toolpath )
F2000.00000 ( Feedrate. )

F2000.00000 ( Feedrate. )
M400
M5
M42 P13 S0 (OFF - LASER)
G00 Z0.25000 ( retract )

G00 X105.05460 Y132.63823 F2000 (rapid move to begin)
F1000.00000
G01 Z0.00000
F2000.00000
G0 X105.05460 Y132.63823 F240
G0 X105.05460 Y128.09163 F240
G0 X101.49860 Y128.09163 F240
G0 X101.49860 Y132.66363 F240
G0 X105.05460 Y132.66363 F240
G0 X105.05460 Y132.63823 F240
M400
M5
M42 P13 S0 (OFF - LASER)
G00 Z0.25000 ( retract )

G00 X110.59180 Y132.63823 F2000 (rapid move to begin)
F1000.00000
G01 Z0.00000
F2000.00000
G0 X110.59180 Y132.63823 F240
G0 X110.59180 Y128.09163 F240
G0 X107.03580 Y128.09163 F240
G0 X107.03580 Y132.66363 F240
G0 X110.59180 Y132.66363 F240
G0 X110.59180 Y132.63823 F240
M400
M5
M42 P13 S0 (OFF - LASER)
G00 Z0.25000 ( retract )

G00 X110.59180 Y138.98823 F2000 (rapid move to begin)
F1000.00000
G01 Z0.00000
F2000.00000
G0 X110.59180 Y138.98823 F240
G0 X110.59180 Y134.44163 F240
G0 X107.03580 Y134.44163 F240
G0 X107.03580 Y139.01363 F240
G0 X110.59180 Y139.01363 F240
G0 X110.59180 Y138.98823 F240
M400
M5
M42 P13 S0 (OFF - LASER)
G00 Z0.25000 ( retract )

G00 X105.05460 Y138.98823 F2000 (rapid move to begin)
F1000.00000
G01 Z0.00000
F2000.00000
G0 X105.05460 Y138.98823 F240
G0 X105.05460 Y134.44163 F240
G0 X101.49860 Y134.44163 F240
G0 X101.49860 Y139.01363 F240
G0 X105.05460 Y139.01363 F240
G0 X105.05460 Y138.98823 F240
M400
M5
M42 P13 S0 (OFF - LASER)
G00 Z0.25000 ( retract )

G00 X117.62760 Y138.48023 F2000 (rapid move to begin)
F1000.00000
G01 Z0.00000
F2000.00000
G0 X117.62760 Y138.48023 F240
G0 X117.62760 Y134.94963 F240
G0 X113.05560 Y134.94963 F240
G0 X113.05560 Y138.50563 F240
G0 X117.62760 Y138.50563 F240
G0 X117.62760 Y138.48023 F240
M400
M5
M42 P13 S0 (OFF - LASER)
G00 Z0.25000 ( retract )

G00 X117.62760 Y132.94303 F2000 (rapid move to begin)
F1000.00000
G01 Z0.00000
F2000.00000
G0 X117.62760 Y132.94303 F240
G0 X117.62760 Y129.41243 F240
G0 X113.05560 Y129.41243 F240
G0 X113.05560 Y132.96843 F240
G0 X117.62760 Y132.96843 F240
G0 X117.62760 Y132.94303 F240
M400
M5
M42 P13 S0 (OFF - LASER)
G00 Z0.25000 ( retract )

G00 X139.80180 Y123.03703 F2000 (rapid move to begin)
F1000.00000
G01 Z0.00000
F2000.00000
G0 X139.80180 Y123.03703 F240
G0 X139.80180 Y121.69083 F240
G0 X138.63340 Y121.69083 F240
G0 X138.63340 Y123.06243 F240
G0 X139.80180 Y123.06243 F240
G0 X139.80180 Y123.03703 F240
M400
M5
M42 P13 S0 (OFF - LASER)
G00 Z0.25000 ( retract )

G00 X141.60520 Y123.03703 F2000 (rapid move to begin)
F1000.00000
G01 Z0.00000
F2000.00000
G0 X141.60520 Y123.03703 F240
G0 X141.60520 Y121.69083 F240
G0 X140.43680 Y121.69083 F240
G0 X140.43680 Y123.06243 F240
G0 X141.60520 Y123.06243 F240
G0 X141.60520 Y123.03703 F240
M400
M5
M42 P13 S0 (OFF - LASER)
G00 Z0.25000 ( retract )

G00 X149.40300 Y126.77083 F2000 (rapid move to begin)
F1000.00000
G01 Z0.00000
F2000.00000
G0 X149.40300 Y126.77083 F240
G0 X149.45380 Y126.77083 F240
G0 X149.45380 Y126.74543 F240
G0 X149.47920 Y126.74543 F240
G0 X149.47920 Y126.72003 F240
G0 X149.50460 Y126.72003 F240
G0 X149.50460 Y126.66923 F240
G0 X149.53000 Y126.66923 F240
G0 X149.53000 Y123.69743 F240
G0 X149.50460 Y123.69743 F240
G0 X149.50460 Y123.64663 F240
G0 X149.47920 Y123.64663 F240
G0 X149.47920 Y123.62123 F240
G0 X149.45380 Y123.62123 F240
G0 X149.45380 Y123.59583 F240
G0 X149.40300 Y123.59583 F240
G0 X149.40300 Y123.57043 F240
G0 X147.32020 Y123.57043 F240
G0 X147.32020 Y123.59583 F240
G0 X147.26940 Y123.59583 F240
G0 X147.26940 Y123.62123 F240
G0 X147.24400 Y123.62123 F240
G0 X147.24400 Y123.64663 F240
G0 X147.21860 Y123.64663 F240
G0 X147.21860 Y123.69743 F240
G0 X147.19320 Y123.69743 F240
G0 X147.19320 Y126.66923 F240
G0 X147.21860 Y126.66923 F240
G0 X147.21860 Y126.72003 F240
G0 X147.24400 Y126.72003 F240
G0 X147.24400 Y126.74543 F240
G0 X147.26940 Y126.74543 F240
G0 X147.26940 Y126.77083 F240
G0 X147.32020 Y126.77083 F240
G0 X147.32020 Y126.79623 F240
G0 X149.40300 Y126.79623 F240
G0 X149.40300 Y126.77083 F240
M400
M5
M42 P13 S0 (OFF - LASER)
G00 Z0.25000 ( retract )

G00 X149.40300 Y131.97783 F2000 (rapid move to begin)
F1000.00000
G01 Z0.00000
F2000.00000
G0 X149.40300 Y131.97783 F240
G0 X149.45380 Y131.97783 F240
G0 X149.45380 Y131.95243 F240
G0 X149.47920 Y131.95243 F240
G0 X149.47920 Y131.92703 F240
G0 X149.50460 Y131.92703 F240
G0 X149.50460 Y131.87623 F240
G0 X149.53000 Y131.87623 F240
G0 X149.53000 Y128.87903 F240
G0 X149.50460 Y128.87903 F240
G0 X149.50460 Y128.82823 F240
G0 X149.47920 Y128.82823 F240
G0 X149.47920 Y128.80283 F240
G0 X149.45380 Y128.80283 F240
G0 X149.45380 Y128.77743 F240
G0 X149.40300 Y128.77743 F240
G0 X149.40300 Y128.75203 F240
G0 X147.32020 Y128.75203 F240
G0 X147.32020 Y128.77743 F240
G0 X147.26940 Y128.77743 F240
G0 X147.26940 Y128.80283 F240
G0 X147.24400 Y128.80283 F240
G0 X147.24400 Y128.82823 F240
G0 X147.21860 Y128.82823 F240
G0 X147.21860 Y128.87903 F240
G0 X147.19320 Y128.87903 F240
G0 X147.19320 Y131.87623 F240
G0 X147.21860 Y131.87623 F240
G0 X147.21860 Y131.92703 F240
G0 X147.24400 Y131.92703 F240
G0 X147.24400 Y131.95243 F240
G0 X147.26940 Y131.95243 F240
G0 X147.26940 Y131.97783 F240
G0 X147.32020 Y131.97783 F240
G0 X147.32020 Y132.00323 F240
G0 X149.40300 Y132.00323 F240
G0 X149.40300 Y131.97783 F240
M400
M5
M42 P13 S0 (OFF - LASER)
G00 Z0.25000 ( retract )

G00 X148.31080 Y138.22623 F2000 (rapid move to begin)
F1000.00000
G01 Z0.00000
F2000.00000
G0 X148.31080 Y138.22623 F240
G0 X148.31080 Y136.47363 F240
G0 X147.14240 Y136.47363 F240
G0 X147.14240 Y138.25163 F240
G0 X148.31080 Y138.25163 F240
G0 X148.31080 Y138.22623 F240
M400
M5
M42 P13 S0 (OFF - LASER)
G00 Z0.25000 ( retract )

G00 X151.30800 Y138.22623 F2000 (rapid move to begin)
F1000.00000
G01 Z0.00000
F2000.00000
G0 X151.30800 Y138.22623 F240
G0 X151.30800 Y136.47363 F240
G0 X150.13960 Y136.47363 F240
G0 X150.13960 Y138.25163 F240
G0 X151.30800 Y138.25163 F240
G0 X151.30800 Y138.22623 F240
M400
M5
M42 P13 S0 (OFF - LASER)
G00 Z0.25000 ( retract )

G00 X158.01360 Y132.13023 F2000 (rapid move to begin)
F1000.00000
G01 Z0.00000
F2000.00000
G0 X158.01360 Y132.13023 F240
G0 X158.01360 Y128.59963 F240
G0 X153.44160 Y128.59963 F240
G0 X153.44160 Y132.15563 F240
G0 X158.01360 Y132.15563 F240
G0 X158.01360 Y132.13023 F240
M400
M5
M42 P13 S0 (OFF - LASER)
G00 Z0.25000 ( retract )

G00 X158.01360 Y126.59303 F2000 (rapid move to begin)
F1000.00000
G01 Z0.00000
F2000.00000
G0 X158.01360 Y126.59303 F240
G0 X158.01360 Y123.06243 F240
G0 X153.44160 Y123.06243 F240
G0 X153.44160 Y126.61843 F240
G0 X158.01360 Y126.61843 F240
G0 X158.01360 Y126.59303 F240
M400
M5
M42 P13 S0 (OFF - LASER)
G00 Z0.25000 ( retract )

G00 X173.55840 Y122.63063 F2000 (rapid move to begin)
F1000.00000
G01 Z0.00000
F2000.00000
G0 X173.55840 Y122.63063 F240
G0 X173.55840 Y122.09723 F240
G0 X173.20280 Y122.09723 F240
G0 X173.20280 Y122.65603 F240
G0 X173.55840 Y122.65603 F240
G0 X173.55840 Y122.63063 F240
M400
M5
M42 P13 S0 (OFF - LASER)
G00 Z0.25000 ( retract )

G00 X174.37120 Y122.63063 F2000 (rapid move to begin)
F1000.00000
G01 Z0.00000
F2000.00000
G0 X174.37120 Y122.63063 F240
G0 X174.37120 Y122.09723 F240
G0 X173.99020 Y122.09723 F240
G0 X173.99020 Y122.65603 F240
G0 X174.37120 Y122.65603 F240
G0 X174.37120 Y122.63063 F240
M400
M5
M42 P13 S0 (OFF - LASER)
G00 Z0.25000 ( retract )

G00 X171.27240 Y137.23563 F2000 (rapid move to begin)
F1000.00000
G01 Z0.00000
F2000.00000
G0 X171.27240 Y137.23563 F240
G0 X171.27240 Y136.70223 F240
G0 X170.91680 Y136.70223 F240
G0 X170.91680 Y137.26103 F240
G0 X171.27240 Y137.26103 F240
G0 X171.27240 Y137.23563 F240
M400
M5
M42 P13 S0 (OFF - LASER)
G00 Z0.25000 ( retract )

G00 X170.48500 Y137.23563 F2000 (rapid move to begin)
F1000.00000
G01 Z0.00000
F2000.00000
G0 X170.48500 Y137.23563 F240
G0 X170.48500 Y136.70223 F240
G0 X170.10400 Y136.70223 F240
G0 X170.10400 Y137.26103 F240
G0 X170.48500 Y137.26103 F240
G0 X170.48500 Y137.23563 F240

M400
M5
M42 P13 S0 (OFF - LASER)
G00 Z0.25000 ( retract )

M5 ( Spindle off. )
M9 ( Coolant off. )

M106 S0 (Fan off.)
