M106 S255 (Fan on.)
G0 x100 y100 f2000 (  Set origin and speed.  )
( pcb2gcode 1.2.2 )
( Software-independent Gcode )





S10000 ( RPM spindle speed. )
G64 P0.00200 ( set maximum deviation from commanded toolpath )
F2000.00000 ( Feedrate. )

F2000.00000 ( Feedrate. )
M400
M5
M42 P13 S0 (OFF - LASER)
G00 Z0.25000 ( retract )

G00 X105.02920 Y132.61283 F2000 (rapid move to begin)
F1000.00000
G01 Z0.00000
F2000.00000
G0 X105.02920 Y132.61283 F240
G0 X105.02920 Y128.11703 F240
G0 X101.52400 Y128.11703 F240
G0 X101.52400 Y132.63823 F240
G0 X105.02920 Y132.63823 F240
G0 X105.02920 Y132.61283 F240
M400
M5
M42 P13 S0 (OFF - LASER)
G00 Z0.25000 ( retract )

G00 X110.56640 Y132.61283 F2000 (rapid move to begin)
F1000.00000
G01 Z0.00000
F2000.00000
G0 X110.56640 Y132.61283 F240
G0 X110.56640 Y128.11703 F240
G0 X107.06120 Y128.11703 F240
G0 X107.06120 Y132.63823 F240
G0 X110.56640 Y132.63823 F240
G0 X110.56640 Y132.61283 F240
M400
M5
M42 P13 S0 (OFF - LASER)
G00 Z0.25000 ( retract )

G00 X110.56640 Y138.96283 F2000 (rapid move to begin)
F1000.00000
G01 Z0.00000
F2000.00000
G0 X110.56640 Y138.96283 F240
G0 X110.56640 Y134.46703 F240
G0 X107.06120 Y134.46703 F240
G0 X107.06120 Y138.98823 F240
G0 X110.56640 Y138.98823 F240
G0 X110.56640 Y138.96283 F240
M400
M5
M42 P13 S0 (OFF - LASER)
G00 Z0.25000 ( retract )

G00 X105.02920 Y138.96283 F2000 (rapid move to begin)
F1000.00000
G01 Z0.00000
F2000.00000
G0 X105.02920 Y138.96283 F240
G0 X105.02920 Y134.46703 F240
G0 X101.52400 Y134.46703 F240
G0 X101.52400 Y138.98823 F240
G0 X105.02920 Y138.98823 F240
G0 X105.02920 Y138.96283 F240
M400
M5
M42 P13 S0 (OFF - LASER)
G00 Z0.25000 ( retract )

G00 X117.60220 Y138.45483 F2000 (rapid move to begin)
F1000.00000
G01 Z0.00000
F2000.00000
G0 X117.60220 Y138.45483 F240
G0 X117.60220 Y134.97503 F240
G0 X113.08100 Y134.97503 F240
G0 X113.08100 Y138.48023 F240
G0 X117.60220 Y138.48023 F240
G0 X117.60220 Y138.45483 F240
M400
M5
M42 P13 S0 (OFF - LASER)
G00 Z0.25000 ( retract )

G00 X117.60220 Y132.91763 F2000 (rapid move to begin)
F1000.00000
G01 Z0.00000
F2000.00000
G0 X117.60220 Y132.91763 F240
G0 X117.60220 Y129.43783 F240
G0 X113.08100 Y129.43783 F240
G0 X113.08100 Y132.94303 F240
G0 X117.60220 Y132.94303 F240
G0 X117.60220 Y132.91763 F240
M400
M5
M42 P13 S0 (OFF - LASER)
G00 Z0.25000 ( retract )

G00 X139.77640 Y123.01163 F2000 (rapid move to begin)
F1000.00000
G01 Z0.00000
F2000.00000
G0 X139.77640 Y123.01163 F240
G0 X139.77640 Y121.71623 F240
G0 X138.65880 Y121.71623 F240
G0 X138.65880 Y123.03703 F240
G0 X139.77640 Y123.03703 F240
G0 X139.77640 Y123.01163 F240
M400
M5
M42 P13 S0 (OFF - LASER)
G00 Z0.25000 ( retract )

G00 X141.57980 Y123.01163 F2000 (rapid move to begin)
F1000.00000
G01 Z0.00000
F2000.00000
G0 X141.57980 Y123.01163 F240
G0 X141.57980 Y121.71623 F240
G0 X140.46220 Y121.71623 F240
G0 X140.46220 Y123.03703 F240
G0 X141.57980 Y123.03703 F240
G0 X141.57980 Y123.01163 F240
M400
M5
M42 P13 S0 (OFF - LASER)
G00 Z0.25000 ( retract )

G00 X149.40300 Y126.74543 F2000 (rapid move to begin)
F1000.00000
G01 Z0.00000
F2000.00000
G0 X149.40300 Y126.74543 F240
G0 X149.45380 Y126.74543 F240
G0 X149.45380 Y126.72003 F240
G0 X149.47920 Y126.72003 F240
G0 X149.47920 Y126.66923 F240
G0 X149.50460 Y126.66923 F240
G0 X149.50460 Y123.69743 F240
G0 X149.47920 Y123.69743 F240
G0 X149.47920 Y123.64663 F240
G0 X149.45380 Y123.64663 F240
G0 X149.45380 Y123.62123 F240
G0 X149.40300 Y123.62123 F240
G0 X149.40300 Y123.59583 F240
G0 X147.32020 Y123.59583 F240
G0 X147.32020 Y123.62123 F240
G0 X147.26940 Y123.62123 F240
G0 X147.26940 Y123.64663 F240
G0 X147.24400 Y123.64663 F240
G0 X147.24400 Y123.69743 F240
G0 X147.21860 Y123.69743 F240
G0 X147.21860 Y126.66923 F240
G0 X147.24400 Y126.66923 F240
G0 X147.24400 Y126.72003 F240
G0 X147.26940 Y126.72003 F240
G0 X147.26940 Y126.74543 F240
G0 X147.32020 Y126.74543 F240
G0 X147.32020 Y126.77083 F240
G0 X149.40300 Y126.77083 F240
G0 X149.40300 Y126.74543 F240
M400
M5
M42 P13 S0 (OFF - LASER)
G00 Z0.25000 ( retract )

G00 X149.40300 Y131.95243 F2000 (rapid move to begin)
F1000.00000
G01 Z0.00000
F2000.00000
G0 X149.40300 Y131.95243 F240
G0 X149.45380 Y131.95243 F240
G0 X149.45380 Y131.92703 F240
G0 X149.47920 Y131.92703 F240
G0 X149.47920 Y131.87623 F240
G0 X149.50460 Y131.87623 F240
G0 X149.50460 Y128.87903 F240
G0 X149.47920 Y128.87903 F240
G0 X149.47920 Y128.82823 F240
G0 X149.45380 Y128.82823 F240
G0 X149.45380 Y128.80283 F240
G0 X149.40300 Y128.80283 F240
G0 X149.40300 Y128.77743 F240
G0 X147.32020 Y128.77743 F240
G0 X147.32020 Y128.80283 F240
G0 X147.26940 Y128.80283 F240
G0 X147.26940 Y128.82823 F240
G0 X147.24400 Y128.82823 F240
G0 X147.24400 Y128.87903 F240
G0 X147.21860 Y128.87903 F240
G0 X147.21860 Y131.87623 F240
G0 X147.24400 Y131.87623 F240
G0 X147.24400 Y131.92703 F240
G0 X147.26940 Y131.92703 F240
G0 X147.26940 Y131.95243 F240
G0 X147.32020 Y131.95243 F240
G0 X147.32020 Y131.97783 F240
G0 X149.40300 Y131.97783 F240
G0 X149.40300 Y131.95243 F240
M400
M5
M42 P13 S0 (OFF - LASER)
G00 Z0.25000 ( retract )

G00 X148.28540 Y138.20083 F2000 (rapid move to begin)
F1000.00000
G01 Z0.00000
F2000.00000
G0 X148.28540 Y138.20083 F240
G0 X148.28540 Y136.49903 F240
G0 X147.16780 Y136.49903 F240
G0 X147.16780 Y138.22623 F240
G0 X148.28540 Y138.22623 F240
G0 X148.28540 Y138.20083 F240
M400
M5
M42 P13 S0 (OFF - LASER)
G00 Z0.25000 ( retract )

G00 X151.28260 Y138.20083 F2000 (rapid move to begin)
F1000.00000
G01 Z0.00000
F2000.00000
G0 X151.28260 Y138.20083 F240
G0 X151.28260 Y136.49903 F240
G0 X150.16500 Y136.49903 F240
G0 X150.16500 Y138.22623 F240
G0 X151.28260 Y138.22623 F240
G0 X151.28260 Y138.20083 F240
M400
M5
M42 P13 S0 (OFF - LASER)
G00 Z0.25000 ( retract )

G00 X157.98820 Y132.10483 F2000 (rapid move to begin)
F1000.00000
G01 Z0.00000
F2000.00000
G0 X157.98820 Y132.10483 F240
G0 X157.98820 Y128.62503 F240
G0 X153.46700 Y128.62503 F240
G0 X153.46700 Y132.13023 F240
G0 X157.98820 Y132.13023 F240
G0 X157.98820 Y132.10483 F240
M400
M5
M42 P13 S0 (OFF - LASER)
G00 Z0.25000 ( retract )

G00 X157.98820 Y126.56763 F2000 (rapid move to begin)
F1000.00000
G01 Z0.00000
F2000.00000
G0 X157.98820 Y126.56763 F240
G0 X157.98820 Y123.08783 F240
G0 X153.46700 Y123.08783 F240
G0 X153.46700 Y126.59303 F240
G0 X157.98820 Y126.59303 F240
G0 X157.98820 Y126.56763 F240
M400
M5
M42 P13 S0 (OFF - LASER)
G00 Z0.25000 ( retract )

G00 X173.53300 Y122.60523 F2000 (rapid move to begin)
F1000.00000
G01 Z0.00000
F2000.00000
G0 X173.53300 Y122.60523 F240
G0 X173.53300 Y122.12263 F240
G0 X173.22820 Y122.12263 F240
G0 X173.22820 Y122.63063 F240
G0 X173.53300 Y122.63063 F240
G0 X173.53300 Y122.60523 F240
M400
M5
M42 P13 S0 (OFF - LASER)
G00 Z0.25000 ( retract )

G00 X174.34580 Y122.60523 F2000 (rapid move to begin)
F1000.00000
G01 Z0.00000
F2000.00000
G0 X174.34580 Y122.60523 F240
G0 X174.34580 Y122.12263 F240
G0 X174.01560 Y122.12263 F240
G0 X174.01560 Y122.63063 F240
G0 X174.34580 Y122.63063 F240
G0 X174.34580 Y122.60523 F240
M400
M5
M42 P13 S0 (OFF - LASER)
G00 Z0.25000 ( retract )

G00 X171.24700 Y137.21023 F2000 (rapid move to begin)
F1000.00000
G01 Z0.00000
F2000.00000
G0 X171.24700 Y137.21023 F240
G0 X171.24700 Y136.72763 F240
G0 X170.94220 Y136.72763 F240
G0 X170.94220 Y137.23563 F240
G0 X171.24700 Y137.23563 F240
G0 X171.24700 Y137.21023 F240
M400
M5
M42 P13 S0 (OFF - LASER)
G00 Z0.25000 ( retract )

G00 X170.45960 Y137.21023 F2000 (rapid move to begin)
F1000.00000
G01 Z0.00000
F2000.00000
G0 X170.45960 Y137.21023 F240
G0 X170.45960 Y136.72763 F240
G0 X170.12940 Y136.72763 F240
G0 X170.12940 Y137.23563 F240
G0 X170.45960 Y137.23563 F240
G0 X170.45960 Y137.21023 F240

M400
M5
M42 P13 S0 (OFF - LASER)
G00 Z0.25000 ( retract )

M5 ( Spindle off. )
M9 ( Coolant off. )

M106 S0 (Fan off.)
