( pcb2gcode 1.2.2 )
( Software-independent Gcode )
      




S10000 ( RPM spindle speed. )
G64 P0.00200 ( set maximum deviation from commanded toolpath )
F2000.00000 ( Feedrate. )

F2000.00000 ( Feedrate. )
M3 ( Spindle on clockwise. )
G04 P0 ( dwell for no time -- G64 should not smooth over this point )
G00 Z0.25000 ( retract )

G00 X0.19800 Y1.28372 ( rapid move to begin. )
F1000.00000
G01 Z0.00000
G04 P0 ( dwell for no time -- G64 should not smooth over this point )
F2000.00000
X0.19800 Y1.28372
X0.19800 Y1.10672
X0.06000 Y1.10672
X0.06000 Y1.28472
X0.19800 Y1.28472
X0.19800 Y1.28372
G04 P0 ( dwell for no time -- G64 should not smooth over this point )
G00 Z0.25000 ( retract )

G00 X0.41600 Y1.28372 ( rapid move to begin. )
F1000.00000
G01 Z0.00000
G04 P0 ( dwell for no time -- G64 should not smooth over this point )
F2000.00000
X0.41600 Y1.28372
X0.41600 Y1.10672
X0.27800 Y1.10672
X0.27800 Y1.28472
X0.41600 Y1.28472
X0.41600 Y1.28372
G04 P0 ( dwell for no time -- G64 should not smooth over this point )
G00 Z0.25000 ( retract )

G00 X0.41600 Y1.53372 ( rapid move to begin. )
F1000.00000
G01 Z0.00000
G04 P0 ( dwell for no time -- G64 should not smooth over this point )
F2000.00000
X0.41600 Y1.53372
X0.41600 Y1.35672
X0.27800 Y1.35672
X0.27800 Y1.53472
X0.41600 Y1.53472
X0.41600 Y1.53372
G04 P0 ( dwell for no time -- G64 should not smooth over this point )
G00 Z0.25000 ( retract )

G00 X0.19800 Y1.53372 ( rapid move to begin. )
F1000.00000
G01 Z0.00000
G04 P0 ( dwell for no time -- G64 should not smooth over this point )
F2000.00000
X0.19800 Y1.53372
X0.19800 Y1.35672
X0.06000 Y1.35672
X0.06000 Y1.53472
X0.19800 Y1.53472
X0.19800 Y1.53372
G04 P0 ( dwell for no time -- G64 should not smooth over this point )
G00 Z0.25000 ( retract )

G00 X0.69300 Y1.51372 ( rapid move to begin. )
F1000.00000
G01 Z0.00000
G04 P0 ( dwell for no time -- G64 should not smooth over this point )
F2000.00000
X0.69300 Y1.51372
X0.69300 Y1.37672
X0.51500 Y1.37672
X0.51500 Y1.51472
X0.69300 Y1.51472
X0.69300 Y1.51372
G04 P0 ( dwell for no time -- G64 should not smooth over this point )
G00 Z0.25000 ( retract )

G00 X0.69300 Y1.29572 ( rapid move to begin. )
F1000.00000
G01 Z0.00000
G04 P0 ( dwell for no time -- G64 should not smooth over this point )
F2000.00000
X0.69300 Y1.29572
X0.69300 Y1.15872
X0.51500 Y1.15872
X0.51500 Y1.29672
X0.69300 Y1.29672
X0.69300 Y1.29572
G04 P0 ( dwell for no time -- G64 should not smooth over this point )
G00 Z0.25000 ( retract )

G00 X1.90100 Y1.50372 ( rapid move to begin. )
F1000.00000
G01 Z0.00000
G04 P0 ( dwell for no time -- G64 should not smooth over this point )
F2000.00000
X1.90100 Y1.50372
X1.90100 Y1.43672
X1.85700 Y1.43672
X1.85700 Y1.50472
X1.90100 Y1.50472
X1.90100 Y1.50372
G04 P0 ( dwell for no time -- G64 should not smooth over this point )
G00 Z0.25000 ( retract )

G00 X2.01900 Y1.50372 ( rapid move to begin. )
F1000.00000
G01 Z0.00000
G04 P0 ( dwell for no time -- G64 should not smooth over this point )
F2000.00000
X2.01900 Y1.50372
X2.01900 Y1.43672
X1.97500 Y1.43672
X1.97500 Y1.50472
X2.01900 Y1.50472
X2.01900 Y1.50372
G04 P0 ( dwell for no time -- G64 should not smooth over this point )
G00 Z0.25000 ( retract )

G00 X1.94500 Y1.25772 ( rapid move to begin. )
F1000.00000
G01 Z0.00000
G04 P0 ( dwell for no time -- G64 should not smooth over this point )
F2000.00000
X1.94500 Y1.25772
X1.94700 Y1.25772
X1.94700 Y1.25672
X1.94800 Y1.25672
X1.94800 Y1.25472
X1.94900 Y1.25472
X1.94900 Y1.13772
X1.94800 Y1.13772
X1.94800 Y1.13572
X1.94700 Y1.13572
X1.94700 Y1.13472
X1.94500 Y1.13472
X1.94500 Y1.13372
X1.86300 Y1.13372
X1.86300 Y1.13472
X1.86100 Y1.13472
X1.86100 Y1.13572
X1.86000 Y1.13572
X1.86000 Y1.13772
X1.85900 Y1.13772
X1.85900 Y1.25472
X1.86000 Y1.25472
X1.86000 Y1.25672
X1.86100 Y1.25672
X1.86100 Y1.25772
X1.86300 Y1.25772
X1.86300 Y1.25872
X1.94500 Y1.25872
X1.94500 Y1.25772
G04 P0 ( dwell for no time -- G64 should not smooth over this point )
G00 Z0.25000 ( retract )

G00 X1.94500 Y1.05272 ( rapid move to begin. )
F1000.00000
G01 Z0.00000
G04 P0 ( dwell for no time -- G64 should not smooth over this point )
F2000.00000
X1.94500 Y1.05272
X1.94700 Y1.05272
X1.94700 Y1.05172
X1.94800 Y1.05172
X1.94800 Y1.04972
X1.94900 Y1.04972
X1.94900 Y0.93272
X1.94800 Y0.93272
X1.94800 Y0.93072
X1.94700 Y0.93072
X1.94700 Y0.92972
X1.94500 Y0.92972
X1.94500 Y0.92872
X1.86300 Y0.92872
X1.86300 Y0.92972
X1.86100 Y0.92972
X1.86100 Y0.93072
X1.86000 Y0.93072
X1.86000 Y0.93272
X1.85900 Y0.93272
X1.85900 Y1.04972
X1.86000 Y1.04972
X1.86000 Y1.05172
X1.86100 Y1.05172
X1.86100 Y1.05272
X1.86300 Y1.05272
X1.86300 Y1.05372
X1.94500 Y1.05372
X1.94500 Y1.05272
G04 P0 ( dwell for no time -- G64 should not smooth over this point )
G00 Z0.25000 ( retract )

G00 X2.28300 Y1.04572 ( rapid move to begin. )
F1000.00000
G01 Z0.00000
G04 P0 ( dwell for no time -- G64 should not smooth over this point )
F2000.00000
X2.28300 Y1.04572
X2.28300 Y0.90872
X2.10500 Y0.90872
X2.10500 Y1.04672
X2.28300 Y1.04672
X2.28300 Y1.04572
G04 P0 ( dwell for no time -- G64 should not smooth over this point )
G00 Z0.25000 ( retract )

G00 X2.28300 Y1.26372 ( rapid move to begin. )
F1000.00000
G01 Z0.00000
G04 P0 ( dwell for no time -- G64 should not smooth over this point )
F2000.00000
X2.28300 Y1.26372
X2.28300 Y1.12672
X2.10500 Y1.12672
X2.10500 Y1.26472
X2.28300 Y1.26472
X2.28300 Y1.26372
G04 P0 ( dwell for no time -- G64 should not smooth over this point )
G00 Z0.25000 ( retract )

G00 X2.89500 Y0.89072 ( rapid move to begin. )
F1000.00000
G01 Z0.00000
G04 P0 ( dwell for no time -- G64 should not smooth over this point )
F2000.00000
X2.89500 Y0.89072
X2.89500 Y0.87072
X2.88300 Y0.87072
X2.88300 Y0.89172
X2.89500 Y0.89172
X2.89500 Y0.89072
G04 P0 ( dwell for no time -- G64 should not smooth over this point )
G00 Z0.25000 ( retract )

G00 X2.92700 Y0.89072 ( rapid move to begin. )
F1000.00000
G01 Z0.00000
G04 P0 ( dwell for no time -- G64 should not smooth over this point )
F2000.00000
X2.92700 Y0.89072
X2.92700 Y0.87072
X2.91400 Y0.87072
X2.91400 Y0.89172
X2.92700 Y0.89172
X2.92700 Y0.89072

G04 P0 ( dwell for no time -- G64 should not smooth over this point )
G00 Z0.25000 ( retract )

M5 ( Spindle off. )
M9 ( Coolant off. )
M2 ( Program end. )

