M106 S255 (Fan on.)
G0 x100 y100 f2000 (  Set origin and speed.  )
( pcb2gcode 1.2.2 )
( Software-independent Gcode )





S10000 ( RPM spindle speed. )
G64 P0.00200 ( set maximum deviation from commanded toolpath )
F2000.00000 ( Feedrate. )

F2000.00000 ( Feedrate. )
M400
M5
M42 P13 S0 (OFF - LASER)
G00 Z0.25000 ( retract )

G00 X105.05460 Y132.65728 F2000 (rapid move to begin)
F1000.00000
G01 Z0.00000
F2000.00000
G0 X105.05460 Y132.65728 F240
G0 X105.05460 Y128.08528 F240
G0 X101.47320 Y128.08528 F240
G0 X101.47320 Y132.68268 F240
G0 X105.05460 Y132.68268 F240
G0 X105.05460 Y132.65728 F240
M400
M5
M42 P13 S0 (OFF - LASER)
G00 Z0.25000 ( retract )

G00 X110.59180 Y132.65728 F2000 (rapid move to begin)
F1000.00000
G01 Z0.00000
F2000.00000
G0 X110.59180 Y132.65728 F240
G0 X110.59180 Y128.08528 F240
G0 X107.01040 Y128.08528 F240
G0 X107.01040 Y132.68268 F240
G0 X110.59180 Y132.68268 F240
G0 X110.59180 Y132.65728 F240
M400
M5
M42 P13 S0 (OFF - LASER)
G00 Z0.25000 ( retract )

G00 X110.59180 Y139.00728 F2000 (rapid move to begin)
F1000.00000
G01 Z0.00000
F2000.00000
G0 X110.59180 Y139.00728 F240
G0 X110.59180 Y134.43528 F240
G0 X107.01040 Y134.43528 F240
G0 X107.01040 Y139.03268 F240
G0 X110.59180 Y139.03268 F240
G0 X110.59180 Y139.00728 F240
M400
M5
M42 P13 S0 (OFF - LASER)
G00 Z0.25000 ( retract )

G00 X105.05460 Y139.00728 F2000 (rapid move to begin)
F1000.00000
G01 Z0.00000
F2000.00000
G0 X105.05460 Y139.00728 F240
G0 X105.05460 Y134.43528 F240
G0 X101.47320 Y134.43528 F240
G0 X101.47320 Y139.03268 F240
G0 X105.05460 Y139.03268 F240
G0 X105.05460 Y139.00728 F240
M400
M5
M42 P13 S0 (OFF - LASER)
G00 Z0.25000 ( retract )

G00 X117.62760 Y138.49928 F2000 (rapid move to begin)
F1000.00000
G01 Z0.00000
F2000.00000
G0 X117.62760 Y138.49928 F240
G0 X117.62760 Y134.94328 F240
G0 X113.03020 Y134.94328 F240
G0 X113.03020 Y138.52468 F240
G0 X117.62760 Y138.52468 F240
G0 X117.62760 Y138.49928 F240
M400
M5
M42 P13 S0 (OFF - LASER)
G00 Z0.25000 ( retract )

G00 X117.62760 Y132.96208 F2000 (rapid move to begin)
F1000.00000
G01 Z0.00000
F2000.00000
G0 X117.62760 Y132.96208 F240
G0 X117.62760 Y129.40608 F240
G0 X113.03020 Y129.40608 F240
G0 X113.03020 Y132.98748 F240
G0 X117.62760 Y132.98748 F240
G0 X117.62760 Y132.96208 F240
M400
M5
M42 P13 S0 (OFF - LASER)
G00 Z0.25000 ( retract )

G00 X148.31080 Y138.24528 F2000 (rapid move to begin)
F1000.00000
G01 Z0.00000
F2000.00000
G0 X148.31080 Y138.24528 F240
G0 X148.31080 Y136.46728 F240
G0 X147.11700 Y136.46728 F240
G0 X147.11700 Y138.27068 F240
G0 X148.31080 Y138.27068 F240
G0 X148.31080 Y138.24528 F240
M400
M5
M42 P13 S0 (OFF - LASER)
G00 Z0.25000 ( retract )

G00 X151.30800 Y138.24528 F2000 (rapid move to begin)
F1000.00000
G01 Z0.00000
F2000.00000
G0 X151.30800 Y138.24528 F240
G0 X151.30800 Y136.46728 F240
G0 X150.11420 Y136.46728 F240
G0 X150.11420 Y138.27068 F240
G0 X151.30800 Y138.27068 F240
G0 X151.30800 Y138.24528 F240
M400
M5
M42 P13 S0 (OFF - LASER)
G00 Z0.25000 ( retract )

G00 X149.40300 Y131.97148 F2000 (rapid move to begin)
F1000.00000
G01 Z0.00000
F2000.00000
G0 X149.40300 Y131.97148 F240
G0 X149.45380 Y131.97148 F240
G0 X149.45380 Y131.94608 F240
G0 X149.47920 Y131.94608 F240
G0 X149.47920 Y131.92068 F240
G0 X149.50460 Y131.92068 F240
G0 X149.50460 Y131.86988 F240
G0 X149.53000 Y131.86988 F240
G0 X149.53000 Y128.87268 F240
G0 X149.50460 Y128.87268 F240
G0 X149.50460 Y128.82188 F240
G0 X149.47920 Y128.82188 F240
G0 X149.47920 Y128.79648 F240
G0 X149.45380 Y128.79648 F240
G0 X149.45380 Y128.77108 F240
G0 X149.40300 Y128.77108 F240
G0 X149.40300 Y128.74568 F240
G0 X147.32020 Y128.74568 F240
G0 X147.32020 Y128.77108 F240
G0 X147.26940 Y128.77108 F240
G0 X147.26940 Y128.79648 F240
G0 X147.24400 Y128.79648 F240
G0 X147.24400 Y128.82188 F240
G0 X147.21860 Y128.82188 F240
G0 X147.21860 Y128.87268 F240
G0 X147.19320 Y128.87268 F240
G0 X147.19320 Y131.86988 F240
G0 X147.21860 Y131.86988 F240
G0 X147.21860 Y131.92068 F240
G0 X147.24400 Y131.92068 F240
G0 X147.24400 Y131.94608 F240
G0 X147.26940 Y131.94608 F240
G0 X147.26940 Y131.97148 F240
G0 X147.32020 Y131.97148 F240
G0 X147.32020 Y131.99688 F240
G0 X149.40300 Y131.99688 F240
G0 X149.40300 Y131.97148 F240
M400
M5
M42 P13 S0 (OFF - LASER)
G00 Z0.25000 ( retract )

G00 X149.40300 Y126.78988 F2000 (rapid move to begin)
F1000.00000
G01 Z0.00000
F2000.00000
G0 X149.40300 Y126.78988 F240
G0 X149.45380 Y126.78988 F240
G0 X149.45380 Y126.76448 F240
G0 X149.47920 Y126.76448 F240
G0 X149.47920 Y126.73908 F240
G0 X149.50460 Y126.73908 F240
G0 X149.50460 Y126.68828 F240
G0 X149.53000 Y126.68828 F240
G0 X149.53000 Y123.66568 F240
G0 X149.50460 Y123.66568 F240
G0 X149.50460 Y123.61488 F240
G0 X149.47920 Y123.61488 F240
G0 X149.47920 Y123.58948 F240
G0 X149.45380 Y123.58948 F240
G0 X149.45380 Y123.56408 F240
G0 X149.40300 Y123.56408 F240
G0 X149.40300 Y123.53868 F240
G0 X147.32020 Y123.53868 F240
G0 X147.32020 Y123.56408 F240
G0 X147.26940 Y123.56408 F240
G0 X147.26940 Y123.58948 F240
G0 X147.24400 Y123.58948 F240
G0 X147.24400 Y123.61488 F240
G0 X147.21860 Y123.61488 F240
G0 X147.21860 Y123.66568 F240
G0 X147.19320 Y123.66568 F240
G0 X147.19320 Y126.68828 F240
G0 X147.21860 Y126.68828 F240
G0 X147.21860 Y126.73908 F240
G0 X147.24400 Y126.73908 F240
G0 X147.24400 Y126.76448 F240
G0 X147.26940 Y126.76448 F240
G0 X147.26940 Y126.78988 F240
G0 X147.32020 Y126.78988 F240
G0 X147.32020 Y126.81528 F240
G0 X149.40300 Y126.81528 F240
G0 X149.40300 Y126.78988 F240
M400
M5
M42 P13 S0 (OFF - LASER)
G00 Z0.25000 ( retract )

G00 X158.01360 Y126.61208 F2000 (rapid move to begin)
F1000.00000
G01 Z0.00000
F2000.00000
G0 X158.01360 Y126.61208 F240
G0 X158.01360 Y123.05608 F240
G0 X153.41620 Y123.05608 F240
G0 X153.41620 Y126.63748 F240
G0 X158.01360 Y126.63748 F240
G0 X158.01360 Y126.61208 F240
M400
M5
M42 P13 S0 (OFF - LASER)
G00 Z0.25000 ( retract )

G00 X158.01360 Y132.14928 F2000 (rapid move to begin)
F1000.00000
G01 Z0.00000
F2000.00000
G0 X158.01360 Y132.14928 F240
G0 X158.01360 Y128.59328 F240
G0 X153.41620 Y128.59328 F240
G0 X153.41620 Y132.17468 F240
G0 X158.01360 Y132.17468 F240
G0 X158.01360 Y132.14928 F240
M400
M5
M42 P13 S0 (OFF - LASER)
G00 Z0.25000 ( retract )

G00 X170.48500 Y137.28008 F2000 (rapid move to begin)
F1000.00000
G01 Z0.00000
F2000.00000
G0 X170.48500 Y137.28008 F240
G0 X170.48500 Y136.69588 F240
G0 X170.07860 Y136.69588 F240
G0 X170.07860 Y137.30548 F240
G0 X170.48500 Y137.30548 F240
G0 X170.48500 Y137.28008 F240
M400
M5
M42 P13 S0 (OFF - LASER)
G00 Z0.25000 ( retract )

G00 X171.27240 Y137.28008 F2000 (rapid move to begin)
F1000.00000
G01 Z0.00000
F2000.00000
G0 X171.27240 Y137.28008 F240
G0 X171.27240 Y136.69588 F240
G0 X170.89140 Y136.69588 F240
G0 X170.89140 Y137.30548 F240
G0 X171.27240 Y137.30548 F240
G0 X171.27240 Y137.28008 F240
M400
M5
M42 P13 S0 (OFF - LASER)
G00 Z0.25000 ( retract )

G00 X173.55840 Y122.67508 F2000 (rapid move to begin)
F1000.00000
G01 Z0.00000
F2000.00000
G0 X173.55840 Y122.67508 F240
G0 X173.55840 Y122.09088 F240
G0 X173.17740 Y122.09088 F240
G0 X173.17740 Y122.70048 F240
G0 X173.55840 Y122.70048 F240
G0 X173.55840 Y122.67508 F240
M400
M5
M42 P13 S0 (OFF - LASER)
G00 Z0.25000 ( retract )

G00 X174.37120 Y122.67508 F2000 (rapid move to begin)
F1000.00000
G01 Z0.00000
F2000.00000
G0 X174.37120 Y122.67508 F240
G0 X174.37120 Y122.09088 F240
G0 X173.96480 Y122.09088 F240
G0 X173.96480 Y122.70048 F240
G0 X174.37120 Y122.70048 F240
G0 X174.37120 Y122.67508 F240

M400
M5
M42 P13 S0 (OFF - LASER)
G00 Z0.25000 ( retract )

M5 ( Spindle off. )
M9 ( Coolant off. )

M106 S0 (Fan off.)
M106 S255 (Fan on.)
G0 x100 y100 f2000 (  Set origin and speed.  )
( pcb2gcode 1.2.2 )
( Software-independent Gcode )





S10000 ( RPM spindle speed. )
G64 P0.00200 ( set maximum deviation from commanded toolpath )
F2000.00000 ( Feedrate. )

F2000.00000 ( Feedrate. )
M400
M5
M42 P13 S0 (OFF - LASER)
G00 Z0.25000 ( retract )

G00 X105.05460 Y132.63188 F2000 (rapid move to begin)
F1000.00000
G01 Z0.00000
F2000.00000
G0 X105.05460 Y132.63188 F240
G0 X105.05460 Y128.08528 F240
G0 X101.49860 Y128.08528 F240
G0 X101.49860 Y132.65728 F240
G0 X105.05460 Y132.65728 F240
G0 X105.05460 Y132.63188 F240
M400
M5
M42 P13 S0 (OFF - LASER)
G00 Z0.25000 ( retract )

G00 X110.59180 Y132.63188 F2000 (rapid move to begin)
F1000.00000
G01 Z0.00000
F2000.00000
G0 X110.59180 Y132.63188 F240
G0 X110.59180 Y128.08528 F240
G0 X107.03580 Y128.08528 F240
G0 X107.03580 Y132.65728 F240
G0 X110.59180 Y132.65728 F240
G0 X110.59180 Y132.63188 F240
M400
M5
M42 P13 S0 (OFF - LASER)
G00 Z0.25000 ( retract )

G00 X110.59180 Y138.98188 F2000 (rapid move to begin)
F1000.00000
G01 Z0.00000
F2000.00000
G0 X110.59180 Y138.98188 F240
G0 X110.59180 Y134.43528 F240
G0 X107.03580 Y134.43528 F240
G0 X107.03580 Y139.00728 F240
G0 X110.59180 Y139.00728 F240
G0 X110.59180 Y138.98188 F240
M400
M5
M42 P13 S0 (OFF - LASER)
G00 Z0.25000 ( retract )

G00 X105.05460 Y138.98188 F2000 (rapid move to begin)
F1000.00000
G01 Z0.00000
F2000.00000
G0 X105.05460 Y138.98188 F240
G0 X105.05460 Y134.43528 F240
G0 X101.49860 Y134.43528 F240
G0 X101.49860 Y139.00728 F240
G0 X105.05460 Y139.00728 F240
G0 X105.05460 Y138.98188 F240
M400
M5
M42 P13 S0 (OFF - LASER)
G00 Z0.25000 ( retract )

G00 X117.62760 Y138.47388 F2000 (rapid move to begin)
F1000.00000
G01 Z0.00000
F2000.00000
G0 X117.62760 Y138.47388 F240
G0 X117.62760 Y134.94328 F240
G0 X113.05560 Y134.94328 F240
G0 X113.05560 Y138.49928 F240
G0 X117.62760 Y138.49928 F240
G0 X117.62760 Y138.47388 F240
M400
M5
M42 P13 S0 (OFF - LASER)
G00 Z0.25000 ( retract )

G00 X117.62760 Y132.93668 F2000 (rapid move to begin)
F1000.00000
G01 Z0.00000
F2000.00000
G0 X117.62760 Y132.93668 F240
G0 X117.62760 Y129.40608 F240
G0 X113.05560 Y129.40608 F240
G0 X113.05560 Y132.96208 F240
G0 X117.62760 Y132.96208 F240
G0 X117.62760 Y132.93668 F240
M400
M5
M42 P13 S0 (OFF - LASER)
G00 Z0.25000 ( retract )

G00 X148.31080 Y138.21988 F2000 (rapid move to begin)
F1000.00000
G01 Z0.00000
F2000.00000
G0 X148.31080 Y138.21988 F240
G0 X148.31080 Y136.46728 F240
G0 X147.14240 Y136.46728 F240
G0 X147.14240 Y138.24528 F240
G0 X148.31080 Y138.24528 F240
G0 X148.31080 Y138.21988 F240
M400
M5
M42 P13 S0 (OFF - LASER)
G00 Z0.25000 ( retract )

G00 X151.30800 Y138.21988 F2000 (rapid move to begin)
F1000.00000
G01 Z0.00000
F2000.00000
G0 X151.30800 Y138.21988 F240
G0 X151.30800 Y136.46728 F240
G0 X150.13960 Y136.46728 F240
G0 X150.13960 Y138.24528 F240
G0 X151.30800 Y138.24528 F240
G0 X151.30800 Y138.21988 F240
M400
M5
M42 P13 S0 (OFF - LASER)
G00 Z0.25000 ( retract )

G00 X149.40300 Y131.97148 F2000 (rapid move to begin)
F1000.00000
G01 Z0.00000
F2000.00000
G0 X149.40300 Y131.97148 F240
G0 X149.45380 Y131.97148 F240
G0 X149.45380 Y131.94608 F240
G0 X149.47920 Y131.94608 F240
G0 X149.47920 Y131.92068 F240
G0 X149.50460 Y131.92068 F240
G0 X149.50460 Y131.86988 F240
G0 X149.53000 Y131.86988 F240
G0 X149.53000 Y128.89808 F240
G0 X149.50460 Y128.89808 F240
G0 X149.50460 Y128.84728 F240
G0 X149.47920 Y128.84728 F240
G0 X149.47920 Y128.82188 F240
G0 X149.45380 Y128.82188 F240
G0 X149.45380 Y128.79648 F240
G0 X149.40300 Y128.79648 F240
G0 X149.40300 Y128.77108 F240
G0 X147.32020 Y128.77108 F240
G0 X147.32020 Y128.79648 F240
G0 X147.26940 Y128.79648 F240
G0 X147.26940 Y128.82188 F240
G0 X147.24400 Y128.82188 F240
G0 X147.24400 Y128.84728 F240
G0 X147.21860 Y128.84728 F240
G0 X147.21860 Y128.89808 F240
G0 X147.19320 Y128.89808 F240
G0 X147.19320 Y131.86988 F240
G0 X147.21860 Y131.86988 F240
G0 X147.21860 Y131.92068 F240
G0 X147.24400 Y131.92068 F240
G0 X147.24400 Y131.94608 F240
G0 X147.26940 Y131.94608 F240
G0 X147.26940 Y131.97148 F240
G0 X147.32020 Y131.97148 F240
G0 X147.32020 Y131.99688 F240
G0 X149.40300 Y131.99688 F240
G0 X149.40300 Y131.97148 F240
M400
M5
M42 P13 S0 (OFF - LASER)
G00 Z0.25000 ( retract )

G00 X149.40300 Y126.76448 F2000 (rapid move to begin)
F1000.00000
G01 Z0.00000
F2000.00000
G0 X149.40300 Y126.76448 F240
G0 X149.45380 Y126.76448 F240
G0 X149.45380 Y126.73908 F240
G0 X149.47920 Y126.73908 F240
G0 X149.47920 Y126.71368 F240
G0 X149.50460 Y126.71368 F240
G0 X149.50460 Y126.66288 F240
G0 X149.53000 Y126.66288 F240
G0 X149.53000 Y123.69108 F240
G0 X149.50460 Y123.69108 F240
G0 X149.50460 Y123.64028 F240
G0 X149.47920 Y123.64028 F240
G0 X149.47920 Y123.61488 F240
G0 X149.45380 Y123.61488 F240
G0 X149.45380 Y123.58948 F240
G0 X149.40300 Y123.58948 F240
G0 X149.40300 Y123.56408 F240
G0 X147.32020 Y123.56408 F240
G0 X147.32020 Y123.58948 F240
G0 X147.26940 Y123.58948 F240
G0 X147.26940 Y123.61488 F240
G0 X147.24400 Y123.61488 F240
G0 X147.24400 Y123.64028 F240
G0 X147.21860 Y123.64028 F240
G0 X147.21860 Y123.69108 F240
G0 X147.19320 Y123.69108 F240
G0 X147.19320 Y126.66288 F240
G0 X147.21860 Y126.66288 F240
G0 X147.21860 Y126.71368 F240
G0 X147.24400 Y126.71368 F240
G0 X147.24400 Y126.73908 F240
G0 X147.26940 Y126.73908 F240
G0 X147.26940 Y126.76448 F240
G0 X147.32020 Y126.76448 F240
G0 X147.32020 Y126.78988 F240
G0 X149.40300 Y126.78988 F240
G0 X149.40300 Y126.76448 F240
M400
M5
M42 P13 S0 (OFF - LASER)
G00 Z0.25000 ( retract )

G00 X158.01360 Y126.58668 F2000 (rapid move to begin)
F1000.00000
G01 Z0.00000
F2000.00000
G0 X158.01360 Y126.58668 F240
G0 X158.01360 Y123.05608 F240
G0 X153.44160 Y123.05608 F240
G0 X153.44160 Y126.61208 F240
G0 X158.01360 Y126.61208 F240
G0 X158.01360 Y126.58668 F240
M400
M5
M42 P13 S0 (OFF - LASER)
G00 Z0.25000 ( retract )

G00 X158.01360 Y132.12388 F2000 (rapid move to begin)
F1000.00000
G01 Z0.00000
F2000.00000
G0 X158.01360 Y132.12388 F240
G0 X158.01360 Y128.59328 F240
G0 X153.44160 Y128.59328 F240
G0 X153.44160 Y132.14928 F240
G0 X158.01360 Y132.14928 F240
G0 X158.01360 Y132.12388 F240
M400
M5
M42 P13 S0 (OFF - LASER)
G00 Z0.25000 ( retract )

G00 X170.48500 Y137.25468 F2000 (rapid move to begin)
F1000.00000
G01 Z0.00000
F2000.00000
G0 X170.48500 Y137.25468 F240
G0 X170.48500 Y136.69588 F240
G0 X170.10400 Y136.69588 F240
G0 X170.10400 Y137.28008 F240
G0 X170.48500 Y137.28008 F240
G0 X170.48500 Y137.25468 F240
M400
M5
M42 P13 S0 (OFF - LASER)
G00 Z0.25000 ( retract )

G00 X171.27240 Y137.25468 F2000 (rapid move to begin)
F1000.00000
G01 Z0.00000
F2000.00000
G0 X171.27240 Y137.25468 F240
G0 X171.27240 Y136.69588 F240
G0 X170.91680 Y136.69588 F240
G0 X170.91680 Y137.28008 F240
G0 X171.27240 Y137.28008 F240
G0 X171.27240 Y137.25468 F240
M400
M5
M42 P13 S0 (OFF - LASER)
G00 Z0.25000 ( retract )

G00 X173.55840 Y122.64968 F2000 (rapid move to begin)
F1000.00000
G01 Z0.00000
F2000.00000
G0 X173.55840 Y122.64968 F240
G0 X173.55840 Y122.09088 F240
G0 X173.20280 Y122.09088 F240
G0 X173.20280 Y122.67508 F240
G0 X173.55840 Y122.67508 F240
G0 X173.55840 Y122.64968 F240
M400
M5
M42 P13 S0 (OFF - LASER)
G00 Z0.25000 ( retract )

G00 X174.37120 Y122.64968 F2000 (rapid move to begin)
F1000.00000
G01 Z0.00000
F2000.00000
G0 X174.37120 Y122.64968 F240
G0 X174.37120 Y122.09088 F240
G0 X173.99020 Y122.09088 F240
G0 X173.99020 Y122.67508 F240
G0 X174.37120 Y122.67508 F240
G0 X174.37120 Y122.64968 F240

M400
M5
M42 P13 S0 (OFF - LASER)
G00 Z0.25000 ( retract )

M5 ( Spindle off. )
M9 ( Coolant off. )

M106 S0 (Fan off.)
M106 S255 (Fan on.)
G0 x100 y100 f2000 (  Set origin and speed.  )
( pcb2gcode 1.2.2 )
( Software-independent Gcode )





S10000 ( RPM spindle speed. )
G64 P0.00200 ( set maximum deviation from commanded toolpath )
F2000.00000 ( Feedrate. )

F2000.00000 ( Feedrate. )
M400
M5
M42 P13 S0 (OFF - LASER)
G00 Z0.25000 ( retract )

G00 X105.02920 Y132.60648 F2000 (rapid move to begin)
F1000.00000
G01 Z0.00000
F2000.00000
G0 X105.02920 Y132.60648 F240
G0 X105.02920 Y128.11068 F240
G0 X101.52400 Y128.11068 F240
G0 X101.52400 Y132.63188 F240
G0 X105.02920 Y132.63188 F240
G0 X105.02920 Y132.60648 F240
M400
M5
M42 P13 S0 (OFF - LASER)
G00 Z0.25000 ( retract )

G00 X110.56640 Y132.60648 F2000 (rapid move to begin)
F1000.00000
G01 Z0.00000
F2000.00000
G0 X110.56640 Y132.60648 F240
G0 X110.56640 Y128.11068 F240
G0 X107.06120 Y128.11068 F240
G0 X107.06120 Y132.63188 F240
G0 X110.56640 Y132.63188 F240
G0 X110.56640 Y132.60648 F240
M400
M5
M42 P13 S0 (OFF - LASER)
G00 Z0.25000 ( retract )

G00 X110.56640 Y138.95648 F2000 (rapid move to begin)
F1000.00000
G01 Z0.00000
F2000.00000
G0 X110.56640 Y138.95648 F240
G0 X110.56640 Y134.46068 F240
G0 X107.06120 Y134.46068 F240
G0 X107.06120 Y138.98188 F240
G0 X110.56640 Y138.98188 F240
G0 X110.56640 Y138.95648 F240
M400
M5
M42 P13 S0 (OFF - LASER)
G00 Z0.25000 ( retract )

G00 X105.02920 Y138.95648 F2000 (rapid move to begin)
F1000.00000
G01 Z0.00000
F2000.00000
G0 X105.02920 Y138.95648 F240
G0 X105.02920 Y134.46068 F240
G0 X101.52400 Y134.46068 F240
G0 X101.52400 Y138.98188 F240
G0 X105.02920 Y138.98188 F240
G0 X105.02920 Y138.95648 F240
M400
M5
M42 P13 S0 (OFF - LASER)
G00 Z0.25000 ( retract )

G00 X117.60220 Y138.44848 F2000 (rapid move to begin)
F1000.00000
G01 Z0.00000
F2000.00000
G0 X117.60220 Y138.44848 F240
G0 X117.60220 Y134.96868 F240
G0 X113.08100 Y134.96868 F240
G0 X113.08100 Y138.47388 F240
G0 X117.60220 Y138.47388 F240
G0 X117.60220 Y138.44848 F240
M400
M5
M42 P13 S0 (OFF - LASER)
G00 Z0.25000 ( retract )

G00 X117.60220 Y132.91128 F2000 (rapid move to begin)
F1000.00000
G01 Z0.00000
F2000.00000
G0 X117.60220 Y132.91128 F240
G0 X117.60220 Y129.43148 F240
G0 X113.08100 Y129.43148 F240
G0 X113.08100 Y132.93668 F240
G0 X117.60220 Y132.93668 F240
G0 X117.60220 Y132.91128 F240
M400
M5
M42 P13 S0 (OFF - LASER)
G00 Z0.25000 ( retract )

G00 X148.28540 Y138.19448 F2000 (rapid move to begin)
F1000.00000
G01 Z0.00000
F2000.00000
G0 X148.28540 Y138.19448 F240
G0 X148.28540 Y136.49268 F240
G0 X147.16780 Y136.49268 F240
G0 X147.16780 Y138.21988 F240
G0 X148.28540 Y138.21988 F240
G0 X148.28540 Y138.19448 F240
M400
M5
M42 P13 S0 (OFF - LASER)
G00 Z0.25000 ( retract )

G00 X151.28260 Y138.19448 F2000 (rapid move to begin)
F1000.00000
G01 Z0.00000
F2000.00000
G0 X151.28260 Y138.19448 F240
G0 X151.28260 Y136.49268 F240
G0 X150.16500 Y136.49268 F240
G0 X150.16500 Y138.21988 F240
G0 X151.28260 Y138.21988 F240
G0 X151.28260 Y138.19448 F240
M400
M5
M42 P13 S0 (OFF - LASER)
G00 Z0.25000 ( retract )

G00 X149.40300 Y131.94608 F2000 (rapid move to begin)
F1000.00000
G01 Z0.00000
F2000.00000
G0 X149.40300 Y131.94608 F240
G0 X149.45380 Y131.94608 F240
G0 X149.45380 Y131.92068 F240
G0 X149.47920 Y131.92068 F240
G0 X149.47920 Y131.86988 F240
G0 X149.50460 Y131.86988 F240
G0 X149.50460 Y128.89808 F240
G0 X149.47920 Y128.89808 F240
G0 X149.47920 Y128.84728 F240
G0 X149.45380 Y128.84728 F240
G0 X149.45380 Y128.82188 F240
G0 X149.40300 Y128.82188 F240
G0 X149.40300 Y128.79648 F240
G0 X147.32020 Y128.79648 F240
G0 X147.32020 Y128.82188 F240
G0 X147.26940 Y128.82188 F240
G0 X147.26940 Y128.84728 F240
G0 X147.24400 Y128.84728 F240
G0 X147.24400 Y128.89808 F240
G0 X147.21860 Y128.89808 F240
G0 X147.21860 Y131.86988 F240
G0 X147.24400 Y131.86988 F240
G0 X147.24400 Y131.92068 F240
G0 X147.26940 Y131.92068 F240
G0 X147.26940 Y131.94608 F240
G0 X147.32020 Y131.94608 F240
G0 X147.32020 Y131.97148 F240
G0 X149.40300 Y131.97148 F240
G0 X149.40300 Y131.94608 F240
M400
M5
M42 P13 S0 (OFF - LASER)
G00 Z0.25000 ( retract )

G00 X149.40300 Y126.73908 F2000 (rapid move to begin)
F1000.00000
G01 Z0.00000
F2000.00000
G0 X149.40300 Y126.73908 F240
G0 X149.45380 Y126.73908 F240
G0 X149.45380 Y126.71368 F240
G0 X149.47920 Y126.71368 F240
G0 X149.47920 Y126.66288 F240
G0 X149.50460 Y126.66288 F240
G0 X149.50460 Y123.69108 F240
G0 X149.47920 Y123.69108 F240
G0 X149.47920 Y123.64028 F240
G0 X149.45380 Y123.64028 F240
G0 X149.45380 Y123.61488 F240
G0 X149.40300 Y123.61488 F240
G0 X149.40300 Y123.58948 F240
G0 X147.32020 Y123.58948 F240
G0 X147.32020 Y123.61488 F240
G0 X147.26940 Y123.61488 F240
G0 X147.26940 Y123.64028 F240
G0 X147.24400 Y123.64028 F240
G0 X147.24400 Y123.69108 F240
G0 X147.21860 Y123.69108 F240
G0 X147.21860 Y126.66288 F240
G0 X147.24400 Y126.66288 F240
G0 X147.24400 Y126.71368 F240
G0 X147.26940 Y126.71368 F240
G0 X147.26940 Y126.73908 F240
G0 X147.32020 Y126.73908 F240
G0 X147.32020 Y126.76448 F240
G0 X149.40300 Y126.76448 F240
G0 X149.40300 Y126.73908 F240
M400
M5
M42 P13 S0 (OFF - LASER)
G00 Z0.25000 ( retract )

G00 X157.98820 Y126.56128 F2000 (rapid move to begin)
F1000.00000
G01 Z0.00000
F2000.00000
G0 X157.98820 Y126.56128 F240
G0 X157.98820 Y123.08148 F240
G0 X153.46700 Y123.08148 F240
G0 X153.46700 Y126.58668 F240
G0 X157.98820 Y126.58668 F240
G0 X157.98820 Y126.56128 F240
M400
M5
M42 P13 S0 (OFF - LASER)
G00 Z0.25000 ( retract )

G00 X157.98820 Y132.09848 F2000 (rapid move to begin)
F1000.00000
G01 Z0.00000
F2000.00000
G0 X157.98820 Y132.09848 F240
G0 X157.98820 Y128.61868 F240
G0 X153.46700 Y128.61868 F240
G0 X153.46700 Y132.12388 F240
G0 X157.98820 Y132.12388 F240
G0 X157.98820 Y132.09848 F240
M400
M5
M42 P13 S0 (OFF - LASER)
G00 Z0.25000 ( retract )

G00 X170.45960 Y137.22928 F2000 (rapid move to begin)
F1000.00000
G01 Z0.00000
F2000.00000
G0 X170.45960 Y137.22928 F240
G0 X170.45960 Y136.72128 F240
G0 X170.12940 Y136.72128 F240
G0 X170.12940 Y137.25468 F240
G0 X170.45960 Y137.25468 F240
G0 X170.45960 Y137.22928 F240
M400
M5
M42 P13 S0 (OFF - LASER)
G00 Z0.25000 ( retract )

G00 X171.24700 Y137.22928 F2000 (rapid move to begin)
F1000.00000
G01 Z0.00000
F2000.00000
G0 X171.24700 Y137.22928 F240
G0 X171.24700 Y136.72128 F240
G0 X170.94220 Y136.72128 F240
G0 X170.94220 Y137.25468 F240
G0 X171.24700 Y137.25468 F240
G0 X171.24700 Y137.22928 F240
M400
M5
M42 P13 S0 (OFF - LASER)
G00 Z0.25000 ( retract )

G00 X173.53300 Y122.62428 F2000 (rapid move to begin)
F1000.00000
G01 Z0.00000
F2000.00000
G0 X173.53300 Y122.62428 F240
G0 X173.53300 Y122.11628 F240
G0 X173.22820 Y122.11628 F240
G0 X173.22820 Y122.64968 F240
G0 X173.53300 Y122.64968 F240
G0 X173.53300 Y122.62428 F240
M400
M5
M42 P13 S0 (OFF - LASER)
G00 Z0.25000 ( retract )

G00 X174.34580 Y122.62428 F2000 (rapid move to begin)
F1000.00000
G01 Z0.00000
F2000.00000
G0 X174.34580 Y122.62428 F240
G0 X174.34580 Y122.11628 F240
G0 X174.01560 Y122.11628 F240
G0 X174.01560 Y122.64968 F240
G0 X174.34580 Y122.64968 F240
G0 X174.34580 Y122.62428 F240

M400
M5
M42 P13 S0 (OFF - LASER)
G00 Z0.25000 ( retract )

M5 ( Spindle off. )
M9 ( Coolant off. )

M106 S0 (Fan off.)
M106 S255 (Fan on.)
G0 x100 y100 f2000 (  Set origin and speed.  )
( pcb2gcode 1.2.2 )
( Software-independent Gcode )





S10000 ( RPM spindle speed. )
G64 P0.00200 ( set maximum deviation from commanded toolpath )
F2000.00000 ( Feedrate. )

F2000.00000 ( Feedrate. )
M400
M5
M42 P13 S0 (OFF - LASER)
G00 Z0.25000 ( retract )

G00 X105.02920 Y132.60648 F2000 (rapid move to begin)
F1000.00000
G01 Z0.00000
F2000.00000
G0 X105.02920 Y132.60648 F240
G0 X105.02920 Y128.11068 F240
G0 X101.52400 Y128.11068 F240
G0 X101.52400 Y132.63188 F240
G0 X105.02920 Y132.63188 F240
G0 X105.02920 Y132.60648 F240
M400
M5
M42 P13 S0 (OFF - LASER)
G00 Z0.25000 ( retract )

G00 X110.56640 Y132.60648 F2000 (rapid move to begin)
F1000.00000
G01 Z0.00000
F2000.00000
G0 X110.56640 Y132.60648 F240
G0 X110.56640 Y128.11068 F240
G0 X107.06120 Y128.11068 F240
G0 X107.06120 Y132.63188 F240
G0 X110.56640 Y132.63188 F240
G0 X110.56640 Y132.60648 F240
M400
M5
M42 P13 S0 (OFF - LASER)
G00 Z0.25000 ( retract )

G00 X110.56640 Y138.95648 F2000 (rapid move to begin)
F1000.00000
G01 Z0.00000
F2000.00000
G0 X110.56640 Y138.95648 F240
G0 X110.56640 Y134.46068 F240
G0 X107.06120 Y134.46068 F240
G0 X107.06120 Y138.98188 F240
G0 X110.56640 Y138.98188 F240
G0 X110.56640 Y138.95648 F240
M400
M5
M42 P13 S0 (OFF - LASER)
G00 Z0.25000 ( retract )

G00 X105.02920 Y138.95648 F2000 (rapid move to begin)
F1000.00000
G01 Z0.00000
F2000.00000
G0 X105.02920 Y138.95648 F240
G0 X105.02920 Y134.46068 F240
G0 X101.52400 Y134.46068 F240
G0 X101.52400 Y138.98188 F240
G0 X105.02920 Y138.98188 F240
G0 X105.02920 Y138.95648 F240
M400
M5
M42 P13 S0 (OFF - LASER)
G00 Z0.25000 ( retract )

G00 X117.60220 Y138.44848 F2000 (rapid move to begin)
F1000.00000
G01 Z0.00000
F2000.00000
G0 X117.60220 Y138.44848 F240
G0 X117.60220 Y134.96868 F240
G0 X113.08100 Y134.96868 F240
G0 X113.08100 Y138.47388 F240
G0 X117.60220 Y138.47388 F240
G0 X117.60220 Y138.44848 F240
M400
M5
M42 P13 S0 (OFF - LASER)
G00 Z0.25000 ( retract )

G00 X117.60220 Y132.91128 F2000 (rapid move to begin)
F1000.00000
G01 Z0.00000
F2000.00000
G0 X117.60220 Y132.91128 F240
G0 X117.60220 Y129.43148 F240
G0 X113.08100 Y129.43148 F240
G0 X113.08100 Y132.93668 F240
G0 X117.60220 Y132.93668 F240
G0 X117.60220 Y132.91128 F240
M400
M5
M42 P13 S0 (OFF - LASER)
G00 Z0.25000 ( retract )

G00 X148.28540 Y138.19448 F2000 (rapid move to begin)
F1000.00000
G01 Z0.00000
F2000.00000
G0 X148.28540 Y138.19448 F240
G0 X148.28540 Y136.49268 F240
G0 X147.16780 Y136.49268 F240
G0 X147.16780 Y138.21988 F240
G0 X148.28540 Y138.21988 F240
G0 X148.28540 Y138.19448 F240
M400
M5
M42 P13 S0 (OFF - LASER)
G00 Z0.25000 ( retract )

G00 X151.28260 Y138.19448 F2000 (rapid move to begin)
F1000.00000
G01 Z0.00000
F2000.00000
G0 X151.28260 Y138.19448 F240
G0 X151.28260 Y136.49268 F240
G0 X150.16500 Y136.49268 F240
G0 X150.16500 Y138.21988 F240
G0 X151.28260 Y138.21988 F240
G0 X151.28260 Y138.19448 F240
M400
M5
M42 P13 S0 (OFF - LASER)
G00 Z0.25000 ( retract )

G00 X149.40300 Y131.94608 F2000 (rapid move to begin)
F1000.00000
G01 Z0.00000
F2000.00000
G0 X149.40300 Y131.94608 F240
G0 X149.45380 Y131.94608 F240
G0 X149.45380 Y131.92068 F240
G0 X149.47920 Y131.92068 F240
G0 X149.47920 Y131.86988 F240
G0 X149.50460 Y131.86988 F240
G0 X149.50460 Y128.89808 F240
G0 X149.47920 Y128.89808 F240
G0 X149.47920 Y128.84728 F240
G0 X149.45380 Y128.84728 F240
G0 X149.45380 Y128.82188 F240
G0 X149.40300 Y128.82188 F240
G0 X149.40300 Y128.79648 F240
G0 X147.32020 Y128.79648 F240
G0 X147.32020 Y128.82188 F240
G0 X147.26940 Y128.82188 F240
G0 X147.26940 Y128.84728 F240
G0 X147.24400 Y128.84728 F240
G0 X147.24400 Y128.89808 F240
G0 X147.21860 Y128.89808 F240
G0 X147.21860 Y131.86988 F240
G0 X147.24400 Y131.86988 F240
G0 X147.24400 Y131.92068 F240
G0 X147.26940 Y131.92068 F240
G0 X147.26940 Y131.94608 F240
G0 X147.32020 Y131.94608 F240
G0 X147.32020 Y131.97148 F240
G0 X149.40300 Y131.97148 F240
G0 X149.40300 Y131.94608 F240
M400
M5
M42 P13 S0 (OFF - LASER)
G00 Z0.25000 ( retract )

G00 X149.40300 Y126.73908 F2000 (rapid move to begin)
F1000.00000
G01 Z0.00000
F2000.00000
G0 X149.40300 Y126.73908 F240
G0 X149.45380 Y126.73908 F240
G0 X149.45380 Y126.71368 F240
G0 X149.47920 Y126.71368 F240
G0 X149.47920 Y126.66288 F240
G0 X149.50460 Y126.66288 F240
G0 X149.50460 Y123.69108 F240
G0 X149.47920 Y123.69108 F240
G0 X149.47920 Y123.64028 F240
G0 X149.45380 Y123.64028 F240
G0 X149.45380 Y123.61488 F240
G0 X149.40300 Y123.61488 F240
G0 X149.40300 Y123.58948 F240
G0 X147.32020 Y123.58948 F240
G0 X147.32020 Y123.61488 F240
G0 X147.26940 Y123.61488 F240
G0 X147.26940 Y123.64028 F240
G0 X147.24400 Y123.64028 F240
G0 X147.24400 Y123.69108 F240
G0 X147.21860 Y123.69108 F240
G0 X147.21860 Y126.66288 F240
G0 X147.24400 Y126.66288 F240
G0 X147.24400 Y126.71368 F240
G0 X147.26940 Y126.71368 F240
G0 X147.26940 Y126.73908 F240
G0 X147.32020 Y126.73908 F240
G0 X147.32020 Y126.76448 F240
G0 X149.40300 Y126.76448 F240
G0 X149.40300 Y126.73908 F240
M400
M5
M42 P13 S0 (OFF - LASER)
G00 Z0.25000 ( retract )

G00 X157.98820 Y126.56128 F2000 (rapid move to begin)
F1000.00000
G01 Z0.00000
F2000.00000
G0 X157.98820 Y126.56128 F240
G0 X157.98820 Y123.08148 F240
G0 X153.46700 Y123.08148 F240
G0 X153.46700 Y126.58668 F240
G0 X157.98820 Y126.58668 F240
G0 X157.98820 Y126.56128 F240
M400
M5
M42 P13 S0 (OFF - LASER)
G00 Z0.25000 ( retract )

G00 X157.98820 Y132.09848 F2000 (rapid move to begin)
F1000.00000
G01 Z0.00000
F2000.00000
G0 X157.98820 Y132.09848 F240
G0 X157.98820 Y128.61868 F240
G0 X153.46700 Y128.61868 F240
G0 X153.46700 Y132.12388 F240
G0 X157.98820 Y132.12388 F240
G0 X157.98820 Y132.09848 F240
M400
M5
M42 P13 S0 (OFF - LASER)
G00 Z0.25000 ( retract )

G00 X170.45960 Y137.22928 F2000 (rapid move to begin)
F1000.00000
G01 Z0.00000
F2000.00000
G0 X170.45960 Y137.22928 F240
G0 X170.45960 Y136.72128 F240
G0 X170.12940 Y136.72128 F240
G0 X170.12940 Y137.25468 F240
G0 X170.45960 Y137.25468 F240
G0 X170.45960 Y137.22928 F240
M400
M5
M42 P13 S0 (OFF - LASER)
G00 Z0.25000 ( retract )

G00 X171.24700 Y137.22928 F2000 (rapid move to begin)
F1000.00000
G01 Z0.00000
F2000.00000
G0 X171.24700 Y137.22928 F240
G0 X171.24700 Y136.72128 F240
G0 X170.94220 Y136.72128 F240
G0 X170.94220 Y137.25468 F240
G0 X171.24700 Y137.25468 F240
G0 X171.24700 Y137.22928 F240
M400
M5
M42 P13 S0 (OFF - LASER)
G00 Z0.25000 ( retract )

G00 X173.53300 Y122.62428 F2000 (rapid move to begin)
F1000.00000
G01 Z0.00000
F2000.00000
G0 X173.53300 Y122.62428 F240
G0 X173.53300 Y122.11628 F240
G0 X173.22820 Y122.11628 F240
G0 X173.22820 Y122.64968 F240
G0 X173.53300 Y122.64968 F240
G0 X173.53300 Y122.62428 F240
M400
M5
M42 P13 S0 (OFF - LASER)
G00 Z0.25000 ( retract )

G00 X174.34580 Y122.62428 F2000 (rapid move to begin)
F1000.00000
G01 Z0.00000
F2000.00000
G0 X174.34580 Y122.62428 F240
G0 X174.34580 Y122.11628 F240
G0 X174.01560 Y122.11628 F240
G0 X174.01560 Y122.64968 F240
G0 X174.34580 Y122.64968 F240
G0 X174.34580 Y122.62428 F240

M400
M5
M42 P13 S0 (OFF - LASER)
G00 Z0.25000 ( retract )

M5 ( Spindle off. )
M9 ( Coolant off. )

M106 S0 (Fan off.)
