M106 S255 (Fan on.)
G0 x100 y100 f2000 (  Set origin and speed.  )
( pcb2gcode 1.2.2 )
( Software-independent Gcode )





S10000 ( RPM spindle speed. )
G64 P0.00200 ( set maximum deviation from commanded toolpath )
F2000.00000 ( Feedrate. )

F2000.00000 ( Feedrate. )
M400
M5
M42 P13 S0 (OFF - LASER)
G00 Z0.25000 ( retract )

G00 X105.05460 Y132.66363 F2000 (rapid move to begin)
F1000.00000
G01 Z0.00000
F2000.00000
G0 X105.05460 Y132.66363 F240
G0 X105.05460 Y128.09163 F240
G0 X101.47320 Y128.09163 F240
G0 X101.47320 Y132.68903 F240
G0 X105.05460 Y132.68903 F240
G0 X105.05460 Y132.66363 F240
M400
M5
M42 P13 S0 (OFF - LASER)
G00 Z0.25000 ( retract )

G00 X110.59180 Y132.66363 F2000 (rapid move to begin)
F1000.00000
G01 Z0.00000
F2000.00000
G0 X110.59180 Y132.66363 F240
G0 X110.59180 Y128.09163 F240
G0 X107.01040 Y128.09163 F240
G0 X107.01040 Y132.68903 F240
G0 X110.59180 Y132.68903 F240
G0 X110.59180 Y132.66363 F240
M400
M5
M42 P13 S0 (OFF - LASER)
G00 Z0.25000 ( retract )

G00 X110.59180 Y139.01363 F2000 (rapid move to begin)
F1000.00000
G01 Z0.00000
F2000.00000
G0 X110.59180 Y139.01363 F240
G0 X110.59180 Y134.44163 F240
G0 X107.01040 Y134.44163 F240
G0 X107.01040 Y139.03903 F240
G0 X110.59180 Y139.03903 F240
G0 X110.59180 Y139.01363 F240
M400
M5
M42 P13 S0 (OFF - LASER)
G00 Z0.25000 ( retract )

G00 X105.05460 Y139.01363 F2000 (rapid move to begin)
F1000.00000
G01 Z0.00000
F2000.00000
G0 X105.05460 Y139.01363 F240
G0 X105.05460 Y134.44163 F240
G0 X101.47320 Y134.44163 F240
G0 X101.47320 Y139.03903 F240
G0 X105.05460 Y139.03903 F240
G0 X105.05460 Y139.01363 F240
M400
M5
M42 P13 S0 (OFF - LASER)
G00 Z0.25000 ( retract )

G00 X117.62760 Y138.50563 F2000 (rapid move to begin)
F1000.00000
G01 Z0.00000
F2000.00000
G0 X117.62760 Y138.50563 F240
G0 X117.62760 Y134.94963 F240
G0 X113.03020 Y134.94963 F240
G0 X113.03020 Y138.53103 F240
G0 X117.62760 Y138.53103 F240
G0 X117.62760 Y138.50563 F240
M400
M5
M42 P13 S0 (OFF - LASER)
G00 Z0.25000 ( retract )

G00 X117.62760 Y132.96843 F2000 (rapid move to begin)
F1000.00000
G01 Z0.00000
F2000.00000
G0 X117.62760 Y132.96843 F240
G0 X117.62760 Y129.41243 F240
G0 X113.03020 Y129.41243 F240
G0 X113.03020 Y132.99383 F240
G0 X117.62760 Y132.99383 F240
G0 X117.62760 Y132.96843 F240
M400
M5
M42 P13 S0 (OFF - LASER)
G00 Z0.25000 ( retract )

G00 X139.80180 Y123.06243 F2000 (rapid move to begin)
F1000.00000
G01 Z0.00000
F2000.00000
G0 X139.80180 Y123.06243 F240
G0 X139.80180 Y121.69083 F240
G0 X138.60800 Y121.69083 F240
G0 X138.60800 Y123.08783 F240
G0 X139.80180 Y123.08783 F240
G0 X139.80180 Y123.06243 F240
M400
M5
M42 P13 S0 (OFF - LASER)
G00 Z0.25000 ( retract )

G00 X141.60520 Y123.06243 F2000 (rapid move to begin)
F1000.00000
G01 Z0.00000
F2000.00000
G0 X141.60520 Y123.06243 F240
G0 X141.60520 Y121.69083 F240
G0 X140.41140 Y121.69083 F240
G0 X140.41140 Y123.08783 F240
G0 X141.60520 Y123.08783 F240
G0 X141.60520 Y123.06243 F240
M400
M5
M42 P13 S0 (OFF - LASER)
G00 Z0.25000 ( retract )

G00 X149.40300 Y126.77083 F2000 (rapid move to begin)
F1000.00000
G01 Z0.00000
F2000.00000
G0 X149.40300 Y126.77083 F240
G0 X149.45380 Y126.77083 F240
G0 X149.45380 Y126.74543 F240
G0 X149.47920 Y126.74543 F240
G0 X149.47920 Y126.72003 F240
G0 X149.50460 Y126.72003 F240
G0 X149.50460 Y126.66923 F240
G0 X149.53000 Y126.66923 F240
G0 X149.53000 Y123.67203 F240
G0 X149.50460 Y123.67203 F240
G0 X149.50460 Y123.62123 F240
G0 X149.47920 Y123.62123 F240
G0 X149.47920 Y123.59583 F240
G0 X149.45380 Y123.59583 F240
G0 X149.45380 Y123.57043 F240
G0 X149.40300 Y123.57043 F240
G0 X149.40300 Y123.54503 F240
G0 X147.32020 Y123.54503 F240
G0 X147.32020 Y123.57043 F240
G0 X147.26940 Y123.57043 F240
G0 X147.26940 Y123.59583 F240
G0 X147.24400 Y123.59583 F240
G0 X147.24400 Y123.62123 F240
G0 X147.21860 Y123.62123 F240
G0 X147.21860 Y123.67203 F240
G0 X147.19320 Y123.67203 F240
G0 X147.19320 Y126.66923 F240
G0 X147.21860 Y126.66923 F240
G0 X147.21860 Y126.72003 F240
G0 X147.24400 Y126.72003 F240
G0 X147.24400 Y126.74543 F240
G0 X147.26940 Y126.74543 F240
G0 X147.26940 Y126.77083 F240
G0 X147.32020 Y126.77083 F240
G0 X147.32020 Y126.79623 F240
G0 X149.40300 Y126.79623 F240
G0 X149.40300 Y126.77083 F240
M400
M5
M42 P13 S0 (OFF - LASER)
G00 Z0.25000 ( retract )

G00 X149.40300 Y131.97783 F2000 (rapid move to begin)
F1000.00000
G01 Z0.00000
F2000.00000
G0 X149.40300 Y131.97783 F240
G0 X149.45380 Y131.97783 F240
G0 X149.45380 Y131.95243 F240
G0 X149.47920 Y131.95243 F240
G0 X149.47920 Y131.92703 F240
G0 X149.50460 Y131.92703 F240
G0 X149.50460 Y131.87623 F240
G0 X149.53000 Y131.87623 F240
G0 X149.53000 Y128.87903 F240
G0 X149.50460 Y128.87903 F240
G0 X149.50460 Y128.82823 F240
G0 X149.47920 Y128.82823 F240
G0 X149.47920 Y128.80283 F240
G0 X149.45380 Y128.80283 F240
G0 X149.45380 Y128.77743 F240
G0 X149.40300 Y128.77743 F240
G0 X149.40300 Y128.75203 F240
G0 X147.32020 Y128.75203 F240
G0 X147.32020 Y128.77743 F240
G0 X147.26940 Y128.77743 F240
G0 X147.26940 Y128.80283 F240
G0 X147.24400 Y128.80283 F240
G0 X147.24400 Y128.82823 F240
G0 X147.21860 Y128.82823 F240
G0 X147.21860 Y128.87903 F240
G0 X147.19320 Y128.87903 F240
G0 X147.19320 Y131.87623 F240
G0 X147.21860 Y131.87623 F240
G0 X147.21860 Y131.92703 F240
G0 X147.24400 Y131.92703 F240
G0 X147.24400 Y131.95243 F240
G0 X147.26940 Y131.95243 F240
G0 X147.26940 Y131.97783 F240
G0 X147.32020 Y131.97783 F240
G0 X147.32020 Y132.00323 F240
G0 X149.40300 Y132.00323 F240
G0 X149.40300 Y131.97783 F240
M400
M5
M42 P13 S0 (OFF - LASER)
G00 Z0.25000 ( retract )

G00 X148.31080 Y138.25163 F2000 (rapid move to begin)
F1000.00000
G01 Z0.00000
F2000.00000
G0 X148.31080 Y138.25163 F240
G0 X148.31080 Y136.47363 F240
G0 X147.11700 Y136.47363 F240
G0 X147.11700 Y138.27703 F240
G0 X148.31080 Y138.27703 F240
G0 X148.31080 Y138.25163 F240
M400
M5
M42 P13 S0 (OFF - LASER)
G00 Z0.25000 ( retract )

G00 X151.30800 Y138.25163 F2000 (rapid move to begin)
F1000.00000
G01 Z0.00000
F2000.00000
G0 X151.30800 Y138.25163 F240
G0 X151.30800 Y136.47363 F240
G0 X150.11420 Y136.47363 F240
G0 X150.11420 Y138.27703 F240
G0 X151.30800 Y138.27703 F240
G0 X151.30800 Y138.25163 F240
M400
M5
M42 P13 S0 (OFF - LASER)
G00 Z0.25000 ( retract )

G00 X158.01360 Y132.15563 F2000 (rapid move to begin)
F1000.00000
G01 Z0.00000
F2000.00000
G0 X158.01360 Y132.15563 F240
G0 X158.01360 Y128.59963 F240
G0 X153.41620 Y128.59963 F240
G0 X153.41620 Y132.18103 F240
G0 X158.01360 Y132.18103 F240
G0 X158.01360 Y132.15563 F240
M400
M5
M42 P13 S0 (OFF - LASER)
G00 Z0.25000 ( retract )

G00 X158.01360 Y126.61843 F2000 (rapid move to begin)
F1000.00000
G01 Z0.00000
F2000.00000
G0 X158.01360 Y126.61843 F240
G0 X158.01360 Y123.06243 F240
G0 X153.41620 Y123.06243 F240
G0 X153.41620 Y126.64383 F240
G0 X158.01360 Y126.64383 F240
G0 X158.01360 Y126.61843 F240
M400
M5
M42 P13 S0 (OFF - LASER)
G00 Z0.25000 ( retract )

G00 X173.55840 Y122.65603 F2000 (rapid move to begin)
F1000.00000
G01 Z0.00000
F2000.00000
G0 X173.55840 Y122.65603 F240
G0 X173.55840 Y122.09723 F240
G0 X173.17740 Y122.09723 F240
G0 X173.17740 Y122.68143 F240
G0 X173.55840 Y122.68143 F240
G0 X173.55840 Y122.65603 F240
M400
M5
M42 P13 S0 (OFF - LASER)
G00 Z0.25000 ( retract )

G00 X174.37120 Y122.65603 F2000 (rapid move to begin)
F1000.00000
G01 Z0.00000
F2000.00000
G0 X174.37120 Y122.65603 F240
G0 X174.37120 Y122.09723 F240
G0 X173.96480 Y122.09723 F240
G0 X173.96480 Y122.68143 F240
G0 X174.37120 Y122.68143 F240
G0 X174.37120 Y122.65603 F240
M400
M5
M42 P13 S0 (OFF - LASER)
G00 Z0.25000 ( retract )

G00 X171.27240 Y137.26103 F2000 (rapid move to begin)
F1000.00000
G01 Z0.00000
F2000.00000
G0 X171.27240 Y137.26103 F240
G0 X171.27240 Y136.70223 F240
G0 X170.89140 Y136.70223 F240
G0 X170.89140 Y137.28643 F240
G0 X171.27240 Y137.28643 F240
G0 X171.27240 Y137.26103 F240
M400
M5
M42 P13 S0 (OFF - LASER)
G00 Z0.25000 ( retract )

G00 X170.48500 Y137.26103 F2000 (rapid move to begin)
F1000.00000
G01 Z0.00000
F2000.00000
G0 X170.48500 Y137.26103 F240
G0 X170.48500 Y136.70223 F240
G0 X170.07860 Y136.70223 F240
G0 X170.07860 Y137.28643 F240
G0 X170.48500 Y137.28643 F240
G0 X170.48500 Y137.26103 F240

M400
M5
M42 P13 S0 (OFF - LASER)
G00 Z0.25000 ( retract )

M5 ( Spindle off. )
M9 ( Coolant off. )

M106 S0 (Fan off.)
M106 S255 (Fan on.)
G0 x100 y100 f2000 (  Set origin and speed.  )
( pcb2gcode 1.2.2 )
( Software-independent Gcode )





S10000 ( RPM spindle speed. )
G64 P0.00200 ( set maximum deviation from commanded toolpath )
F2000.00000 ( Feedrate. )

F2000.00000 ( Feedrate. )
M400
M5
M42 P13 S0 (OFF - LASER)
G00 Z0.25000 ( retract )

G00 X105.05460 Y132.63823 F2000 (rapid move to begin)
F1000.00000
G01 Z0.00000
F2000.00000
G0 X105.05460 Y132.63823 F240
G0 X105.05460 Y128.09163 F240
G0 X101.49860 Y128.09163 F240
G0 X101.49860 Y132.66363 F240
G0 X105.05460 Y132.66363 F240
G0 X105.05460 Y132.63823 F240
M400
M5
M42 P13 S0 (OFF - LASER)
G00 Z0.25000 ( retract )

G00 X110.59180 Y132.63823 F2000 (rapid move to begin)
F1000.00000
G01 Z0.00000
F2000.00000
G0 X110.59180 Y132.63823 F240
G0 X110.59180 Y128.09163 F240
G0 X107.03580 Y128.09163 F240
G0 X107.03580 Y132.66363 F240
G0 X110.59180 Y132.66363 F240
G0 X110.59180 Y132.63823 F240
M400
M5
M42 P13 S0 (OFF - LASER)
G00 Z0.25000 ( retract )

G00 X110.59180 Y138.98823 F2000 (rapid move to begin)
F1000.00000
G01 Z0.00000
F2000.00000
G0 X110.59180 Y138.98823 F240
G0 X110.59180 Y134.44163 F240
G0 X107.03580 Y134.44163 F240
G0 X107.03580 Y139.01363 F240
G0 X110.59180 Y139.01363 F240
G0 X110.59180 Y138.98823 F240
M400
M5
M42 P13 S0 (OFF - LASER)
G00 Z0.25000 ( retract )

G00 X105.05460 Y138.98823 F2000 (rapid move to begin)
F1000.00000
G01 Z0.00000
F2000.00000
G0 X105.05460 Y138.98823 F240
G0 X105.05460 Y134.44163 F240
G0 X101.49860 Y134.44163 F240
G0 X101.49860 Y139.01363 F240
G0 X105.05460 Y139.01363 F240
G0 X105.05460 Y138.98823 F240
M400
M5
M42 P13 S0 (OFF - LASER)
G00 Z0.25000 ( retract )

G00 X117.62760 Y138.48023 F2000 (rapid move to begin)
F1000.00000
G01 Z0.00000
F2000.00000
G0 X117.62760 Y138.48023 F240
G0 X117.62760 Y134.94963 F240
G0 X113.05560 Y134.94963 F240
G0 X113.05560 Y138.50563 F240
G0 X117.62760 Y138.50563 F240
G0 X117.62760 Y138.48023 F240
M400
M5
M42 P13 S0 (OFF - LASER)
G00 Z0.25000 ( retract )

G00 X117.62760 Y132.94303 F2000 (rapid move to begin)
F1000.00000
G01 Z0.00000
F2000.00000
G0 X117.62760 Y132.94303 F240
G0 X117.62760 Y129.41243 F240
G0 X113.05560 Y129.41243 F240
G0 X113.05560 Y132.96843 F240
G0 X117.62760 Y132.96843 F240
G0 X117.62760 Y132.94303 F240
M400
M5
M42 P13 S0 (OFF - LASER)
G00 Z0.25000 ( retract )

G00 X139.80180 Y123.03703 F2000 (rapid move to begin)
F1000.00000
G01 Z0.00000
F2000.00000
G0 X139.80180 Y123.03703 F240
G0 X139.80180 Y121.69083 F240
G0 X138.63340 Y121.69083 F240
G0 X138.63340 Y123.06243 F240
G0 X139.80180 Y123.06243 F240
G0 X139.80180 Y123.03703 F240
M400
M5
M42 P13 S0 (OFF - LASER)
G00 Z0.25000 ( retract )

G00 X141.60520 Y123.03703 F2000 (rapid move to begin)
F1000.00000
G01 Z0.00000
F2000.00000
G0 X141.60520 Y123.03703 F240
G0 X141.60520 Y121.69083 F240
G0 X140.43680 Y121.69083 F240
G0 X140.43680 Y123.06243 F240
G0 X141.60520 Y123.06243 F240
G0 X141.60520 Y123.03703 F240
M400
M5
M42 P13 S0 (OFF - LASER)
G00 Z0.25000 ( retract )

G00 X149.40300 Y126.77083 F2000 (rapid move to begin)
F1000.00000
G01 Z0.00000
F2000.00000
G0 X149.40300 Y126.77083 F240
G0 X149.45380 Y126.77083 F240
G0 X149.45380 Y126.74543 F240
G0 X149.47920 Y126.74543 F240
G0 X149.47920 Y126.72003 F240
G0 X149.50460 Y126.72003 F240
G0 X149.50460 Y126.66923 F240
G0 X149.53000 Y126.66923 F240
G0 X149.53000 Y123.69743 F240
G0 X149.50460 Y123.69743 F240
G0 X149.50460 Y123.64663 F240
G0 X149.47920 Y123.64663 F240
G0 X149.47920 Y123.62123 F240
G0 X149.45380 Y123.62123 F240
G0 X149.45380 Y123.59583 F240
G0 X149.40300 Y123.59583 F240
G0 X149.40300 Y123.57043 F240
G0 X147.32020 Y123.57043 F240
G0 X147.32020 Y123.59583 F240
G0 X147.26940 Y123.59583 F240
G0 X147.26940 Y123.62123 F240
G0 X147.24400 Y123.62123 F240
G0 X147.24400 Y123.64663 F240
G0 X147.21860 Y123.64663 F240
G0 X147.21860 Y123.69743 F240
G0 X147.19320 Y123.69743 F240
G0 X147.19320 Y126.66923 F240
G0 X147.21860 Y126.66923 F240
G0 X147.21860 Y126.72003 F240
G0 X147.24400 Y126.72003 F240
G0 X147.24400 Y126.74543 F240
G0 X147.26940 Y126.74543 F240
G0 X147.26940 Y126.77083 F240
G0 X147.32020 Y126.77083 F240
G0 X147.32020 Y126.79623 F240
G0 X149.40300 Y126.79623 F240
G0 X149.40300 Y126.77083 F240
M400
M5
M42 P13 S0 (OFF - LASER)
G00 Z0.25000 ( retract )

G00 X149.40300 Y131.97783 F2000 (rapid move to begin)
F1000.00000
G01 Z0.00000
F2000.00000
G0 X149.40300 Y131.97783 F240
G0 X149.45380 Y131.97783 F240
G0 X149.45380 Y131.95243 F240
G0 X149.47920 Y131.95243 F240
G0 X149.47920 Y131.92703 F240
G0 X149.50460 Y131.92703 F240
G0 X149.50460 Y131.87623 F240
G0 X149.53000 Y131.87623 F240
G0 X149.53000 Y128.87903 F240
G0 X149.50460 Y128.87903 F240
G0 X149.50460 Y128.82823 F240
G0 X149.47920 Y128.82823 F240
G0 X149.47920 Y128.80283 F240
G0 X149.45380 Y128.80283 F240
G0 X149.45380 Y128.77743 F240
G0 X149.40300 Y128.77743 F240
G0 X149.40300 Y128.75203 F240
G0 X147.32020 Y128.75203 F240
G0 X147.32020 Y128.77743 F240
G0 X147.26940 Y128.77743 F240
G0 X147.26940 Y128.80283 F240
G0 X147.24400 Y128.80283 F240
G0 X147.24400 Y128.82823 F240
G0 X147.21860 Y128.82823 F240
G0 X147.21860 Y128.87903 F240
G0 X147.19320 Y128.87903 F240
G0 X147.19320 Y131.87623 F240
G0 X147.21860 Y131.87623 F240
G0 X147.21860 Y131.92703 F240
G0 X147.24400 Y131.92703 F240
G0 X147.24400 Y131.95243 F240
G0 X147.26940 Y131.95243 F240
G0 X147.26940 Y131.97783 F240
G0 X147.32020 Y131.97783 F240
G0 X147.32020 Y132.00323 F240
G0 X149.40300 Y132.00323 F240
G0 X149.40300 Y131.97783 F240
M400
M5
M42 P13 S0 (OFF - LASER)
G00 Z0.25000 ( retract )

G00 X148.31080 Y138.22623 F2000 (rapid move to begin)
F1000.00000
G01 Z0.00000
F2000.00000
G0 X148.31080 Y138.22623 F240
G0 X148.31080 Y136.47363 F240
G0 X147.14240 Y136.47363 F240
G0 X147.14240 Y138.25163 F240
G0 X148.31080 Y138.25163 F240
G0 X148.31080 Y138.22623 F240
M400
M5
M42 P13 S0 (OFF - LASER)
G00 Z0.25000 ( retract )

G00 X151.30800 Y138.22623 F2000 (rapid move to begin)
F1000.00000
G01 Z0.00000
F2000.00000
G0 X151.30800 Y138.22623 F240
G0 X151.30800 Y136.47363 F240
G0 X150.13960 Y136.47363 F240
G0 X150.13960 Y138.25163 F240
G0 X151.30800 Y138.25163 F240
G0 X151.30800 Y138.22623 F240
M400
M5
M42 P13 S0 (OFF - LASER)
G00 Z0.25000 ( retract )

G00 X158.01360 Y132.13023 F2000 (rapid move to begin)
F1000.00000
G01 Z0.00000
F2000.00000
G0 X158.01360 Y132.13023 F240
G0 X158.01360 Y128.59963 F240
G0 X153.44160 Y128.59963 F240
G0 X153.44160 Y132.15563 F240
G0 X158.01360 Y132.15563 F240
G0 X158.01360 Y132.13023 F240
M400
M5
M42 P13 S0 (OFF - LASER)
G00 Z0.25000 ( retract )

G00 X158.01360 Y126.59303 F2000 (rapid move to begin)
F1000.00000
G01 Z0.00000
F2000.00000
G0 X158.01360 Y126.59303 F240
G0 X158.01360 Y123.06243 F240
G0 X153.44160 Y123.06243 F240
G0 X153.44160 Y126.61843 F240
G0 X158.01360 Y126.61843 F240
G0 X158.01360 Y126.59303 F240
M400
M5
M42 P13 S0 (OFF - LASER)
G00 Z0.25000 ( retract )

G00 X173.55840 Y122.63063 F2000 (rapid move to begin)
F1000.00000
G01 Z0.00000
F2000.00000
G0 X173.55840 Y122.63063 F240
G0 X173.55840 Y122.09723 F240
G0 X173.20280 Y122.09723 F240
G0 X173.20280 Y122.65603 F240
G0 X173.55840 Y122.65603 F240
G0 X173.55840 Y122.63063 F240
M400
M5
M42 P13 S0 (OFF - LASER)
G00 Z0.25000 ( retract )

G00 X174.37120 Y122.63063 F2000 (rapid move to begin)
F1000.00000
G01 Z0.00000
F2000.00000
G0 X174.37120 Y122.63063 F240
G0 X174.37120 Y122.09723 F240
G0 X173.99020 Y122.09723 F240
G0 X173.99020 Y122.65603 F240
G0 X174.37120 Y122.65603 F240
G0 X174.37120 Y122.63063 F240
M400
M5
M42 P13 S0 (OFF - LASER)
G00 Z0.25000 ( retract )

G00 X171.27240 Y137.23563 F2000 (rapid move to begin)
F1000.00000
G01 Z0.00000
F2000.00000
G0 X171.27240 Y137.23563 F240
G0 X171.27240 Y136.70223 F240
G0 X170.91680 Y136.70223 F240
G0 X170.91680 Y137.26103 F240
G0 X171.27240 Y137.26103 F240
G0 X171.27240 Y137.23563 F240
M400
M5
M42 P13 S0 (OFF - LASER)
G00 Z0.25000 ( retract )

G00 X170.48500 Y137.23563 F2000 (rapid move to begin)
F1000.00000
G01 Z0.00000
F2000.00000
G0 X170.48500 Y137.23563 F240
G0 X170.48500 Y136.70223 F240
G0 X170.10400 Y136.70223 F240
G0 X170.10400 Y137.26103 F240
G0 X170.48500 Y137.26103 F240
G0 X170.48500 Y137.23563 F240

M400
M5
M42 P13 S0 (OFF - LASER)
G00 Z0.25000 ( retract )

M5 ( Spindle off. )
M9 ( Coolant off. )

M106 S0 (Fan off.)
M106 S255 (Fan on.)
G0 x100 y100 f2000 (  Set origin and speed.  )
( pcb2gcode 1.2.2 )
( Software-independent Gcode )





S10000 ( RPM spindle speed. )
G64 P0.00200 ( set maximum deviation from commanded toolpath )
F2000.00000 ( Feedrate. )

F2000.00000 ( Feedrate. )
M400
M5
M42 P13 S0 (OFF - LASER)
G00 Z0.25000 ( retract )

G00 X105.02920 Y132.61283 F2000 (rapid move to begin)
F1000.00000
G01 Z0.00000
F2000.00000
G0 X105.02920 Y132.61283 F240
G0 X105.02920 Y128.11703 F240
G0 X101.52400 Y128.11703 F240
G0 X101.52400 Y132.63823 F240
G0 X105.02920 Y132.63823 F240
G0 X105.02920 Y132.61283 F240
M400
M5
M42 P13 S0 (OFF - LASER)
G00 Z0.25000 ( retract )

G00 X110.56640 Y132.61283 F2000 (rapid move to begin)
F1000.00000
G01 Z0.00000
F2000.00000
G0 X110.56640 Y132.61283 F240
G0 X110.56640 Y128.11703 F240
G0 X107.06120 Y128.11703 F240
G0 X107.06120 Y132.63823 F240
G0 X110.56640 Y132.63823 F240
G0 X110.56640 Y132.61283 F240
M400
M5
M42 P13 S0 (OFF - LASER)
G00 Z0.25000 ( retract )

G00 X110.56640 Y138.96283 F2000 (rapid move to begin)
F1000.00000
G01 Z0.00000
F2000.00000
G0 X110.56640 Y138.96283 F240
G0 X110.56640 Y134.46703 F240
G0 X107.06120 Y134.46703 F240
G0 X107.06120 Y138.98823 F240
G0 X110.56640 Y138.98823 F240
G0 X110.56640 Y138.96283 F240
M400
M5
M42 P13 S0 (OFF - LASER)
G00 Z0.25000 ( retract )

G00 X105.02920 Y138.96283 F2000 (rapid move to begin)
F1000.00000
G01 Z0.00000
F2000.00000
G0 X105.02920 Y138.96283 F240
G0 X105.02920 Y134.46703 F240
G0 X101.52400 Y134.46703 F240
G0 X101.52400 Y138.98823 F240
G0 X105.02920 Y138.98823 F240
G0 X105.02920 Y138.96283 F240
M400
M5
M42 P13 S0 (OFF - LASER)
G00 Z0.25000 ( retract )

G00 X117.60220 Y138.45483 F2000 (rapid move to begin)
F1000.00000
G01 Z0.00000
F2000.00000
G0 X117.60220 Y138.45483 F240
G0 X117.60220 Y134.97503 F240
G0 X113.08100 Y134.97503 F240
G0 X113.08100 Y138.48023 F240
G0 X117.60220 Y138.48023 F240
G0 X117.60220 Y138.45483 F240
M400
M5
M42 P13 S0 (OFF - LASER)
G00 Z0.25000 ( retract )

G00 X117.60220 Y132.91763 F2000 (rapid move to begin)
F1000.00000
G01 Z0.00000
F2000.00000
G0 X117.60220 Y132.91763 F240
G0 X117.60220 Y129.43783 F240
G0 X113.08100 Y129.43783 F240
G0 X113.08100 Y132.94303 F240
G0 X117.60220 Y132.94303 F240
G0 X117.60220 Y132.91763 F240
M400
M5
M42 P13 S0 (OFF - LASER)
G00 Z0.25000 ( retract )

G00 X139.77640 Y123.01163 F2000 (rapid move to begin)
F1000.00000
G01 Z0.00000
F2000.00000
G0 X139.77640 Y123.01163 F240
G0 X139.77640 Y121.71623 F240
G0 X138.65880 Y121.71623 F240
G0 X138.65880 Y123.03703 F240
G0 X139.77640 Y123.03703 F240
G0 X139.77640 Y123.01163 F240
M400
M5
M42 P13 S0 (OFF - LASER)
G00 Z0.25000 ( retract )

G00 X141.57980 Y123.01163 F2000 (rapid move to begin)
F1000.00000
G01 Z0.00000
F2000.00000
G0 X141.57980 Y123.01163 F240
G0 X141.57980 Y121.71623 F240
G0 X140.46220 Y121.71623 F240
G0 X140.46220 Y123.03703 F240
G0 X141.57980 Y123.03703 F240
G0 X141.57980 Y123.01163 F240
M400
M5
M42 P13 S0 (OFF - LASER)
G00 Z0.25000 ( retract )

G00 X149.40300 Y126.74543 F2000 (rapid move to begin)
F1000.00000
G01 Z0.00000
F2000.00000
G0 X149.40300 Y126.74543 F240
G0 X149.45380 Y126.74543 F240
G0 X149.45380 Y126.72003 F240
G0 X149.47920 Y126.72003 F240
G0 X149.47920 Y126.66923 F240
G0 X149.50460 Y126.66923 F240
G0 X149.50460 Y123.69743 F240
G0 X149.47920 Y123.69743 F240
G0 X149.47920 Y123.64663 F240
G0 X149.45380 Y123.64663 F240
G0 X149.45380 Y123.62123 F240
G0 X149.40300 Y123.62123 F240
G0 X149.40300 Y123.59583 F240
G0 X147.32020 Y123.59583 F240
G0 X147.32020 Y123.62123 F240
G0 X147.26940 Y123.62123 F240
G0 X147.26940 Y123.64663 F240
G0 X147.24400 Y123.64663 F240
G0 X147.24400 Y123.69743 F240
G0 X147.21860 Y123.69743 F240
G0 X147.21860 Y126.66923 F240
G0 X147.24400 Y126.66923 F240
G0 X147.24400 Y126.72003 F240
G0 X147.26940 Y126.72003 F240
G0 X147.26940 Y126.74543 F240
G0 X147.32020 Y126.74543 F240
G0 X147.32020 Y126.77083 F240
G0 X149.40300 Y126.77083 F240
G0 X149.40300 Y126.74543 F240
M400
M5
M42 P13 S0 (OFF - LASER)
G00 Z0.25000 ( retract )

G00 X149.40300 Y131.95243 F2000 (rapid move to begin)
F1000.00000
G01 Z0.00000
F2000.00000
G0 X149.40300 Y131.95243 F240
G0 X149.45380 Y131.95243 F240
G0 X149.45380 Y131.92703 F240
G0 X149.47920 Y131.92703 F240
G0 X149.47920 Y131.87623 F240
G0 X149.50460 Y131.87623 F240
G0 X149.50460 Y128.87903 F240
G0 X149.47920 Y128.87903 F240
G0 X149.47920 Y128.82823 F240
G0 X149.45380 Y128.82823 F240
G0 X149.45380 Y128.80283 F240
G0 X149.40300 Y128.80283 F240
G0 X149.40300 Y128.77743 F240
G0 X147.32020 Y128.77743 F240
G0 X147.32020 Y128.80283 F240
G0 X147.26940 Y128.80283 F240
G0 X147.26940 Y128.82823 F240
G0 X147.24400 Y128.82823 F240
G0 X147.24400 Y128.87903 F240
G0 X147.21860 Y128.87903 F240
G0 X147.21860 Y131.87623 F240
G0 X147.24400 Y131.87623 F240
G0 X147.24400 Y131.92703 F240
G0 X147.26940 Y131.92703 F240
G0 X147.26940 Y131.95243 F240
G0 X147.32020 Y131.95243 F240
G0 X147.32020 Y131.97783 F240
G0 X149.40300 Y131.97783 F240
G0 X149.40300 Y131.95243 F240
M400
M5
M42 P13 S0 (OFF - LASER)
G00 Z0.25000 ( retract )

G00 X148.28540 Y138.20083 F2000 (rapid move to begin)
F1000.00000
G01 Z0.00000
F2000.00000
G0 X148.28540 Y138.20083 F240
G0 X148.28540 Y136.49903 F240
G0 X147.16780 Y136.49903 F240
G0 X147.16780 Y138.22623 F240
G0 X148.28540 Y138.22623 F240
G0 X148.28540 Y138.20083 F240
M400
M5
M42 P13 S0 (OFF - LASER)
G00 Z0.25000 ( retract )

G00 X151.28260 Y138.20083 F2000 (rapid move to begin)
F1000.00000
G01 Z0.00000
F2000.00000
G0 X151.28260 Y138.20083 F240
G0 X151.28260 Y136.49903 F240
G0 X150.16500 Y136.49903 F240
G0 X150.16500 Y138.22623 F240
G0 X151.28260 Y138.22623 F240
G0 X151.28260 Y138.20083 F240
M400
M5
M42 P13 S0 (OFF - LASER)
G00 Z0.25000 ( retract )

G00 X157.98820 Y132.10483 F2000 (rapid move to begin)
F1000.00000
G01 Z0.00000
F2000.00000
G0 X157.98820 Y132.10483 F240
G0 X157.98820 Y128.62503 F240
G0 X153.46700 Y128.62503 F240
G0 X153.46700 Y132.13023 F240
G0 X157.98820 Y132.13023 F240
G0 X157.98820 Y132.10483 F240
M400
M5
M42 P13 S0 (OFF - LASER)
G00 Z0.25000 ( retract )

G00 X157.98820 Y126.56763 F2000 (rapid move to begin)
F1000.00000
G01 Z0.00000
F2000.00000
G0 X157.98820 Y126.56763 F240
G0 X157.98820 Y123.08783 F240
G0 X153.46700 Y123.08783 F240
G0 X153.46700 Y126.59303 F240
G0 X157.98820 Y126.59303 F240
G0 X157.98820 Y126.56763 F240
M400
M5
M42 P13 S0 (OFF - LASER)
G00 Z0.25000 ( retract )

G00 X173.53300 Y122.60523 F2000 (rapid move to begin)
F1000.00000
G01 Z0.00000
F2000.00000
G0 X173.53300 Y122.60523 F240
G0 X173.53300 Y122.12263 F240
G0 X173.22820 Y122.12263 F240
G0 X173.22820 Y122.63063 F240
G0 X173.53300 Y122.63063 F240
G0 X173.53300 Y122.60523 F240
M400
M5
M42 P13 S0 (OFF - LASER)
G00 Z0.25000 ( retract )

G00 X174.34580 Y122.60523 F2000 (rapid move to begin)
F1000.00000
G01 Z0.00000
F2000.00000
G0 X174.34580 Y122.60523 F240
G0 X174.34580 Y122.12263 F240
G0 X174.01560 Y122.12263 F240
G0 X174.01560 Y122.63063 F240
G0 X174.34580 Y122.63063 F240
G0 X174.34580 Y122.60523 F240
M400
M5
M42 P13 S0 (OFF - LASER)
G00 Z0.25000 ( retract )

G00 X171.24700 Y137.21023 F2000 (rapid move to begin)
F1000.00000
G01 Z0.00000
F2000.00000
G0 X171.24700 Y137.21023 F240
G0 X171.24700 Y136.72763 F240
G0 X170.94220 Y136.72763 F240
G0 X170.94220 Y137.23563 F240
G0 X171.24700 Y137.23563 F240
G0 X171.24700 Y137.21023 F240
M400
M5
M42 P13 S0 (OFF - LASER)
G00 Z0.25000 ( retract )

G00 X170.45960 Y137.21023 F2000 (rapid move to begin)
F1000.00000
G01 Z0.00000
F2000.00000
G0 X170.45960 Y137.21023 F240
G0 X170.45960 Y136.72763 F240
G0 X170.12940 Y136.72763 F240
G0 X170.12940 Y137.23563 F240
G0 X170.45960 Y137.23563 F240
G0 X170.45960 Y137.21023 F240

M400
M5
M42 P13 S0 (OFF - LASER)
G00 Z0.25000 ( retract )

M5 ( Spindle off. )
M9 ( Coolant off. )

M106 S0 (Fan off.)
M106 S255 (Fan on.)
G0 x100 y100 f2000 (  Set origin and speed.  )
( pcb2gcode 1.2.2 )
( Software-independent Gcode )





S10000 ( RPM spindle speed. )
G64 P0.00200 ( set maximum deviation from commanded toolpath )
F2000.00000 ( Feedrate. )

F2000.00000 ( Feedrate. )
M400
M5
M42 P13 S0 (OFF - LASER)
G00 Z0.25000 ( retract )

G00 X105.02920 Y132.61283 F2000 (rapid move to begin)
F1000.00000
G01 Z0.00000
F2000.00000
G0 X105.02920 Y132.61283 F240
G0 X105.02920 Y128.11703 F240
G0 X101.52400 Y128.11703 F240
G0 X101.52400 Y132.63823 F240
G0 X105.02920 Y132.63823 F240
G0 X105.02920 Y132.61283 F240
M400
M5
M42 P13 S0 (OFF - LASER)
G00 Z0.25000 ( retract )

G00 X110.56640 Y132.61283 F2000 (rapid move to begin)
F1000.00000
G01 Z0.00000
F2000.00000
G0 X110.56640 Y132.61283 F240
G0 X110.56640 Y128.11703 F240
G0 X107.06120 Y128.11703 F240
G0 X107.06120 Y132.63823 F240
G0 X110.56640 Y132.63823 F240
G0 X110.56640 Y132.61283 F240
M400
M5
M42 P13 S0 (OFF - LASER)
G00 Z0.25000 ( retract )

G00 X110.56640 Y138.96283 F2000 (rapid move to begin)
F1000.00000
G01 Z0.00000
F2000.00000
G0 X110.56640 Y138.96283 F240
G0 X110.56640 Y134.46703 F240
G0 X107.06120 Y134.46703 F240
G0 X107.06120 Y138.98823 F240
G0 X110.56640 Y138.98823 F240
G0 X110.56640 Y138.96283 F240
M400
M5
M42 P13 S0 (OFF - LASER)
G00 Z0.25000 ( retract )

G00 X105.02920 Y138.96283 F2000 (rapid move to begin)
F1000.00000
G01 Z0.00000
F2000.00000
G0 X105.02920 Y138.96283 F240
G0 X105.02920 Y134.46703 F240
G0 X101.52400 Y134.46703 F240
G0 X101.52400 Y138.98823 F240
G0 X105.02920 Y138.98823 F240
G0 X105.02920 Y138.96283 F240
M400
M5
M42 P13 S0 (OFF - LASER)
G00 Z0.25000 ( retract )

G00 X117.60220 Y138.45483 F2000 (rapid move to begin)
F1000.00000
G01 Z0.00000
F2000.00000
G0 X117.60220 Y138.45483 F240
G0 X117.60220 Y134.97503 F240
G0 X113.08100 Y134.97503 F240
G0 X113.08100 Y138.48023 F240
G0 X117.60220 Y138.48023 F240
G0 X117.60220 Y138.45483 F240
M400
M5
M42 P13 S0 (OFF - LASER)
G00 Z0.25000 ( retract )

G00 X117.60220 Y132.91763 F2000 (rapid move to begin)
F1000.00000
G01 Z0.00000
F2000.00000
G0 X117.60220 Y132.91763 F240
G0 X117.60220 Y129.43783 F240
G0 X113.08100 Y129.43783 F240
G0 X113.08100 Y132.94303 F240
G0 X117.60220 Y132.94303 F240
G0 X117.60220 Y132.91763 F240
M400
M5
M42 P13 S0 (OFF - LASER)
G00 Z0.25000 ( retract )

G00 X139.77640 Y123.01163 F2000 (rapid move to begin)
F1000.00000
G01 Z0.00000
F2000.00000
G0 X139.77640 Y123.01163 F240
G0 X139.77640 Y121.71623 F240
G0 X138.65880 Y121.71623 F240
G0 X138.65880 Y123.03703 F240
G0 X139.77640 Y123.03703 F240
G0 X139.77640 Y123.01163 F240
M400
M5
M42 P13 S0 (OFF - LASER)
G00 Z0.25000 ( retract )

G00 X141.57980 Y123.01163 F2000 (rapid move to begin)
F1000.00000
G01 Z0.00000
F2000.00000
G0 X141.57980 Y123.01163 F240
G0 X141.57980 Y121.71623 F240
G0 X140.46220 Y121.71623 F240
G0 X140.46220 Y123.03703 F240
G0 X141.57980 Y123.03703 F240
G0 X141.57980 Y123.01163 F240
M400
M5
M42 P13 S0 (OFF - LASER)
G00 Z0.25000 ( retract )

G00 X149.40300 Y126.74543 F2000 (rapid move to begin)
F1000.00000
G01 Z0.00000
F2000.00000
G0 X149.40300 Y126.74543 F240
G0 X149.45380 Y126.74543 F240
G0 X149.45380 Y126.72003 F240
G0 X149.47920 Y126.72003 F240
G0 X149.47920 Y126.66923 F240
G0 X149.50460 Y126.66923 F240
G0 X149.50460 Y123.69743 F240
G0 X149.47920 Y123.69743 F240
G0 X149.47920 Y123.64663 F240
G0 X149.45380 Y123.64663 F240
G0 X149.45380 Y123.62123 F240
G0 X149.40300 Y123.62123 F240
G0 X149.40300 Y123.59583 F240
G0 X147.32020 Y123.59583 F240
G0 X147.32020 Y123.62123 F240
G0 X147.26940 Y123.62123 F240
G0 X147.26940 Y123.64663 F240
G0 X147.24400 Y123.64663 F240
G0 X147.24400 Y123.69743 F240
G0 X147.21860 Y123.69743 F240
G0 X147.21860 Y126.66923 F240
G0 X147.24400 Y126.66923 F240
G0 X147.24400 Y126.72003 F240
G0 X147.26940 Y126.72003 F240
G0 X147.26940 Y126.74543 F240
G0 X147.32020 Y126.74543 F240
G0 X147.32020 Y126.77083 F240
G0 X149.40300 Y126.77083 F240
G0 X149.40300 Y126.74543 F240
M400
M5
M42 P13 S0 (OFF - LASER)
G00 Z0.25000 ( retract )

G00 X149.40300 Y131.95243 F2000 (rapid move to begin)
F1000.00000
G01 Z0.00000
F2000.00000
G0 X149.40300 Y131.95243 F240
G0 X149.45380 Y131.95243 F240
G0 X149.45380 Y131.92703 F240
G0 X149.47920 Y131.92703 F240
G0 X149.47920 Y131.87623 F240
G0 X149.50460 Y131.87623 F240
G0 X149.50460 Y128.87903 F240
G0 X149.47920 Y128.87903 F240
G0 X149.47920 Y128.82823 F240
G0 X149.45380 Y128.82823 F240
G0 X149.45380 Y128.80283 F240
G0 X149.40300 Y128.80283 F240
G0 X149.40300 Y128.77743 F240
G0 X147.32020 Y128.77743 F240
G0 X147.32020 Y128.80283 F240
G0 X147.26940 Y128.80283 F240
G0 X147.26940 Y128.82823 F240
G0 X147.24400 Y128.82823 F240
G0 X147.24400 Y128.87903 F240
G0 X147.21860 Y128.87903 F240
G0 X147.21860 Y131.87623 F240
G0 X147.24400 Y131.87623 F240
G0 X147.24400 Y131.92703 F240
G0 X147.26940 Y131.92703 F240
G0 X147.26940 Y131.95243 F240
G0 X147.32020 Y131.95243 F240
G0 X147.32020 Y131.97783 F240
G0 X149.40300 Y131.97783 F240
G0 X149.40300 Y131.95243 F240
M400
M5
M42 P13 S0 (OFF - LASER)
G00 Z0.25000 ( retract )

G00 X148.28540 Y138.20083 F2000 (rapid move to begin)
F1000.00000
G01 Z0.00000
F2000.00000
G0 X148.28540 Y138.20083 F240
G0 X148.28540 Y136.49903 F240
G0 X147.16780 Y136.49903 F240
G0 X147.16780 Y138.22623 F240
G0 X148.28540 Y138.22623 F240
G0 X148.28540 Y138.20083 F240
M400
M5
M42 P13 S0 (OFF - LASER)
G00 Z0.25000 ( retract )

G00 X151.28260 Y138.20083 F2000 (rapid move to begin)
F1000.00000
G01 Z0.00000
F2000.00000
G0 X151.28260 Y138.20083 F240
G0 X151.28260 Y136.49903 F240
G0 X150.16500 Y136.49903 F240
G0 X150.16500 Y138.22623 F240
G0 X151.28260 Y138.22623 F240
G0 X151.28260 Y138.20083 F240
M400
M5
M42 P13 S0 (OFF - LASER)
G00 Z0.25000 ( retract )

G00 X157.98820 Y132.10483 F2000 (rapid move to begin)
F1000.00000
G01 Z0.00000
F2000.00000
G0 X157.98820 Y132.10483 F240
G0 X157.98820 Y128.62503 F240
G0 X153.46700 Y128.62503 F240
G0 X153.46700 Y132.13023 F240
G0 X157.98820 Y132.13023 F240
G0 X157.98820 Y132.10483 F240
M400
M5
M42 P13 S0 (OFF - LASER)
G00 Z0.25000 ( retract )

G00 X157.98820 Y126.56763 F2000 (rapid move to begin)
F1000.00000
G01 Z0.00000
F2000.00000
G0 X157.98820 Y126.56763 F240
G0 X157.98820 Y123.08783 F240
G0 X153.46700 Y123.08783 F240
G0 X153.46700 Y126.59303 F240
G0 X157.98820 Y126.59303 F240
G0 X157.98820 Y126.56763 F240
M400
M5
M42 P13 S0 (OFF - LASER)
G00 Z0.25000 ( retract )

G00 X173.53300 Y122.60523 F2000 (rapid move to begin)
F1000.00000
G01 Z0.00000
F2000.00000
G0 X173.53300 Y122.60523 F240
G0 X173.53300 Y122.12263 F240
G0 X173.22820 Y122.12263 F240
G0 X173.22820 Y122.63063 F240
G0 X173.53300 Y122.63063 F240
G0 X173.53300 Y122.60523 F240
M400
M5
M42 P13 S0 (OFF - LASER)
G00 Z0.25000 ( retract )

G00 X174.34580 Y122.60523 F2000 (rapid move to begin)
F1000.00000
G01 Z0.00000
F2000.00000
G0 X174.34580 Y122.60523 F240
G0 X174.34580 Y122.12263 F240
G0 X174.01560 Y122.12263 F240
G0 X174.01560 Y122.63063 F240
G0 X174.34580 Y122.63063 F240
G0 X174.34580 Y122.60523 F240
M400
M5
M42 P13 S0 (OFF - LASER)
G00 Z0.25000 ( retract )

G00 X171.24700 Y137.21023 F2000 (rapid move to begin)
F1000.00000
G01 Z0.00000
F2000.00000
G0 X171.24700 Y137.21023 F240
G0 X171.24700 Y136.72763 F240
G0 X170.94220 Y136.72763 F240
G0 X170.94220 Y137.23563 F240
G0 X171.24700 Y137.23563 F240
G0 X171.24700 Y137.21023 F240
M400
M5
M42 P13 S0 (OFF - LASER)
G00 Z0.25000 ( retract )

G00 X170.45960 Y137.21023 F2000 (rapid move to begin)
F1000.00000
G01 Z0.00000
F2000.00000
G0 X170.45960 Y137.21023 F240
G0 X170.45960 Y136.72763 F240
G0 X170.12940 Y136.72763 F240
G0 X170.12940 Y137.23563 F240
G0 X170.45960 Y137.23563 F240
G0 X170.45960 Y137.21023 F240

M400
M5
M42 P13 S0 (OFF - LASER)
G00 Z0.25000 ( retract )

M5 ( Spindle off. )
M9 ( Coolant off. )

M106 S0 (Fan off.)
