( pcb2gcode 1.2.2 )
( Software-independent Gcode )
      




S10000 ( RPM spindle speed. )
G64 P0.00200 ( set maximum deviation from commanded toolpath )
F2000.00000 ( Feedrate. )

F2000.00000 ( Feedrate. )
M3 ( Spindle on clockwise. )
G04 P0 ( dwell for no time -- G64 should not smooth over this point )
G00 Z0.25000 ( retract )

G00 X0.19800 Y1.28397 ( rapid move to begin. )
F1000.00000
G01 Z0.00000
G04 P0 ( dwell for no time -- G64 should not smooth over this point )
F2000.00000
X0.19800 Y1.28397
X0.19800 Y1.10697
X0.06000 Y1.10697
X0.06000 Y1.28497
X0.19800 Y1.28497
X0.19800 Y1.28397
G04 P0 ( dwell for no time -- G64 should not smooth over this point )
G00 Z0.25000 ( retract )

G00 X0.41600 Y1.28397 ( rapid move to begin. )
F1000.00000
G01 Z0.00000
G04 P0 ( dwell for no time -- G64 should not smooth over this point )
F2000.00000
X0.41600 Y1.28397
X0.41600 Y1.10697
X0.27800 Y1.10697
X0.27800 Y1.28497
X0.41600 Y1.28497
X0.41600 Y1.28397
G04 P0 ( dwell for no time -- G64 should not smooth over this point )
G00 Z0.25000 ( retract )

G00 X0.41600 Y1.53397 ( rapid move to begin. )
F1000.00000
G01 Z0.00000
G04 P0 ( dwell for no time -- G64 should not smooth over this point )
F2000.00000
X0.41600 Y1.53397
X0.41600 Y1.35697
X0.27800 Y1.35697
X0.27800 Y1.53497
X0.41600 Y1.53497
X0.41600 Y1.53397
G04 P0 ( dwell for no time -- G64 should not smooth over this point )
G00 Z0.25000 ( retract )

G00 X0.19800 Y1.53397 ( rapid move to begin. )
F1000.00000
G01 Z0.00000
G04 P0 ( dwell for no time -- G64 should not smooth over this point )
F2000.00000
X0.19800 Y1.53397
X0.19800 Y1.35697
X0.06000 Y1.35697
X0.06000 Y1.53497
X0.19800 Y1.53497
X0.19800 Y1.53397
G04 P0 ( dwell for no time -- G64 should not smooth over this point )
G00 Z0.25000 ( retract )

G00 X0.69300 Y1.51397 ( rapid move to begin. )
F1000.00000
G01 Z0.00000
G04 P0 ( dwell for no time -- G64 should not smooth over this point )
F2000.00000
X0.69300 Y1.51397
X0.69300 Y1.37697
X0.51500 Y1.37697
X0.51500 Y1.51497
X0.69300 Y1.51497
X0.69300 Y1.51397
G04 P0 ( dwell for no time -- G64 should not smooth over this point )
G00 Z0.25000 ( retract )

G00 X0.69300 Y1.29597 ( rapid move to begin. )
F1000.00000
G01 Z0.00000
G04 P0 ( dwell for no time -- G64 should not smooth over this point )
F2000.00000
X0.69300 Y1.29597
X0.69300 Y1.15897
X0.51500 Y1.15897
X0.51500 Y1.29697
X0.69300 Y1.29697
X0.69300 Y1.29597
G04 P0 ( dwell for no time -- G64 should not smooth over this point )
G00 Z0.25000 ( retract )

G00 X1.56600 Y0.90597 ( rapid move to begin. )
F1000.00000
G01 Z0.00000
G04 P0 ( dwell for no time -- G64 should not smooth over this point )
F2000.00000
X1.56600 Y0.90597
X1.56600 Y0.85497
X1.52200 Y0.85497
X1.52200 Y0.90697
X1.56600 Y0.90697
X1.56600 Y0.90597
G04 P0 ( dwell for no time -- G64 should not smooth over this point )
G00 Z0.25000 ( retract )

G00 X1.63700 Y0.90597 ( rapid move to begin. )
F1000.00000
G01 Z0.00000
G04 P0 ( dwell for no time -- G64 should not smooth over this point )
F2000.00000
X1.63700 Y0.90597
X1.63700 Y0.85497
X1.59300 Y0.85497
X1.59300 Y0.90697
X1.63700 Y0.90697
X1.63700 Y0.90597
G04 P0 ( dwell for no time -- G64 should not smooth over this point )
G00 Z0.25000 ( retract )

G00 X1.94500 Y1.05297 ( rapid move to begin. )
F1000.00000
G01 Z0.00000
G04 P0 ( dwell for no time -- G64 should not smooth over this point )
F2000.00000
X1.94500 Y1.05297
X1.94700 Y1.05297
X1.94700 Y1.05197
X1.94800 Y1.05197
X1.94800 Y1.04997
X1.94900 Y1.04997
X1.94900 Y0.93297
X1.94800 Y0.93297
X1.94800 Y0.93097
X1.94700 Y0.93097
X1.94700 Y0.92997
X1.94500 Y0.92997
X1.94500 Y0.92897
X1.86300 Y0.92897
X1.86300 Y0.92997
X1.86100 Y0.92997
X1.86100 Y0.93097
X1.86000 Y0.93097
X1.86000 Y0.93297
X1.85900 Y0.93297
X1.85900 Y1.04997
X1.86000 Y1.04997
X1.86000 Y1.05197
X1.86100 Y1.05197
X1.86100 Y1.05297
X1.86300 Y1.05297
X1.86300 Y1.05397
X1.94500 Y1.05397
X1.94500 Y1.05297
G04 P0 ( dwell for no time -- G64 should not smooth over this point )
G00 Z0.25000 ( retract )

G00 X1.94500 Y1.25797 ( rapid move to begin. )
F1000.00000
G01 Z0.00000
G04 P0 ( dwell for no time -- G64 should not smooth over this point )
F2000.00000
X1.94500 Y1.25797
X1.94700 Y1.25797
X1.94700 Y1.25697
X1.94800 Y1.25697
X1.94800 Y1.25497
X1.94900 Y1.25497
X1.94900 Y1.13697
X1.94800 Y1.13697
X1.94800 Y1.13497
X1.94700 Y1.13497
X1.94700 Y1.13397
X1.94500 Y1.13397
X1.94500 Y1.13297
X1.86300 Y1.13297
X1.86300 Y1.13397
X1.86100 Y1.13397
X1.86100 Y1.13497
X1.86000 Y1.13497
X1.86000 Y1.13697
X1.85900 Y1.13697
X1.85900 Y1.25497
X1.86000 Y1.25497
X1.86000 Y1.25697
X1.86100 Y1.25697
X1.86100 Y1.25797
X1.86300 Y1.25797
X1.86300 Y1.25897
X1.94500 Y1.25897
X1.94500 Y1.25797
G04 P0 ( dwell for no time -- G64 should not smooth over this point )
G00 Z0.25000 ( retract )

G00 X1.90100 Y1.50397 ( rapid move to begin. )
F1000.00000
G01 Z0.00000
G04 P0 ( dwell for no time -- G64 should not smooth over this point )
F2000.00000
X1.90100 Y1.50397
X1.90100 Y1.43697
X1.85700 Y1.43697
X1.85700 Y1.50497
X1.90100 Y1.50497
X1.90100 Y1.50397
G04 P0 ( dwell for no time -- G64 should not smooth over this point )
G00 Z0.25000 ( retract )

G00 X2.01900 Y1.50397 ( rapid move to begin. )
F1000.00000
G01 Z0.00000
G04 P0 ( dwell for no time -- G64 should not smooth over this point )
F2000.00000
X2.01900 Y1.50397
X2.01900 Y1.43697
X1.97500 Y1.43697
X1.97500 Y1.50497
X2.01900 Y1.50497
X2.01900 Y1.50397
G04 P0 ( dwell for no time -- G64 should not smooth over this point )
G00 Z0.25000 ( retract )

G00 X2.28300 Y1.26397 ( rapid move to begin. )
F1000.00000
G01 Z0.00000
G04 P0 ( dwell for no time -- G64 should not smooth over this point )
F2000.00000
X2.28300 Y1.26397
X2.28300 Y1.12697
X2.10500 Y1.12697
X2.10500 Y1.26497
X2.28300 Y1.26497
X2.28300 Y1.26397
G04 P0 ( dwell for no time -- G64 should not smooth over this point )
G00 Z0.25000 ( retract )

G00 X2.28300 Y1.04597 ( rapid move to begin. )
F1000.00000
G01 Z0.00000
G04 P0 ( dwell for no time -- G64 should not smooth over this point )
F2000.00000
X2.28300 Y1.04597
X2.28300 Y0.90897
X2.10500 Y0.90897
X2.10500 Y1.04697
X2.28300 Y1.04697
X2.28300 Y1.04597
G04 P0 ( dwell for no time -- G64 should not smooth over this point )
G00 Z0.25000 ( retract )

G00 X2.89500 Y0.88997 ( rapid move to begin. )
F1000.00000
G01 Z0.00000
G04 P0 ( dwell for no time -- G64 should not smooth over this point )
F2000.00000
X2.89500 Y0.88997
X2.89500 Y0.87097
X2.88300 Y0.87097
X2.88300 Y0.89097
X2.89500 Y0.89097
X2.89500 Y0.88997
G04 P0 ( dwell for no time -- G64 should not smooth over this point )
G00 Z0.25000 ( retract )

G00 X2.92700 Y0.88997 ( rapid move to begin. )
F1000.00000
G01 Z0.00000
G04 P0 ( dwell for no time -- G64 should not smooth over this point )
F2000.00000
X2.92700 Y0.88997
X2.92700 Y0.87097
X2.91400 Y0.87097
X2.91400 Y0.89097
X2.92700 Y0.89097
X2.92700 Y0.88997
G04 P0 ( dwell for no time -- G64 should not smooth over this point )
G00 Z0.25000 ( retract )

G00 X2.80500 Y1.46497 ( rapid move to begin. )
F1000.00000
G01 Z0.00000
G04 P0 ( dwell for no time -- G64 should not smooth over this point )
F2000.00000
X2.80500 Y1.46497
X2.80500 Y1.44597
X2.79300 Y1.44597
X2.79300 Y1.46597
X2.80500 Y1.46597
X2.80500 Y1.46497
G04 P0 ( dwell for no time -- G64 should not smooth over this point )
G00 Z0.25000 ( retract )

G00 X2.77400 Y1.46497 ( rapid move to begin. )
F1000.00000
G01 Z0.00000
G04 P0 ( dwell for no time -- G64 should not smooth over this point )
F2000.00000
X2.77400 Y1.46497
X2.77400 Y1.44597
X2.76100 Y1.44597
X2.76100 Y1.46597
X2.77400 Y1.46597
X2.77400 Y1.46497

G04 P0 ( dwell for no time -- G64 should not smooth over this point )
G00 Z0.25000 ( retract )

M5 ( Spindle off. )
M9 ( Coolant off. )
M2 ( Program end. )

