( pcb2gcode 1.2.2 )
( Software-independent Gcode )

G94 ( Inches per minute feed rate. )
G20 ( Units == INCHES. )

G90 ( Absolute coordinates. )
S10000 ( RPM spindle speed. )
G64 P0.00200 ( set maximum deviation from commanded toolpath )
F1.96850 ( Feedrate. )

F1.96850 ( Feedrate. )
M3 ( Spindle on clockwise. )
G04 P0 ( dwell for no time -- G64 should not smooth over this point )
G00 Z0.19685 ( retract )

G00 X0.07700 Y0.50000 ( rapid move to begin. )
F0.98425
G01 Z-0.01969
G04 P0 ( dwell for no time -- G64 should not smooth over this point )
F1.96850
X0.07700 Y0.50000
X0.07200 Y0.49400
X0.06900 Y0.48400
X0.06900 Y0.45700
X0.07200 Y0.44600
X0.08300 Y0.43400
X0.09600 Y0.43000
X0.12300 Y0.43000
X0.13600 Y0.43400
X0.14400 Y0.44100
X0.14600 Y0.44600
X0.14800 Y0.44700
X0.15000 Y0.45700
X0.15000 Y0.48400
X0.14600 Y0.49700
X0.13700 Y0.50600
X0.13500 Y0.50600
X0.13200 Y0.50900
X0.12300 Y0.51100
X0.09600 Y0.51100
X0.08600 Y0.50800
X0.07700 Y0.50000
G04 P0 ( dwell for no time -- G64 should not smooth over this point )
G00 Z0.19685 ( retract )

G00 X0.06900 Y0.60000 ( rapid move to begin. )
F0.98425
G01 Z-0.01969
G04 P0 ( dwell for no time -- G64 should not smooth over this point )
F1.96850
X0.06900 Y0.60000
X0.06900 Y0.53000
X0.15000 Y0.53000
X0.14900 Y0.61100
X0.07000 Y0.61100
X0.06900 Y0.60000
G04 P0 ( dwell for no time -- G64 should not smooth over this point )
G00 Z0.19685 ( retract )

G00 X0.07700 Y0.72500 ( rapid move to begin. )
F0.98425
G01 Z-0.01969
G04 P0 ( dwell for no time -- G64 should not smooth over this point )
F1.96850
X0.07700 Y0.72500
X0.07200 Y0.71900
X0.06900 Y0.70900
X0.06900 Y0.68200
X0.07200 Y0.67100
X0.08300 Y0.65900
X0.09600 Y0.65500
X0.12300 Y0.65500
X0.13600 Y0.65900
X0.14400 Y0.66600
X0.14400 Y0.66800
X0.14800 Y0.67200
X0.15000 Y0.68200
X0.15000 Y0.70900
X0.14600 Y0.72200
X0.13700 Y0.73100
X0.13500 Y0.73100
X0.13200 Y0.73400
X0.12300 Y0.73600
X0.09600 Y0.73600
X0.08600 Y0.73300
X0.07700 Y0.72500
G04 P0 ( dwell for no time -- G64 should not smooth over this point )
G00 Z0.19685 ( retract )

G00 X0.06900 Y0.82500 ( rapid move to begin. )
F0.98425
G01 Z-0.01969
G04 P0 ( dwell for no time -- G64 should not smooth over this point )
F1.96850
X0.06900 Y0.82500
X0.06900 Y0.75500
X0.15000 Y0.75500
X0.14900 Y0.83600
X0.07000 Y0.83600
X0.06900 Y0.82500
G04 P0 ( dwell for no time -- G64 should not smooth over this point )
G00 Z0.19685 ( retract )

G00 X0.18300 Y0.75600 ( rapid move to begin. )
F0.98425
G01 Z-0.01969
G04 P0 ( dwell for no time -- G64 should not smooth over this point )
F1.96850
X0.18300 Y0.75600
X0.18300 Y0.67400
X0.27600 Y0.67400
X0.27600 Y0.76700
X0.18300 Y0.76700
X0.18300 Y0.75600
G04 P0 ( dwell for no time -- G64 should not smooth over this point )
G00 Z0.19685 ( retract )

G00 X0.41800 Y0.75600 ( rapid move to begin. )
F0.98425
G01 Z-0.01969
G04 P0 ( dwell for no time -- G64 should not smooth over this point )
F1.96850
X0.41800 Y0.75600
X0.41800 Y0.67400
X0.51100 Y0.67400
X0.51100 Y0.76700
X0.41800 Y0.76700
X0.41800 Y0.75600
G04 P0 ( dwell for no time -- G64 should not smooth over this point )
G00 Z0.19685 ( retract )

G00 X0.68600 Y0.78700 ( rapid move to begin. )
F0.98425
G01 Z-0.01969
G04 P0 ( dwell for no time -- G64 should not smooth over this point )
F1.96850
X0.68600 Y0.78700
X0.67700 Y0.77800
X0.67300 Y0.76800
X0.67400 Y0.74800
X0.67600 Y0.74700
X0.67700 Y0.74300
X0.67900 Y0.74200
X0.68000 Y0.73800
X0.68400 Y0.73500
X0.68400 Y0.73300
X0.69400 Y0.72600
X0.70700 Y0.72300
X0.72200 Y0.72500
X0.73200 Y0.73000
X0.74200 Y0.74100
X0.74700 Y0.75800
X0.74500 Y0.77300
X0.74000 Y0.78200
X0.73200 Y0.79000
X0.71800 Y0.79700
X0.69800 Y0.79600
X0.68900 Y0.79100
X0.68600 Y0.78700
G04 P0 ( dwell for no time -- G64 should not smooth over this point )
G00 Z0.19685 ( retract )

G00 X0.68600 Y0.68700 ( rapid move to begin. )
F0.98425
G01 Z-0.01969
G04 P0 ( dwell for no time -- G64 should not smooth over this point )
F1.96850
X0.68600 Y0.68700
X0.67700 Y0.67800
X0.67300 Y0.66800
X0.67400 Y0.64800
X0.67600 Y0.64700
X0.67700 Y0.64300
X0.67900 Y0.64200
X0.68000 Y0.63800
X0.68400 Y0.63500
X0.68400 Y0.63300
X0.69400 Y0.62600
X0.70700 Y0.62300
X0.72200 Y0.62500
X0.73200 Y0.63000
X0.74200 Y0.64100
X0.74700 Y0.65800
X0.74500 Y0.67300
X0.74000 Y0.68200
X0.73200 Y0.69000
X0.71800 Y0.69700
X0.69800 Y0.69600
X0.68900 Y0.69100
X0.68600 Y0.68700
G04 P0 ( dwell for no time -- G64 should not smooth over this point )
G00 Z0.19685 ( retract )

G00 X0.68600 Y0.58700 ( rapid move to begin. )
F0.98425
G01 Z-0.01969
G04 P0 ( dwell for no time -- G64 should not smooth over this point )
F1.96850
X0.68600 Y0.58700
X0.68000 Y0.58200
X0.68000 Y0.58000
X0.67700 Y0.57800
X0.67400 Y0.57200
X0.67300 Y0.55200
X0.67400 Y0.54800
X0.67600 Y0.54700
X0.67700 Y0.54300
X0.67900 Y0.54200
X0.68000 Y0.53800
X0.68400 Y0.53500
X0.68400 Y0.53300
X0.69300 Y0.52700
X0.69300 Y0.46600
X0.59500 Y0.36800
X0.58800 Y0.36800
X0.58300 Y0.36200
X0.57300 Y0.36200
X0.56900 Y0.35900
X0.56800 Y0.35500
X0.56500 Y0.35300
X0.56200 Y0.34200
X0.56400 Y0.33000
X0.57300 Y0.31800
X0.58100 Y0.31400
X0.59600 Y0.31300
X0.60700 Y0.31800
X0.61200 Y0.32300
X0.61600 Y0.33100
X0.61700 Y0.34400
X0.72300 Y0.45000
X0.72600 Y0.45600
X0.72600 Y0.52700
X0.73500 Y0.53300
X0.74400 Y0.54500
X0.74700 Y0.55800
X0.74500 Y0.57300
X0.74000 Y0.58200
X0.73200 Y0.59000
X0.71800 Y0.59700
X0.69800 Y0.59600
X0.68900 Y0.59100
X0.68600 Y0.58700
G04 P0 ( dwell for no time -- G64 should not smooth over this point )
G00 Z0.19685 ( retract )

G00 X0.78600 Y0.63700 ( rapid move to begin. )
F0.98425
G01 Z-0.01969
G04 P0 ( dwell for no time -- G64 should not smooth over this point )
F1.96850
X0.78600 Y0.63700
X0.77900 Y0.63100
X0.77300 Y0.61800
X0.77400 Y0.59800
X0.77600 Y0.59700
X0.77700 Y0.59300
X0.77900 Y0.59200
X0.78000 Y0.58800
X0.78400 Y0.58500
X0.78400 Y0.58300
X0.79400 Y0.57600
X0.80700 Y0.57300
X0.82300 Y0.57500
X0.83200 Y0.58000
X0.84200 Y0.59100
X0.84700 Y0.60500
X0.84700 Y0.61500
X0.84200 Y0.63000
X0.83200 Y0.64000
X0.81800 Y0.64700
X0.80100 Y0.64700
X0.79200 Y0.64300
X0.78600 Y0.63700
G04 P0 ( dwell for no time -- G64 should not smooth over this point )
G00 Z0.19685 ( retract )

G00 X0.78600 Y0.73700 ( rapid move to begin. )
F0.98425
G01 Z-0.01969
G04 P0 ( dwell for no time -- G64 should not smooth over this point )
F1.96850
X0.78600 Y0.73700
X0.77900 Y0.73100
X0.77300 Y0.71800
X0.77400 Y0.69800
X0.77600 Y0.69700
X0.77700 Y0.69300
X0.77900 Y0.69200
X0.78000 Y0.68800
X0.78400 Y0.68500
X0.78400 Y0.68300
X0.79400 Y0.67600
X0.80700 Y0.67300
X0.82300 Y0.67500
X0.83200 Y0.68000
X0.84200 Y0.69100
X0.84700 Y0.70500
X0.84700 Y0.71500
X0.84200 Y0.73000
X0.83200 Y0.74000
X0.81800 Y0.74700
X0.80100 Y0.74700
X0.79200 Y0.74300
X0.78600 Y0.73700
G04 P0 ( dwell for no time -- G64 should not smooth over this point )
G00 Z0.19685 ( retract )

G00 X0.78600 Y0.83700 ( rapid move to begin. )
F0.98425
G01 Z-0.01969
G04 P0 ( dwell for no time -- G64 should not smooth over this point )
F1.96850
X0.78600 Y0.83700
X0.77900 Y0.83100
X0.77300 Y0.81800
X0.77400 Y0.79800
X0.77600 Y0.79700
X0.77700 Y0.79300
X0.77900 Y0.79200
X0.78000 Y0.78800
X0.78400 Y0.78500
X0.78400 Y0.78300
X0.79400 Y0.77600
X0.80700 Y0.77300
X0.82300 Y0.77500
X0.83200 Y0.78000
X0.84200 Y0.79100
X0.84700 Y0.80500
X0.84700 Y0.81500
X0.84200 Y0.83000
X0.83200 Y0.84000
X0.81800 Y0.84700
X0.80100 Y0.84700
X0.79200 Y0.84300
X0.78600 Y0.83700
G04 P0 ( dwell for no time -- G64 should not smooth over this point )
G00 Z0.19685 ( retract )

G00 X0.78600 Y0.93700 ( rapid move to begin. )
F0.98425
G01 Z-0.01969
G04 P0 ( dwell for no time -- G64 should not smooth over this point )
F1.96850
X0.78600 Y0.93700
X0.77900 Y0.93100
X0.77300 Y0.91800
X0.77400 Y0.89800
X0.77600 Y0.89700
X0.77700 Y0.89300
X0.77900 Y0.89200
X0.78000 Y0.88800
X0.78400 Y0.88500
X0.78400 Y0.88300
X0.79400 Y0.87600
X0.80700 Y0.87300
X0.82300 Y0.87500
X0.83200 Y0.88000
X0.84200 Y0.89100
X0.84700 Y0.90500
X0.84700 Y0.91500
X0.84200 Y0.93000
X0.83200 Y0.94000
X0.81800 Y0.94700
X0.80100 Y0.94700
X0.79200 Y0.94300
X0.78600 Y0.93700
G04 P0 ( dwell for no time -- G64 should not smooth over this point )
G00 Z0.19685 ( retract )

G00 X0.73100 Y1.23800 ( rapid move to begin. )
F0.98425
G01 Z-0.01969
G04 P0 ( dwell for no time -- G64 should not smooth over this point )
F1.96850
X0.73100 Y1.23800
X0.72700 Y1.23600
X0.72600 Y1.23200
X0.72400 Y1.23100
X0.72200 Y1.21800
X0.72400 Y1.21400
X0.72400 Y1.20900
X0.73300 Y1.20000
X0.73200 Y1.09900
X0.72900 Y1.09600
X0.71100 Y1.09000
X0.64900 Y1.09000
X0.64900 Y0.87600
X0.01400 Y0.87600
X0.01400 Y0.04000
X0.74500 Y0.04000
X0.74500 Y0.38000
X1.14700 Y0.38000
X1.15300 Y0.37600
X1.15800 Y0.37500
X1.20100 Y0.37500
X1.20600 Y0.37600
X1.21200 Y0.38000
X1.37500 Y0.38000
X1.37500 Y1.09000
X1.35100 Y1.09000
X1.34900 Y1.08800
X1.34900 Y1.08300
X1.35500 Y1.06400
X1.35500 Y1.05600
X1.35300 Y1.05300
X1.35200 Y1.04500
X1.34900 Y1.03900
X1.34100 Y1.03100
X1.33300 Y1.02700
X1.32700 Y1.02700
X1.32400 Y1.02500
X1.30600 Y1.02700
X1.29900 Y1.03100
X1.29700 Y1.03400
X1.29500 Y1.03400
X1.29500 Y1.03600
X1.29100 Y1.03900
X1.28600 Y1.04900
X1.28400 Y1.07100
X1.27100 Y1.08400
X1.25300 Y1.09000
X1.21100 Y1.09000
X1.19800 Y1.09300
X1.16100 Y1.09300
X1.14800 Y1.09000
X1.07500 Y1.09000
X1.06000 Y1.08500
X1.04200 Y1.06600
X1.03700 Y1.06400
X0.97300 Y1.06300
X0.94800 Y1.03800
X0.94700 Y1.02500
X0.94500 Y1.02300
X0.94500 Y1.01900
X0.94300 Y1.01800
X0.94300 Y1.01600
X0.93900 Y1.01200
X0.93200 Y1.01000
X0.93000 Y1.00800
X0.92000 Y1.00800
X0.91800 Y1.01000
X0.91400 Y1.01000
X0.90600 Y1.01600
X0.90200 Y1.02800
X0.90400 Y1.04100
X0.90600 Y1.04200
X0.90800 Y1.04700
X0.91300 Y1.04900
X0.91400 Y1.05100
X0.93200 Y1.05400
X0.95500 Y1.07700
X0.95800 Y1.09000
X0.84700 Y1.09000
X0.83000 Y1.08400
X0.78300 Y1.03600
X0.78100 Y1.02000
X0.77400 Y1.01100
X0.76200 Y1.00700
X0.75200 Y1.00800
X0.74300 Y1.01300
X0.74100 Y1.01800
X0.73800 Y1.02000
X0.73700 Y1.02300
X0.73800 Y1.04000
X0.74400 Y1.04800
X0.74900 Y1.05000
X0.75000 Y1.05200
X0.76800 Y1.05500
X0.78900 Y1.07600
X0.79200 Y1.08900
X0.76100 Y1.09000
X0.75600 Y1.09500
X0.75600 Y1.20000
X0.76500 Y1.20900
X0.76500 Y1.21300
X0.76700 Y1.21500
X0.76700 Y1.22500
X0.76500 Y1.22700
X0.76500 Y1.23200
X0.76300 Y1.23300
X0.76300 Y1.23500
X0.75500 Y1.24100
X0.74300 Y1.24300
X0.73400 Y1.24100
X0.73100 Y1.23800
G04 P0 ( dwell for no time -- G64 should not smooth over this point )
G00 Z0.19685 ( retract )

G00 X0.94900 Y1.23800 ( rapid move to begin. )
F0.98425
G01 Z-0.01969
G04 P0 ( dwell for no time -- G64 should not smooth over this point )
F1.96850
X0.94900 Y1.23800
X0.94500 Y1.23600
X0.94100 Y1.22700
X0.93900 Y1.22700
X0.80900 Y1.09600
X0.79100 Y1.09100
X0.79200 Y1.08500
X0.78900 Y1.07600
X0.76800 Y1.05500
X0.75000 Y1.05200
X0.74100 Y1.04500
X0.73700 Y1.03700
X0.73700 Y1.02300
X0.74300 Y1.01500
X0.74300 Y1.01300
X0.75200 Y1.00800
X0.75800 Y1.00700
X0.76700 Y1.00800
X0.77400 Y1.01100
X0.78100 Y1.02000
X0.78300 Y1.03600
X0.83000 Y1.08400
X0.84700 Y1.08900
X0.84700 Y1.09600
X0.85000 Y1.10500
X0.94500 Y1.20000
X0.96800 Y1.19800
X0.97000 Y1.20000
X0.97700 Y1.20200
X0.98100 Y1.20600
X0.98100 Y1.20800
X0.98300 Y1.20900
X0.98300 Y1.21300
X0.98500 Y1.21500
X0.98500 Y1.22500
X0.98300 Y1.22700
X0.98300 Y1.23200
X0.98100 Y1.23300
X0.98000 Y1.23600
X0.97500 Y1.24000
X0.96600 Y1.24300
X0.95200 Y1.24100
X0.94900 Y1.23800
G04 P0 ( dwell for no time -- G64 should not smooth over this point )
G00 Z0.19685 ( retract )

G00 X1.08100 Y1.22300 ( rapid move to begin. )
F0.98425
G01 Z-0.01969
G04 P0 ( dwell for no time -- G64 should not smooth over this point )
F1.96850
X1.08100 Y1.22300
X1.07800 Y1.22200
X1.07600 Y1.21700
X1.07400 Y1.21600
X1.07200 Y1.20300
X1.07400 Y1.19900
X1.07400 Y1.19400
X1.08300 Y1.18500
X1.08200 Y1.13900
X1.03900 Y1.09600
X1.02400 Y1.09100
X0.95800 Y1.09100
X0.95800 Y1.08600
X0.95500 Y1.07700
X0.93200 Y1.05400
X0.91400 Y1.05100
X0.91300 Y1.04900
X0.90700 Y1.04600
X0.90600 Y1.04200
X0.90400 Y1.04100
X0.90200 Y1.02800
X0.90400 Y1.02400
X0.90400 Y1.01900
X0.91000 Y1.01200
X0.91800 Y1.01000
X0.92000 Y1.00800
X0.93000 Y1.00800
X0.93200 Y1.01000
X0.93900 Y1.01200
X0.94500 Y1.01900
X0.94500 Y1.02300
X0.94700 Y1.02500
X0.94800 Y1.03800
X0.97300 Y1.06300
X1.03700 Y1.06400
X1.04200 Y1.06600
X1.06000 Y1.08500
X1.07700 Y1.09000
X1.07700 Y1.09600
X1.08000 Y1.10500
X1.10500 Y1.13000
X1.10600 Y1.18500
X1.11300 Y1.19100
X1.11300 Y1.19300
X1.11500 Y1.19400
X1.11500 Y1.19800
X1.11700 Y1.20000
X1.11700 Y1.21000
X1.11500 Y1.21200
X1.11500 Y1.21700
X1.10900 Y1.22400
X1.09300 Y1.22800
X1.08400 Y1.22600
X1.08100 Y1.22300
G04 P0 ( dwell for no time -- G64 should not smooth over this point )
G00 Z0.19685 ( retract )

G00 X1.05500 Y1.41500 ( rapid move to begin. )
F0.98425
G01 Z-0.01969
G04 P0 ( dwell for no time -- G64 should not smooth over this point )
F1.96850
X1.05500 Y1.41500
X1.05400 Y1.35100
X1.06000 Y1.34500
X1.12600 Y1.34500
X1.13400 Y1.35200
X1.13500 Y1.41700
X1.12800 Y1.42400
X1.12500 Y1.42400
X1.12400 Y1.42600
X1.06600 Y1.42600
X1.06000 Y1.42300
X1.05600 Y1.41900
X1.05500 Y1.41500
G04 P0 ( dwell for no time -- G64 should not smooth over this point )
G00 Z0.19685 ( retract )

G00 X1.17300 Y1.41500 ( rapid move to begin. )
F0.98425
G01 Z-0.01969
G04 P0 ( dwell for no time -- G64 should not smooth over this point )
F1.96850
X1.17300 Y1.41500
X1.17200 Y1.35900
X1.17400 Y1.35000
X1.18200 Y1.34800
X1.23800 Y1.34800
X1.24800 Y1.35000
X1.24800 Y1.42000
X1.24600 Y1.42200
X1.18400 Y1.42300
X1.17500 Y1.42100
X1.17300 Y1.41500
G04 P0 ( dwell for no time -- G64 should not smooth over this point )
G00 Z0.19685 ( retract )

G00 X1.28800 Y1.41500 ( rapid move to begin. )
F0.98425
G01 Z-0.01969
G04 P0 ( dwell for no time -- G64 should not smooth over this point )
F1.96850
X1.28800 Y1.41500
X1.28800 Y1.34800
X1.35300 Y1.34800
X1.36100 Y1.35000
X1.36500 Y1.35400
X1.36500 Y1.41600
X1.36000 Y1.42100
X1.35100 Y1.42300
X1.28900 Y1.42300
X1.28800 Y1.41500
G04 P0 ( dwell for no time -- G64 should not smooth over this point )
G00 Z0.19685 ( retract )

G00 X1.35600 Y1.56300 ( rapid move to begin. )
F0.98425
G01 Z-0.01969
G04 P0 ( dwell for no time -- G64 should not smooth over this point )
F1.96850
X1.35600 Y1.56300
X1.35100 Y1.55900
X1.35100 Y1.55700
X1.34900 Y1.55700
X1.34700 Y1.55400
X1.33900 Y1.55000
X1.33400 Y1.55000
X1.33000 Y1.54800
X1.31700 Y1.54800
X1.31100 Y1.54600
X1.28800 Y1.52300
X1.28700 Y1.50000
X1.28900 Y1.49800
X1.28800 Y1.49600
X1.28900 Y1.47200
X1.28700 Y1.47000
X1.28700 Y1.42500
X1.28900 Y1.42300
X1.35100 Y1.42300
X1.36000 Y1.42100
X1.36400 Y1.41600
X1.37500 Y1.41600
X1.37500 Y1.47500
X1.36500 Y1.47500
X1.36500 Y1.49500
X1.37500 Y1.49500
X1.37500 Y1.57400
X1.36300 Y1.57300
X1.36100 Y1.57000
X1.35800 Y1.56900
X1.35600 Y1.56300
G04 P0 ( dwell for no time -- G64 should not smooth over this point )
G00 Z0.19685 ( retract )

G00 X1.33700 Y1.62500 ( rapid move to begin. )
F0.98425
G01 Z-0.01969
G04 P0 ( dwell for no time -- G64 should not smooth over this point )
F1.96850
X1.33700 Y1.62500
X1.34000 Y1.61900
X1.34700 Y1.61600
X1.35600 Y1.60700
X1.35900 Y1.60000
X1.36100 Y1.60000
X1.36400 Y1.59700
X1.37500 Y1.59700
X1.37500 Y1.63600
X1.33600 Y1.63600
X1.33700 Y1.62500
G04 P0 ( dwell for no time -- G64 should not smooth over this point )
G00 Z0.19685 ( retract )

G00 X1.30300 Y1.61500 ( rapid move to begin. )
F0.98425
G01 Z-0.01969
G04 P0 ( dwell for no time -- G64 should not smooth over this point )
F1.96850
X1.30300 Y1.61500
X1.29600 Y1.61000
X1.29600 Y1.60800
X1.29100 Y1.60200
X1.29000 Y1.59600
X1.28800 Y1.59400
X1.28800 Y1.57700
X1.28500 Y1.56900
X1.25400 Y1.53900
X1.25200 Y1.53100
X1.25200 Y1.50100
X1.24800 Y1.49700
X1.24800 Y1.47300
X1.25200 Y1.46900
X1.25200 Y1.42300
X1.24800 Y1.42000
X1.24800 Y1.35000
X1.25200 Y1.34700
X1.25200 Y1.30000
X1.24900 Y1.29900
X1.23800 Y1.28600
X1.23800 Y1.28200
X1.23500 Y1.27500
X1.23500 Y1.26500
X1.23800 Y1.25900
X1.23800 Y1.25500
X1.24200 Y1.24800
X1.25000 Y1.24100
X1.26300 Y1.23600
X1.27700 Y1.23600
X1.29400 Y1.24400
X1.29400 Y1.24600
X1.30100 Y1.25400
X1.30200 Y1.26100
X1.30400 Y1.26300
X1.30400 Y1.27700
X1.30100 Y1.28300
X1.30100 Y1.28700
X1.29200 Y1.29800
X1.28800 Y1.29900
X1.28700 Y1.30200
X1.28900 Y1.42200
X1.28900 Y1.42400
X1.28700 Y1.42500
X1.28700 Y1.47000
X1.28900 Y1.47200
X1.28800 Y1.47500
X1.28900 Y1.49800
X1.28700 Y1.50000
X1.28700 Y1.52000
X1.28800 Y1.52300
X1.31100 Y1.54600
X1.31700 Y1.54800
X1.33000 Y1.54800
X1.33400 Y1.55000
X1.33900 Y1.55000
X1.34700 Y1.55400
X1.34900 Y1.55700
X1.35100 Y1.55700
X1.35100 Y1.55900
X1.35600 Y1.56300
X1.35800 Y1.56900
X1.36500 Y1.57300
X1.36500 Y1.59700
X1.35900 Y1.60000
X1.35600 Y1.60700
X1.34700 Y1.61600
X1.34000 Y1.61900
X1.33600 Y1.62600
X1.31300 Y1.62600
X1.30900 Y1.61900
X1.30700 Y1.61900
X1.30300 Y1.61500
G04 P0 ( dwell for no time -- G64 should not smooth over this point )
G00 Z0.19685 ( retract )

G00 X1.21800 Y1.62500 ( rapid move to begin. )
F0.98425
G01 Z-0.01969
G04 P0 ( dwell for no time -- G64 should not smooth over this point )
F1.96850
X1.21800 Y1.62500
X1.22000 Y1.62100
X1.23200 Y1.61600
X1.24100 Y1.60700
X1.24400 Y1.59600
X1.24600 Y1.59400
X1.24700 Y1.58400
X1.24600 Y1.57700
X1.24300 Y1.57200
X1.24300 Y1.56700
X1.23400 Y1.55600
X1.21800 Y1.54900
X1.20800 Y1.54800
X1.20100 Y1.54900
X1.19900 Y1.55100
X1.19500 Y1.55100
X1.18800 Y1.55400
X1.17700 Y1.56600
X1.17500 Y1.57500
X1.17300 Y1.57700
X1.17300 Y1.59400
X1.17500 Y1.59600
X1.17600 Y1.60200
X1.17900 Y1.60500
X1.17900 Y1.60800
X1.18500 Y1.61400
X1.19400 Y1.61900
X1.19400 Y1.62100
X1.19700 Y1.62300
X1.19800 Y1.63600
X1.10600 Y1.63600
X1.10700 Y1.62300
X1.11000 Y1.62100
X1.11000 Y1.61900
X1.11700 Y1.61600
X1.12800 Y1.60300
X1.13200 Y1.58700
X1.13100 Y1.57700
X1.12800 Y1.57200
X1.12800 Y1.56700
X1.11900 Y1.55600
X1.10300 Y1.54900
X1.09300 Y1.54800
X1.08600 Y1.54900
X1.08400 Y1.55100
X1.08000 Y1.55100
X1.07300 Y1.55400
X1.06200 Y1.56600
X1.06000 Y1.57500
X1.05800 Y1.57700
X1.05800 Y1.59400
X1.06000 Y1.59600
X1.06100 Y1.60200
X1.06400 Y1.60500
X1.06400 Y1.60800
X1.07000 Y1.61400
X1.07900 Y1.61900
X1.07900 Y1.62100
X1.08200 Y1.62300
X1.08300 Y1.63600
X0.71100 Y1.63600
X0.71100 Y1.62900
X0.70800 Y1.62600
X0.69200 Y1.62600
X0.68800 Y1.63000
X0.68800 Y1.63600
X0.01400 Y1.63600
X0.01400 Y0.93000
X0.31800 Y0.93000
X0.31900 Y0.93700
X0.32200 Y0.93600
X0.32200 Y0.93000
X0.63500 Y0.93000
X0.63500 Y1.09000
X0.71100 Y1.09000
X0.72900 Y1.09600
X0.73200 Y1.09900
X0.73300 Y1.20000
X0.72400 Y1.20900
X0.72200 Y1.22200
X0.72400 Y1.23100
X0.72600 Y1.23200
X0.72700 Y1.23600
X0.73300 Y1.23900
X0.73400 Y1.24100
X0.74300 Y1.24300
X0.75900 Y1.23900
X0.76500 Y1.23200
X0.76500 Y1.22700
X0.76700 Y1.22500
X0.76700 Y1.21500
X0.76500 Y1.21300
X0.76500 Y1.20900
X0.75600 Y1.20000
X0.75600 Y1.09500
X0.76100 Y1.09000
X0.79100 Y1.09000
X0.80900 Y1.09600
X0.93900 Y1.22700
X0.94100 Y1.22700
X0.94200 Y1.23100
X0.94400 Y1.23200
X0.94700 Y1.23800
X0.95100 Y1.23900
X0.95200 Y1.24100
X0.96600 Y1.24300
X0.97700 Y1.23900
X0.98300 Y1.23200
X0.98300 Y1.22700
X0.98500 Y1.22500
X0.98500 Y1.21500
X0.98300 Y1.21300
X0.98300 Y1.20900
X0.98100 Y1.20800
X0.98100 Y1.20600
X0.97700 Y1.20200
X0.97000 Y1.20000
X0.96800 Y1.19800
X0.94500 Y1.20000
X0.85000 Y1.10500
X0.84700 Y1.09600
X0.84700 Y1.09000
X1.02400 Y1.09100
X1.03900 Y1.09600
X1.08200 Y1.13900
X1.08300 Y1.18500
X1.07400 Y1.19400
X1.07200 Y1.20700
X1.07400 Y1.21600
X1.07600 Y1.21700
X1.07900 Y1.22300
X1.08300 Y1.22400
X1.08400 Y1.22600
X1.09700 Y1.22800
X1.10500 Y1.22600
X1.11300 Y1.22000
X1.11300 Y1.21800
X1.11500 Y1.21700
X1.11500 Y1.21200
X1.11700 Y1.21000
X1.11700 Y1.20000
X1.11500 Y1.19800
X1.11500 Y1.19400
X1.11300 Y1.19300
X1.11300 Y1.19100
X1.10600 Y1.18500
X1.10500 Y1.13000
X1.08000 Y1.10500
X1.07700 Y1.09600
X1.07700 Y1.09000
X1.14800 Y1.09000
X1.16100 Y1.09300
X1.19800 Y1.09300
X1.21100 Y1.09000
X1.25300 Y1.09000
X1.27100 Y1.08400
X1.28400 Y1.07100
X1.28600 Y1.04900
X1.29100 Y1.03900
X1.29900 Y1.03100
X1.30600 Y1.02700
X1.31200 Y1.02700
X1.31600 Y1.02500
X1.33300 Y1.02700
X1.34100 Y1.03100
X1.34900 Y1.03900
X1.35500 Y1.05600
X1.35500 Y1.06400
X1.35000 Y1.07900
X1.34900 Y1.08800
X1.35100 Y1.09000
X1.37500 Y1.09000
X1.37500 Y1.35400
X1.36400 Y1.35400
X1.36100 Y1.35000
X1.35300 Y1.34800
X1.28700 Y1.34700
X1.28700 Y1.30200
X1.28800 Y1.29900
X1.29200 Y1.29800
X1.30100 Y1.28700
X1.30100 Y1.28300
X1.30400 Y1.27700
X1.30400 Y1.26300
X1.30200 Y1.26100
X1.30100 Y1.25400
X1.29400 Y1.24600
X1.29400 Y1.24400
X1.27700 Y1.23600
X1.26300 Y1.23600
X1.24700 Y1.24300
X1.24000 Y1.25100
X1.23500 Y1.26500
X1.23500 Y1.27500
X1.23800 Y1.28200
X1.23800 Y1.28600
X1.24000 Y1.28700
X1.24100 Y1.29100
X1.24900 Y1.29900
X1.25200 Y1.30000
X1.25200 Y1.34700
X1.24900 Y1.35000
X1.23800 Y1.34800
X1.18200 Y1.34800
X1.17400 Y1.35000
X1.17300 Y1.35400
X1.17200 Y1.41100
X1.17500 Y1.42100
X1.18400 Y1.42300
X1.23600 Y1.42300
X1.24600 Y1.42200
X1.24700 Y1.42000
X1.24900 Y1.42000
X1.25200 Y1.42300
X1.25200 Y1.46900
X1.24800 Y1.47300
X1.24800 Y1.49700
X1.25200 Y1.50100
X1.25300 Y1.53600
X1.25500 Y1.54100
X1.25900 Y1.54300
X1.28500 Y1.56900
X1.28800 Y1.57700
X1.28800 Y1.59400
X1.29000 Y1.59600
X1.29100 Y1.60200
X1.29600 Y1.60800
X1.29600 Y1.61000
X1.30000 Y1.61400
X1.30500 Y1.61600
X1.30700 Y1.61900
X1.30900 Y1.61900
X1.30900 Y1.62100
X1.31200 Y1.62300
X1.31300 Y1.63600
X1.21800 Y1.63600
X1.21700 Y1.63300
X1.21800 Y1.62500
G04 P0 ( dwell for no time -- G64 should not smooth over this point )
G00 Z0.19685 ( retract )

G00 X1.18800 Y1.61500 ( rapid move to begin. )
F0.98425
G01 Z-0.01969
G04 P0 ( dwell for no time -- G64 should not smooth over this point )
F1.96850
X1.18800 Y1.61500
X1.18500 Y1.61400
X1.17900 Y1.60800
X1.17900 Y1.60500
X1.17700 Y1.60400
X1.17500 Y1.59600
X1.17300 Y1.59400
X1.17300 Y1.57700
X1.17500 Y1.57500
X1.17600 Y1.56800
X1.17900 Y1.56500
X1.17900 Y1.56300
X1.18800 Y1.55400
X1.19500 Y1.55100
X1.19900 Y1.55100
X1.20100 Y1.54900
X1.20800 Y1.54800
X1.21800 Y1.54900
X1.23400 Y1.55600
X1.24300 Y1.56700
X1.24300 Y1.57200
X1.24500 Y1.57400
X1.24700 Y1.58400
X1.24600 Y1.59400
X1.24400 Y1.59600
X1.24100 Y1.60700
X1.23200 Y1.61600
X1.22000 Y1.62100
X1.22000 Y1.62300
X1.21700 Y1.62600
X1.19800 Y1.62600
X1.19400 Y1.61900
X1.19200 Y1.61900
X1.18800 Y1.61500
G04 P0 ( dwell for no time -- G64 should not smooth over this point )
G00 Z0.19685 ( retract )

G00 X1.07300 Y1.61500 ( rapid move to begin. )
F0.98425
G01 Z-0.01969
G04 P0 ( dwell for no time -- G64 should not smooth over this point )
F1.96850
X1.07300 Y1.61500
X1.07000 Y1.61400
X1.06400 Y1.60800
X1.06400 Y1.60500
X1.06200 Y1.60400
X1.06000 Y1.59600
X1.05800 Y1.59400
X1.05800 Y1.57700
X1.06000 Y1.57500
X1.06100 Y1.56800
X1.06400 Y1.56500
X1.06400 Y1.56300
X1.07300 Y1.55400
X1.08000 Y1.55100
X1.08400 Y1.55100
X1.08600 Y1.54900
X1.09300 Y1.54800
X1.10300 Y1.54900
X1.11900 Y1.55600
X1.12800 Y1.56700
X1.12800 Y1.57200
X1.13000 Y1.57400
X1.13200 Y1.58400
X1.13100 Y1.59400
X1.12900 Y1.59600
X1.12800 Y1.60300
X1.12500 Y1.60600
X1.12500 Y1.60800
X1.11700 Y1.61600
X1.11000 Y1.61900
X1.10600 Y1.62600
X1.08300 Y1.62600
X1.07900 Y1.61900
X1.07700 Y1.61900
X1.07300 Y1.61500
G04 P0 ( dwell for no time -- G64 should not smooth over this point )
G00 Z0.19685 ( retract )

G00 X0.67300 Y1.51500 ( rapid move to begin. )
F0.98425
G01 Z-0.01969
G04 P0 ( dwell for no time -- G64 should not smooth over this point )
F1.96850
X0.67300 Y1.51500
X0.66900 Y1.51200
X0.66900 Y1.51000
X0.66300 Y1.50300
X0.65900 Y1.49200
X0.66000 Y1.47400
X0.66200 Y1.47200
X0.66300 Y1.46700
X0.66600 Y1.46500
X0.66700 Y1.46100
X0.67600 Y1.45200
X0.69100 Y1.44500
X0.70800 Y1.44500
X0.72400 Y1.45200
X0.73300 Y1.46100
X0.74000 Y1.47700
X0.74000 Y1.49400
X0.73300 Y1.50900
X0.72900 Y1.51000
X0.72900 Y1.52000
X0.71700 Y1.52000
X0.71600 Y1.52300
X0.70600 Y1.52600
X0.69300 Y1.52600
X0.68200 Y1.52200
X0.67300 Y1.51500
G04 P0 ( dwell for no time -- G64 should not smooth over this point )
G00 Z0.19685 ( retract )

G00 X0.41800 Y1.21300 ( rapid move to begin. )
F0.98425
G01 Z-0.01969
G04 P0 ( dwell for no time -- G64 should not smooth over this point )
F1.96850
X0.41800 Y1.21300
X0.40800 Y1.21000
X0.40300 Y1.20600
X0.39900 Y1.20500
X0.39800 Y1.20300
X0.39400 Y1.20200
X0.39300 Y1.20000
X0.38900 Y1.19900
X0.37000 Y1.18200
X0.37000 Y1.18000
X0.36100 Y1.17100
X0.35700 Y1.16200
X0.35200 Y1.15600
X0.35000 Y1.14900
X0.34700 Y1.14500
X0.34700 Y1.14200
X0.34400 Y1.13800
X0.34300 Y1.13000
X0.33800 Y1.11700
X0.33700 Y1.08600
X0.33800 Y1.07400
X0.34300 Y1.06000
X0.34300 Y1.05500
X0.35000 Y1.04100
X0.35000 Y1.03800
X0.35400 Y1.03300
X0.35500 Y1.02900
X0.35700 Y1.02800
X0.35800 Y1.02400
X0.36000 Y1.02300
X0.36100 Y1.01900
X0.37800 Y1.00100
X0.38000 Y1.00100
X0.38400 Y0.99600
X0.38600 Y0.99600
X0.38900 Y0.99200
X0.39400 Y0.99000
X0.39800 Y0.98600
X0.41600 Y0.97700
X0.44300 Y0.96900
X0.46900 Y0.96700
X0.48600 Y0.96900
X0.52200 Y0.98000
X0.52800 Y0.98500
X0.53800 Y0.99000
X0.53900 Y0.99200
X0.54100 Y0.99200
X0.56200 Y1.01200
X0.56200 Y1.01400
X0.56800 Y1.01900
X0.56900 Y1.02300
X0.57900 Y1.03600
X0.58100 Y1.04400
X0.58300 Y1.04600
X0.59200 Y1.07800
X0.59300 Y1.10300
X0.58900 Y1.12500
X0.58000 Y1.15200
X0.57700 Y1.15500
X0.57400 Y1.16200
X0.57200 Y1.16300
X0.57100 Y1.16700
X0.56800 Y1.16900
X0.56800 Y1.17100
X0.54800 Y1.19300
X0.54600 Y1.19300
X0.54100 Y1.19900
X0.53200 Y1.20300
X0.52600 Y1.20800
X0.51900 Y1.21000
X0.51500 Y1.21300
X0.51200 Y1.21300
X0.50800 Y1.21600
X0.48600 Y1.22200
X0.45500 Y1.22300
X0.43900 Y1.22100
X0.43600 Y1.21900
X0.42200 Y1.21600
X0.41800 Y1.21300
G04 P0 ( dwell for no time -- G64 should not smooth over this point )
G00 Z0.19685 ( retract )

G00 X0.13400 Y1.21300 ( rapid move to begin. )
F0.98425
G01 Z-0.01969
G04 P0 ( dwell for no time -- G64 should not smooth over this point )
F1.96850
X0.13400 Y1.21300
X0.12200 Y1.20900
X0.11600 Y1.20400
X0.10500 Y1.19900
X0.09900 Y1.19200
X0.09700 Y1.19200
X0.07800 Y1.17100
X0.07000 Y1.15600
X0.06600 Y1.15200
X0.05600 Y1.12100
X0.05400 Y1.10500
X0.05500 Y1.07400
X0.06600 Y1.03800
X0.07000 Y1.03400
X0.07800 Y1.01900
X0.09000 Y1.00700
X0.09000 Y1.00500
X0.09200 Y1.00500
X0.10500 Y0.99200
X0.11400 Y0.98800
X0.12200 Y0.98100
X0.13000 Y0.97900
X0.13200 Y0.97700
X0.16000 Y0.96900
X0.18600 Y0.96700
X0.20300 Y0.96900
X0.23800 Y0.98000
X0.24400 Y0.98500
X0.25400 Y0.99000
X0.25500 Y0.99200
X0.25700 Y0.99200
X0.27900 Y1.01200
X0.27900 Y1.01400
X0.28500 Y1.01900
X0.28600 Y1.02300
X0.29100 Y1.02900
X0.29200 Y1.03300
X0.29400 Y1.03400
X0.30000 Y1.04700
X0.30000 Y1.05000
X0.30200 Y1.05200
X0.30800 Y1.07400
X0.30900 Y1.10500
X0.30600 Y1.12500
X0.29800 Y1.14800
X0.29400 Y1.15600
X0.29200 Y1.15700
X0.29100 Y1.16100
X0.28900 Y1.16200
X0.28800 Y1.16600
X0.28600 Y1.16700
X0.28500 Y1.17100
X0.26800 Y1.19000
X0.26600 Y1.19000
X0.25700 Y1.19900
X0.24800 Y1.20300
X0.24200 Y1.20800
X0.23300 Y1.21100
X0.22700 Y1.21500
X0.22400 Y1.21500
X0.22200 Y1.21700
X0.20300 Y1.22200
X0.17200 Y1.22300
X0.16000 Y1.22200
X0.14400 Y1.21800
X0.13400 Y1.21300
G04 P0 ( dwell for no time -- G64 should not smooth over this point )
G00 Z0.19685 ( retract )

G00 X0.29300 Y0.45600 ( rapid move to begin. )
F0.98425
G01 Z-0.01969
G04 P0 ( dwell for no time -- G64 should not smooth over this point )
F1.96850
X0.29300 Y0.45600
X0.28900 Y0.45300
X0.28400 Y0.44200
X0.28300 Y0.40500
X0.28500 Y0.39600
X0.28900 Y0.38800
X0.29500 Y0.38200
X0.29900 Y0.38100
X0.30500 Y0.37600
X0.31600 Y0.37400
X0.34300 Y0.37400
X0.35400 Y0.37600
X0.36000 Y0.38100
X0.36400 Y0.38200
X0.37000 Y0.38800
X0.37400 Y0.39600
X0.37600 Y0.40500
X0.37600 Y0.43600
X0.37400 Y0.44500
X0.37000 Y0.45300
X0.36400 Y0.45900
X0.35500 Y0.46300
X0.35400 Y0.46500
X0.34900 Y0.46600
X0.31600 Y0.46700
X0.30500 Y0.46500
X0.30400 Y0.46300
X0.29500 Y0.45900
X0.29300 Y0.45600
G04 P0 ( dwell for no time -- G64 should not smooth over this point )
G00 Z0.19685 ( retract )

G00 X0.52800 Y0.45600 ( rapid move to begin. )
F0.98425
G01 Z-0.01969
G04 P0 ( dwell for no time -- G64 should not smooth over this point )
F1.96850
X0.52800 Y0.45600
X0.52400 Y0.45300
X0.51900 Y0.44200
X0.51800 Y0.40500
X0.52000 Y0.39600
X0.52400 Y0.38800
X0.53000 Y0.38200
X0.53400 Y0.38100
X0.54000 Y0.37600
X0.55100 Y0.37400
X0.56800 Y0.37400
X0.57700 Y0.37600
X0.58900 Y0.37600
X0.59500 Y0.38100
X0.59900 Y0.38200
X0.60500 Y0.38800
X0.60900 Y0.39600
X0.61100 Y0.40500
X0.61100 Y0.43600
X0.60900 Y0.44500
X0.60500 Y0.45300
X0.59900 Y0.45900
X0.59000 Y0.46300
X0.58900 Y0.46500
X0.58400 Y0.46600
X0.55100 Y0.46700
X0.54000 Y0.46500
X0.53900 Y0.46300
X0.53000 Y0.45900
X0.52800 Y0.45600
G04 P0 ( dwell for no time -- G64 should not smooth over this point )
G00 Z0.19685 ( retract )

G00 X0.57700 Y0.36600 ( rapid move to begin. )
F0.98425
G01 Z-0.01969
G04 P0 ( dwell for no time -- G64 should not smooth over this point )
F1.96850
X0.57700 Y0.36600
X0.57500 Y0.36100
X0.58300 Y0.36200
X0.58600 Y0.36500
X0.58600 Y0.36700
X0.58300 Y0.36700
X0.58300 Y0.36900
X0.58900 Y0.37000
X0.59000 Y0.37600
X0.57700 Y0.37600
X0.56700 Y0.37400
X0.56700 Y0.36500
X0.57700 Y0.36600
G04 P0 ( dwell for no time -- G64 should not smooth over this point )
G00 Z0.19685 ( retract )

G00 X0.74500 Y0.36500 ( rapid move to begin. )
F0.98425
G01 Z-0.01969
G04 P0 ( dwell for no time -- G64 should not smooth over this point )
F1.96850
X0.74500 Y0.36500
X0.74500 Y0.04000
X1.38000 Y0.04000
X1.38000 Y0.37600
X0.74500 Y0.37600
X0.74500 Y0.36500
G04 P0 ( dwell for no time -- G64 should not smooth over this point )
G00 Z0.19685 ( retract )

G00 X1.15800 Y0.32800 ( rapid move to begin. )
F0.98425
G01 Z-0.01969
G04 P0 ( dwell for no time -- G64 should not smooth over this point )
F1.96850
X1.15800 Y0.32800
X1.14800 Y0.32500
X1.14300 Y0.32100
X1.13900 Y0.32000
X1.13800 Y0.31800
X1.13400 Y0.31700
X1.13300 Y0.31500
X1.12900 Y0.31400
X1.11000 Y0.29700
X1.11000 Y0.29500
X1.10100 Y0.28600
X1.09700 Y0.27700
X1.09200 Y0.27100
X1.09000 Y0.26400
X1.08700 Y0.26000
X1.08700 Y0.25700
X1.08400 Y0.25300
X1.07800 Y0.23200
X1.07700 Y0.20100
X1.07800 Y0.18900
X1.08200 Y0.17300
X1.08700 Y0.16300
X1.08700 Y0.16000
X1.09000 Y0.15600
X1.09000 Y0.15300
X1.09400 Y0.14800
X1.09500 Y0.14400
X1.09700 Y0.14300
X1.09800 Y0.13900
X1.10000 Y0.13800
X1.10100 Y0.13400
X1.11800 Y0.11600
X1.12000 Y0.11600
X1.12400 Y0.11100
X1.12600 Y0.11100
X1.12900 Y0.10700
X1.13100 Y0.10700
X1.13800 Y0.10100
X1.15600 Y0.09200
X1.18300 Y0.08400
X1.20900 Y0.08200
X1.22600 Y0.08400
X1.26200 Y0.09500
X1.26800 Y0.10000
X1.27500 Y0.10300
X1.27600 Y0.10500
X1.27800 Y0.10500
X1.27900 Y0.10700
X1.28100 Y0.10700
X1.30200 Y0.12700
X1.30200 Y0.12900
X1.30800 Y0.13400
X1.31000 Y0.13900
X1.31400 Y0.14300
X1.31500 Y0.14700
X1.31900 Y0.15100
X1.32100 Y0.15900
X1.32300 Y0.16100
X1.33100 Y0.18900
X1.33300 Y0.21500
X1.33100 Y0.23200
X1.32000 Y0.26700
X1.31500 Y0.27300
X1.31200 Y0.28000
X1.31000 Y0.28100
X1.31000 Y0.28300
X1.30800 Y0.28400
X1.30800 Y0.28600
X1.28900 Y0.30700
X1.28700 Y0.30700
X1.28100 Y0.31400
X1.27700 Y0.31500
X1.27600 Y0.31700
X1.27200 Y0.31800
X1.26600 Y0.32300
X1.25900 Y0.32500
X1.25500 Y0.32800
X1.25200 Y0.32800
X1.24800 Y0.33100
X1.22600 Y0.33700
X1.19500 Y0.33800
X1.17900 Y0.33600
X1.17600 Y0.33400
X1.16200 Y0.33100
X1.15800 Y0.32800

G04 P0 ( dwell for no time -- G64 should not smooth over this point )
G00 Z0.197 ( retract )

M5 ( Spindle off. )
M9 ( Coolant off. )
M2 ( Program end. )

