( pcb2gcode 1.2.2 )
( Software-independent Gcode )
      
G94 ( Inches per minute feed rate. )
G20 ( Units == INCHES. )

G90 ( Absolute coordinates. )
S10000 ( RPM spindle speed. )
G64 P0.00200 ( set maximum deviation from commanded toolpath )
F1.96850 ( Feedrate. )

F1.96850 ( Feedrate. )
M3 ( Spindle on clockwise. )
G04 P0 ( dwell for no time -- G64 should not smooth over this point )
G00 Z0.19685 ( retract )

G00 X0.06900 Y0.17000 ( rapid move to begin. )
F0.98425
G01 Z-0.01969
G04 P0 ( dwell for no time -- G64 should not smooth over this point )
F1.96850
X0.06900 Y0.17000
X0.06900 Y0.16900
X0.07000 Y0.16900
X0.07000 Y0.16500
X0.07100 Y0.16500
X0.07100 Y0.16200
X0.07200 Y0.16200
X0.07200 Y0.15900
X0.07300 Y0.15900
X0.07300 Y0.15800
X0.07400 Y0.15800
X0.07400 Y0.15600
X0.07500 Y0.15600
X0.07500 Y0.15400
X0.07600 Y0.15400
X0.07600 Y0.15200
X0.07700 Y0.15200
X0.07700 Y0.15000
X0.07800 Y0.15000
X0.07800 Y0.14800
X0.07900 Y0.14800
X0.07900 Y0.14700
X0.08000 Y0.14700
X0.08000 Y0.14500
X0.08100 Y0.14500
X0.08100 Y0.14300
X0.08200 Y0.14300
X0.08200 Y0.14200
X0.08300 Y0.14200
X0.08300 Y0.14000
X0.08400 Y0.14000
X0.08400 Y0.13900
X0.08500 Y0.13900
X0.08500 Y0.13700
X0.08600 Y0.13700
X0.08600 Y0.13600
X0.08700 Y0.13600
X0.08700 Y0.13500
X0.08800 Y0.13500
X0.08800 Y0.13400
X0.08900 Y0.13400
X0.08900 Y0.13300
X0.09000 Y0.13300
X0.09000 Y0.13200
X0.09100 Y0.13200
X0.09100 Y0.13000
X0.09200 Y0.13000
X0.09200 Y0.12900
X0.09300 Y0.12900
X0.09300 Y0.12800
X0.09400 Y0.12800
X0.09400 Y0.12700
X0.09500 Y0.12700
X0.09500 Y0.12600
X0.09600 Y0.12600
X0.09600 Y0.12500
X0.09700 Y0.12500
X0.09700 Y0.12400
X0.09800 Y0.12400
X0.09800 Y0.12300
X0.09900 Y0.12300
X0.09900 Y0.12200
X0.10000 Y0.12200
X0.10000 Y0.12100
X0.10100 Y0.12100
X0.10100 Y0.12000
X0.10200 Y0.12000
X0.10200 Y0.11900
X0.10300 Y0.11900
X0.10300 Y0.11800
X0.10400 Y0.11800
X0.10400 Y0.11700
X0.10500 Y0.11700
X0.10500 Y0.11600
X0.10700 Y0.11600
X0.10700 Y0.11500
X0.10800 Y0.11500
X0.10800 Y0.11400
X0.10900 Y0.11400
X0.10900 Y0.11300
X0.11000 Y0.11300
X0.11000 Y0.11200
X0.11100 Y0.11200
X0.11100 Y0.11100
X0.11200 Y0.11100
X0.11200 Y0.11000
X0.11400 Y0.11000
X0.11400 Y0.10900
X0.11500 Y0.10900
X0.11500 Y0.10800
X0.11700 Y0.10800
X0.11700 Y0.10700
X0.11800 Y0.10700
X0.11800 Y0.10600
X0.12000 Y0.10600
X0.12000 Y0.10500
X0.12200 Y0.10500
X0.12200 Y0.10400
X0.12300 Y0.10400
X0.12300 Y0.10300
X0.12500 Y0.10300
X0.12500 Y0.10200
X0.12700 Y0.10200
X0.12700 Y0.10100
X0.12900 Y0.10100
X0.12900 Y0.10000
X0.13100 Y0.10000
X0.13100 Y0.09900
X0.13300 Y0.09900
X0.13300 Y0.09800
X0.13400 Y0.09800
X0.13400 Y0.09700
X0.13700 Y0.09700
X0.13700 Y0.09600
X0.14000 Y0.09600
X0.14000 Y0.09500
X0.14400 Y0.09500
X0.14400 Y0.09400
X0.14700 Y0.09400
X0.14700 Y0.09300
X0.15000 Y0.09300
X0.15000 Y0.09100
X0.15100 Y0.09100
X0.15100 Y0.08900
X0.15200 Y0.08900
X0.15200 Y0.08800
X0.15300 Y0.08800
X0.15300 Y0.08500
X0.15200 Y0.08500
X0.15200 Y0.08400
X0.15100 Y0.08400
X0.15100 Y0.08300
X0.10400 Y0.08300
X0.10400 Y0.08400
X0.10100 Y0.08400
X0.10100 Y0.08500
X0.10000 Y0.08500
X0.10000 Y0.08600
X0.09900 Y0.08600
X0.09900 Y0.08700
X0.09800 Y0.08700
X0.09800 Y0.08800
X0.09700 Y0.08800
X0.09700 Y0.08900
X0.09600 Y0.08900
X0.09600 Y0.09000
X0.09500 Y0.09000
X0.09500 Y0.09100
X0.09400 Y0.09100
X0.09400 Y0.09200
X0.09300 Y0.09200
X0.09300 Y0.09300
X0.09200 Y0.09300
X0.09200 Y0.09400
X0.09100 Y0.09400
X0.09100 Y0.09500
X0.09000 Y0.09500
X0.09000 Y0.09600
X0.08900 Y0.09600
X0.08900 Y0.09700
X0.08800 Y0.09700
X0.08800 Y0.09800
X0.08700 Y0.09800
X0.08700 Y0.09900
X0.08600 Y0.09900
X0.08600 Y0.10000
X0.08500 Y0.10000
X0.08500 Y0.10100
X0.08400 Y0.10100
X0.08400 Y0.10200
X0.08300 Y0.10200
X0.08300 Y0.10300
X0.08200 Y0.10300
X0.08200 Y0.10400
X0.08100 Y0.10400
X0.08100 Y0.10500
X0.08000 Y0.10500
X0.08000 Y0.10600
X0.07900 Y0.10600
X0.07900 Y0.10700
X0.07800 Y0.10700
X0.07800 Y0.10800
X0.07700 Y0.10800
X0.07700 Y0.10900
X0.07600 Y0.10900
X0.07600 Y0.11000
X0.07500 Y0.11000
X0.07500 Y0.11100
X0.07400 Y0.11100
X0.07400 Y0.11200
X0.07300 Y0.11200
X0.07300 Y0.11300
X0.07200 Y0.11300
X0.07200 Y0.11400
X0.07100 Y0.11400
X0.07100 Y0.11500
X0.07000 Y0.11500
X0.07000 Y0.11600
X0.06900 Y0.11600
X0.06900 Y0.11700
X0.06800 Y0.11700
X0.06800 Y0.11800
X0.06700 Y0.11800
X0.06700 Y0.11900
X0.06600 Y0.11900
X0.06600 Y0.12000
X0.06500 Y0.12000
X0.06500 Y0.12100
X0.06400 Y0.12100
X0.06400 Y0.12200
X0.06300 Y0.12200
X0.06300 Y0.12300
X0.06200 Y0.12300
X0.06200 Y0.12400
X0.06100 Y0.12400
X0.06100 Y0.12500
X0.06000 Y0.12500
X0.06000 Y0.12600
X0.05900 Y0.12600
X0.05900 Y0.12900
X0.05800 Y0.12900
X0.05800 Y0.17500
X0.05900 Y0.17500
X0.05900 Y0.17600
X0.06000 Y0.17600
X0.06000 Y0.17700
X0.06100 Y0.17700
X0.06100 Y0.17800
X0.06300 Y0.17800
X0.06300 Y0.17700
X0.06400 Y0.17700
X0.06400 Y0.17600
X0.06600 Y0.17600
X0.06600 Y0.17500
X0.06800 Y0.17500
X0.06800 Y0.17200
X0.06900 Y0.17200
X0.06900 Y0.17000
G04 P0 ( dwell for no time -- G64 should not smooth over this point )
G00 Z0.19685 ( retract )

G00 X0.05300 Y0.36500 ( rapid move to begin. )
F0.98425
G01 Z-0.01969
G04 P0 ( dwell for no time -- G64 should not smooth over this point )
F1.96850
X0.05300 Y0.36500
X0.05300 Y0.34500
X0.05200 Y0.34500
X0.05200 Y0.34200
X0.05100 Y0.34200
X0.05100 Y0.34000
X0.05000 Y0.34000
X0.05000 Y0.33900
X0.04900 Y0.33900
X0.04900 Y0.33800
X0.04800 Y0.33800
X0.04800 Y0.33700
X0.04700 Y0.33700
X0.04700 Y0.33600
X0.04600 Y0.33600
X0.04600 Y0.33500
X0.04500 Y0.33500
X0.04500 Y0.33400
X0.04400 Y0.33400
X0.04400 Y0.33300
X0.04300 Y0.33300
X0.04300 Y0.33200
X0.04200 Y0.33200
X0.04200 Y0.33100
X0.04100 Y0.33100
X0.04100 Y0.33000
X0.04000 Y0.33000
X0.04000 Y0.32900
X0.03900 Y0.32900
X0.03900 Y0.32800
X0.03800 Y0.32800
X0.03800 Y0.32700
X0.03700 Y0.32700
X0.03700 Y0.32600
X0.03600 Y0.32600
X0.03600 Y0.32500
X0.03500 Y0.32500
X0.03500 Y0.32400
X0.03400 Y0.32400
X0.03400 Y0.32300
X0.03300 Y0.32300
X0.03300 Y0.32200
X0.03200 Y0.32200
X0.03200 Y0.32100
X0.03100 Y0.32100
X0.03100 Y0.32000
X0.03000 Y0.32000
X0.03000 Y0.31900
X0.02900 Y0.31900
X0.02900 Y0.31800
X0.02800 Y0.31800
X0.02800 Y0.31700
X0.02700 Y0.31700
X0.02700 Y0.31600
X0.02600 Y0.31600
X0.02600 Y0.31500
X0.02500 Y0.31500
X0.02500 Y0.31200
X0.02400 Y0.31200
X0.02400 Y0.30900
X0.02300 Y0.30900
X0.02300 Y0.11700
X0.02400 Y0.11700
X0.02400 Y0.11300
X0.02500 Y0.11300
X0.02500 Y0.11000
X0.02600 Y0.11000
X0.02600 Y0.10900
X0.02700 Y0.10900
X0.02700 Y0.10800
X0.02800 Y0.10800
X0.02800 Y0.10700
X0.02900 Y0.10700
X0.02900 Y0.10600
X0.03000 Y0.10600
X0.03000 Y0.10500
X0.03100 Y0.10500
X0.03100 Y0.10400
X0.03200 Y0.10400
X0.03200 Y0.10300
X0.03300 Y0.10300
X0.03300 Y0.10200
X0.03400 Y0.10200
X0.03400 Y0.10100
X0.03500 Y0.10100
X0.03500 Y0.10000
X0.03600 Y0.10000
X0.03600 Y0.09900
X0.03700 Y0.09900
X0.03700 Y0.09800
X0.03800 Y0.09800
X0.03800 Y0.09700
X0.03900 Y0.09700
X0.03900 Y0.09600
X0.04000 Y0.09600
X0.04000 Y0.09500
X0.04100 Y0.09500
X0.04100 Y0.09400
X0.04200 Y0.09400
X0.04200 Y0.09300
X0.04300 Y0.09300
X0.04300 Y0.09200
X0.04400 Y0.09200
X0.04400 Y0.09100
X0.04500 Y0.09100
X0.04500 Y0.09000
X0.04600 Y0.09000
X0.04600 Y0.08900
X0.04700 Y0.08900
X0.04700 Y0.08800
X0.04800 Y0.08800
X0.04800 Y0.08700
X0.04900 Y0.08700
X0.04900 Y0.08600
X0.05000 Y0.08600
X0.05000 Y0.08500
X0.05100 Y0.08500
X0.05100 Y0.08400
X0.05200 Y0.08400
X0.05200 Y0.08300
X0.05300 Y0.08300
X0.05300 Y0.08200
X0.05400 Y0.08200
X0.05400 Y0.08100
X0.05500 Y0.08100
X0.05500 Y0.08000
X0.05600 Y0.08000
X0.05600 Y0.07900
X0.05700 Y0.07900
X0.05700 Y0.07800
X0.05800 Y0.07800
X0.05800 Y0.07700
X0.05900 Y0.07700
X0.05900 Y0.07600
X0.06000 Y0.07600
X0.06000 Y0.07500
X0.06100 Y0.07500
X0.06100 Y0.07400
X0.06200 Y0.07400
X0.06200 Y0.07300
X0.06300 Y0.07300
X0.06300 Y0.07200
X0.06400 Y0.07200
X0.06400 Y0.07100
X0.06500 Y0.07100
X0.06500 Y0.07000
X0.06600 Y0.07000
X0.06600 Y0.06900
X0.06700 Y0.06900
X0.06700 Y0.06800
X0.06800 Y0.06800
X0.06800 Y0.06700
X0.06900 Y0.06700
X0.06900 Y0.06600
X0.07000 Y0.06600
X0.07000 Y0.06500
X0.07100 Y0.06500
X0.07100 Y0.06400
X0.07200 Y0.06400
X0.07200 Y0.06300
X0.07300 Y0.06300
X0.07300 Y0.06200
X0.07400 Y0.06200
X0.07400 Y0.06100
X0.07500 Y0.06100
X0.07500 Y0.06000
X0.07600 Y0.06000
X0.07600 Y0.05900
X0.07700 Y0.05900
X0.07700 Y0.05800
X0.07800 Y0.05800
X0.07800 Y0.05700
X0.07900 Y0.05700
X0.07900 Y0.05600
X0.08000 Y0.05600
X0.08000 Y0.05500
X0.08100 Y0.05500
X0.08100 Y0.05300
X0.08200 Y0.05300
X0.08200 Y0.05000
X0.08300 Y0.05000
X0.08300 Y0.04800
X0.08400 Y0.04800
X0.08400 Y0.04600
X0.08500 Y0.04600
X0.08500 Y0.04400
X0.08600 Y0.04400
X0.08600 Y0.04300
X0.08700 Y0.04300
X0.08700 Y0.04200
X0.08800 Y0.04200
X0.08800 Y0.04000
X0.01000 Y0.04000
X0.01000 Y0.37600
X0.04800 Y0.37600
X0.04800 Y0.37500
X0.04900 Y0.37500
X0.04900 Y0.37400
X0.05000 Y0.37400
X0.05000 Y0.37300
X0.05100 Y0.37300
X0.05100 Y0.37200
X0.05200 Y0.37200
X0.05200 Y0.37100
X0.05300 Y0.37100
X0.05300 Y0.36500
G04 P0 ( dwell for no time -- G64 should not smooth over this point )
G00 Z0.19685 ( retract )

G00 X0.35300 Y0.36500 ( rapid move to begin. )
F0.98425
G01 Z-0.01969
G04 P0 ( dwell for no time -- G64 should not smooth over this point )
F1.96850
X0.35300 Y0.36500
X0.35300 Y0.36300
X0.35200 Y0.36300
X0.35200 Y0.36100
X0.35100 Y0.36100
X0.35100 Y0.36000
X0.35000 Y0.36000
X0.35000 Y0.35900
X0.34900 Y0.35900
X0.34900 Y0.35800
X0.34800 Y0.35800
X0.34800 Y0.35700
X0.34700 Y0.35700
X0.34700 Y0.35600
X0.34600 Y0.35600
X0.34600 Y0.35500
X0.34500 Y0.35500
X0.34500 Y0.35400
X0.34400 Y0.35400
X0.34400 Y0.35300
X0.34300 Y0.35300
X0.34300 Y0.35200
X0.34200 Y0.35200
X0.34200 Y0.35100
X0.34100 Y0.35100
X0.34100 Y0.35000
X0.34000 Y0.35000
X0.34000 Y0.34900
X0.33900 Y0.34900
X0.33900 Y0.34800
X0.33800 Y0.34800
X0.33800 Y0.34700
X0.33700 Y0.34700
X0.33700 Y0.34600
X0.33600 Y0.34600
X0.33600 Y0.34500
X0.33500 Y0.34500
X0.33500 Y0.34400
X0.33400 Y0.34400
X0.33400 Y0.34300
X0.33300 Y0.34300
X0.33300 Y0.34200
X0.33200 Y0.34200
X0.33200 Y0.34100
X0.33100 Y0.34100
X0.33100 Y0.34000
X0.33000 Y0.34000
X0.33000 Y0.33900
X0.32900 Y0.33900
X0.32900 Y0.33800
X0.32800 Y0.33800
X0.32800 Y0.33700
X0.32700 Y0.33700
X0.32700 Y0.33600
X0.32600 Y0.33600
X0.32600 Y0.33500
X0.32500 Y0.33500
X0.32500 Y0.33400
X0.32400 Y0.33400
X0.32400 Y0.33300
X0.32300 Y0.33300
X0.32300 Y0.33200
X0.32200 Y0.33200
X0.32200 Y0.33100
X0.32100 Y0.33100
X0.32100 Y0.33000
X0.32000 Y0.33000
X0.32000 Y0.32900
X0.31900 Y0.32900
X0.31900 Y0.32800
X0.31800 Y0.32800
X0.31800 Y0.32700
X0.31700 Y0.32700
X0.31700 Y0.32600
X0.31600 Y0.32600
X0.31600 Y0.32500
X0.31500 Y0.32500
X0.31500 Y0.32400
X0.31400 Y0.32400
X0.31400 Y0.32300
X0.31300 Y0.32300
X0.31300 Y0.32200
X0.31200 Y0.32200
X0.31200 Y0.32100
X0.31100 Y0.32100
X0.31100 Y0.32000
X0.31000 Y0.32000
X0.31000 Y0.31900
X0.30900 Y0.31900
X0.30900 Y0.31800
X0.30800 Y0.31800
X0.30800 Y0.31700
X0.30700 Y0.31700
X0.30700 Y0.31600
X0.30600 Y0.31600
X0.30600 Y0.31500
X0.30500 Y0.31500
X0.30500 Y0.31400
X0.30400 Y0.31400
X0.30400 Y0.31300
X0.30300 Y0.31300
X0.30300 Y0.31200
X0.30200 Y0.31200
X0.30200 Y0.31100
X0.30100 Y0.31100
X0.30100 Y0.31000
X0.30000 Y0.31000
X0.30000 Y0.30900
X0.29900 Y0.30900
X0.29900 Y0.30800
X0.29800 Y0.30800
X0.29800 Y0.30700
X0.29700 Y0.30700
X0.29700 Y0.30600
X0.29600 Y0.30600
X0.29600 Y0.30500
X0.29500 Y0.30500
X0.29500 Y0.30400
X0.29400 Y0.30400
X0.29400 Y0.30300
X0.29300 Y0.30300
X0.29300 Y0.30200
X0.29200 Y0.30200
X0.29200 Y0.30100
X0.29100 Y0.30100
X0.29100 Y0.30000
X0.29000 Y0.30000
X0.29000 Y0.29900
X0.28900 Y0.29900
X0.28900 Y0.29800
X0.28800 Y0.29800
X0.28800 Y0.29700
X0.28700 Y0.29700
X0.28700 Y0.29600
X0.28600 Y0.29600
X0.28600 Y0.29500
X0.28500 Y0.29500
X0.28500 Y0.29400
X0.28400 Y0.29400
X0.28400 Y0.29300
X0.28200 Y0.29300
X0.28200 Y0.29200
X0.27800 Y0.29200
X0.27800 Y0.29300
X0.27600 Y0.29300
X0.27600 Y0.29400
X0.27500 Y0.29400
X0.27500 Y0.29500
X0.27400 Y0.29500
X0.27400 Y0.29700
X0.27300 Y0.29700
X0.27300 Y0.29800
X0.27200 Y0.29800
X0.27200 Y0.29900
X0.27100 Y0.29900
X0.27100 Y0.30000
X0.27000 Y0.30000
X0.27000 Y0.30100
X0.26900 Y0.30100
X0.26900 Y0.30200
X0.26700 Y0.30200
X0.26700 Y0.30300
X0.26600 Y0.30300
X0.26600 Y0.30400
X0.26500 Y0.30400
X0.26500 Y0.30500
X0.26400 Y0.30500
X0.26400 Y0.30600
X0.26300 Y0.30600
X0.26300 Y0.30700
X0.26100 Y0.30700
X0.26100 Y0.30800
X0.26000 Y0.30800
X0.26000 Y0.30900
X0.25900 Y0.30900
X0.25900 Y0.31000
X0.25800 Y0.31000
X0.25800 Y0.31100
X0.25600 Y0.31100
X0.25600 Y0.31200
X0.25400 Y0.31200
X0.25400 Y0.31300
X0.25300 Y0.31300
X0.25300 Y0.31400
X0.25100 Y0.31400
X0.25100 Y0.31500
X0.24900 Y0.31500
X0.24900 Y0.31600
X0.24800 Y0.31600
X0.24800 Y0.31700
X0.24600 Y0.31700
X0.24600 Y0.31800
X0.24400 Y0.31800
X0.24400 Y0.31900
X0.24300 Y0.31900
X0.24300 Y0.32000
X0.24100 Y0.32000
X0.24100 Y0.32100
X0.23900 Y0.32100
X0.23900 Y0.32200
X0.23600 Y0.32200
X0.23600 Y0.32300
X0.23400 Y0.32300
X0.23400 Y0.32400
X0.23200 Y0.32400
X0.23200 Y0.32500
X0.22900 Y0.32500
X0.22900 Y0.32600
X0.22700 Y0.32600
X0.22700 Y0.32700
X0.22400 Y0.32700
X0.22400 Y0.32800
X0.22100 Y0.32800
X0.22100 Y0.32900
X0.21800 Y0.32900
X0.21800 Y0.33000
X0.21400 Y0.33000
X0.21400 Y0.33100
X0.20700 Y0.33100
X0.20700 Y0.33200
X0.20300 Y0.33200
X0.20300 Y0.33300
X0.19100 Y0.33300
X0.19100 Y0.33400
X0.18000 Y0.33400
X0.18000 Y0.33300
X0.16800 Y0.33300
X0.16800 Y0.33200
X0.16400 Y0.33200
X0.16400 Y0.33100
X0.15700 Y0.33100
X0.15700 Y0.33000
X0.15300 Y0.33000
X0.15300 Y0.32900
X0.15000 Y0.32900
X0.15000 Y0.32800
X0.14700 Y0.32800
X0.14700 Y0.32700
X0.14400 Y0.32700
X0.14400 Y0.32600
X0.14100 Y0.32600
X0.14100 Y0.32500
X0.13800 Y0.32500
X0.13800 Y0.32400
X0.13600 Y0.32400
X0.13600 Y0.32300
X0.13400 Y0.32300
X0.13400 Y0.32200
X0.13100 Y0.32200
X0.13100 Y0.32100
X0.12900 Y0.32100
X0.12900 Y0.32000
X0.12700 Y0.32000
X0.12700 Y0.31900
X0.12600 Y0.31900
X0.12600 Y0.31800
X0.12400 Y0.31800
X0.12400 Y0.31700
X0.12200 Y0.31700
X0.12200 Y0.31600
X0.12100 Y0.31600
X0.12100 Y0.31500
X0.11900 Y0.31500
X0.11900 Y0.31400
X0.11700 Y0.31400
X0.11700 Y0.31300
X0.11600 Y0.31300
X0.11600 Y0.31200
X0.11400 Y0.31200
X0.11400 Y0.31100
X0.11200 Y0.31100
X0.11200 Y0.31000
X0.11100 Y0.31000
X0.11100 Y0.30900
X0.11000 Y0.30900
X0.11000 Y0.30800
X0.10900 Y0.30800
X0.10900 Y0.30700
X0.10800 Y0.30700
X0.10800 Y0.30600
X0.10700 Y0.30600
X0.10700 Y0.30500
X0.10600 Y0.30500
X0.10600 Y0.30400
X0.10400 Y0.30400
X0.10400 Y0.30300
X0.10300 Y0.30300
X0.10300 Y0.30200
X0.10200 Y0.30200
X0.10200 Y0.30100
X0.10100 Y0.30100
X0.10100 Y0.30000
X0.10000 Y0.30000
X0.10000 Y0.29900
X0.09900 Y0.29900
X0.09900 Y0.29800
X0.09800 Y0.29800
X0.09800 Y0.29700
X0.09700 Y0.29700
X0.09700 Y0.29600
X0.09600 Y0.29600
X0.09600 Y0.29500
X0.09500 Y0.29500
X0.09500 Y0.29400
X0.09400 Y0.29400
X0.09400 Y0.29200
X0.09300 Y0.29200
X0.09300 Y0.29100
X0.09200 Y0.29100
X0.09200 Y0.29000
X0.09100 Y0.29000
X0.09100 Y0.28900
X0.09000 Y0.28900
X0.09000 Y0.28800
X0.08900 Y0.28800
X0.08900 Y0.28600
X0.08800 Y0.28600
X0.08800 Y0.28500
X0.08700 Y0.28500
X0.08700 Y0.28400
X0.08600 Y0.28400
X0.08600 Y0.28300
X0.08500 Y0.28300
X0.08500 Y0.28100
X0.08400 Y0.28100
X0.08400 Y0.28000
X0.08300 Y0.28000
X0.08300 Y0.27800
X0.08200 Y0.27800
X0.08200 Y0.27700
X0.08100 Y0.27700
X0.08100 Y0.27500
X0.08000 Y0.27500
X0.08000 Y0.27400
X0.07900 Y0.27400
X0.07900 Y0.27200
X0.07800 Y0.27200
X0.07800 Y0.27000
X0.07700 Y0.27000
X0.07700 Y0.26900
X0.07600 Y0.26900
X0.07600 Y0.26700
X0.07500 Y0.26700
X0.07500 Y0.26500
X0.07400 Y0.26500
X0.07400 Y0.26300
X0.07300 Y0.26300
X0.07300 Y0.26100
X0.07200 Y0.26100
X0.07200 Y0.25800
X0.07100 Y0.25800
X0.07100 Y0.25600
X0.07000 Y0.25600
X0.07000 Y0.25200
X0.06900 Y0.25200
X0.06900 Y0.24900
X0.06800 Y0.24900
X0.06800 Y0.24600
X0.06700 Y0.24600
X0.06700 Y0.24400
X0.06500 Y0.24400
X0.06500 Y0.24300
X0.06400 Y0.24300
X0.06400 Y0.24200
X0.06000 Y0.24200
X0.06000 Y0.24300
X0.05900 Y0.24300
X0.05900 Y0.24400
X0.05800 Y0.24400
X0.05800 Y0.29600
X0.05900 Y0.29600
X0.05900 Y0.29900
X0.06000 Y0.29900
X0.06000 Y0.30000
X0.06100 Y0.30000
X0.06100 Y0.30100
X0.06200 Y0.30100
X0.06200 Y0.30200
X0.06300 Y0.30200
X0.06300 Y0.30300
X0.06400 Y0.30300
X0.06400 Y0.30400
X0.06500 Y0.30400
X0.06500 Y0.30500
X0.06600 Y0.30500
X0.06600 Y0.30600
X0.06700 Y0.30600
X0.06700 Y0.30700
X0.06800 Y0.30700
X0.06800 Y0.30800
X0.06900 Y0.30800
X0.06900 Y0.30900
X0.07000 Y0.30900
X0.07000 Y0.31000
X0.07100 Y0.31000
X0.07100 Y0.31100
X0.07200 Y0.31100
X0.07200 Y0.31200
X0.07300 Y0.31200
X0.07300 Y0.31300
X0.07400 Y0.31300
X0.07400 Y0.31400
X0.07500 Y0.31400
X0.07500 Y0.31500
X0.07600 Y0.31500
X0.07600 Y0.31600
X0.07700 Y0.31600
X0.07700 Y0.31700
X0.07800 Y0.31700
X0.07800 Y0.31800
X0.07900 Y0.31800
X0.07900 Y0.31900
X0.08000 Y0.31900
X0.08000 Y0.32000
X0.08100 Y0.32000
X0.08100 Y0.32100
X0.08200 Y0.32100
X0.08200 Y0.32200
X0.08300 Y0.32200
X0.08300 Y0.32300
X0.08400 Y0.32300
X0.08400 Y0.32400
X0.08500 Y0.32400
X0.08500 Y0.32600
X0.08600 Y0.32600
X0.08600 Y0.32700
X0.08700 Y0.32700
X0.08700 Y0.33000
X0.08800 Y0.33000
X0.08800 Y0.37000
X0.08900 Y0.37000
X0.08900 Y0.37100
X0.09000 Y0.37100
X0.09000 Y0.37200
X0.09100 Y0.37200
X0.09100 Y0.37300
X0.09200 Y0.37300
X0.09200 Y0.37400
X0.09300 Y0.37400
X0.09300 Y0.37500
X0.09400 Y0.37500
X0.09400 Y0.37600
X0.18900 Y0.37600
X0.18900 Y0.37500
X0.23200 Y0.37500
X0.23200 Y0.37600
X0.35400 Y0.37600
X0.35400 Y0.37500
X0.35500 Y0.37500
X0.35500 Y0.36900
X0.35400 Y0.36900
X0.35400 Y0.36600
X0.35300 Y0.36600
X0.35300 Y0.36500
G04 P0 ( dwell for no time -- G64 should not smooth over this point )
G00 Z0.19685 ( retract )

G00 X0.45100 Y0.39800 ( rapid move to begin. )
F0.98425
G01 Z-0.01969
G04 P0 ( dwell for no time -- G64 should not smooth over this point )
F1.96850
X0.45100 Y0.39800
X0.45100 Y0.38500
X0.45000 Y0.38500
X0.45000 Y0.38400
X0.44900 Y0.38400
X0.44900 Y0.38300
X0.44800 Y0.38300
X0.44800 Y0.38200
X0.44700 Y0.38200
X0.44700 Y0.38100
X0.44600 Y0.38100
X0.44600 Y0.38000
X0.43400 Y0.38000
X0.43400 Y0.38100
X0.43300 Y0.38100
X0.43300 Y0.38200
X0.43200 Y0.38200
X0.43200 Y0.38600
X0.43300 Y0.38600
X0.43300 Y0.38900
X0.43400 Y0.38900
X0.43400 Y0.39200
X0.43500 Y0.39200
X0.43500 Y0.39500
X0.43600 Y0.39500
X0.43600 Y0.39600
X0.43700 Y0.39600
X0.43700 Y0.39700
X0.43800 Y0.39700
X0.43800 Y0.39800
X0.43900 Y0.39800
X0.43900 Y0.39900
X0.44000 Y0.39900
X0.44000 Y0.40000
X0.44100 Y0.40000
X0.44100 Y0.40100
X0.44200 Y0.40100
X0.44200 Y0.40200
X0.44500 Y0.40200
X0.44500 Y0.40300
X0.44700 Y0.40300
X0.44700 Y0.40400
X0.45100 Y0.40400
X0.45100 Y0.39800
G04 P0 ( dwell for no time -- G64 should not smooth over this point )
G00 Z0.19685 ( retract )

G00 X0.59800 Y0.63700 ( rapid move to begin. )
F0.98425
G01 Z-0.01969
G04 P0 ( dwell for no time -- G64 should not smooth over this point )
F1.96850
X0.59800 Y0.63700
X0.59900 Y0.63700
X0.59900 Y0.63600
X0.60000 Y0.63600
X0.60000 Y0.63500
X0.60100 Y0.63500
X0.60100 Y0.63400
X0.60200 Y0.63400
X0.60200 Y0.63300
X0.60300 Y0.63300
X0.60300 Y0.63200
X0.60400 Y0.63200
X0.60400 Y0.63100
X0.60500 Y0.63100
X0.60500 Y0.63000
X0.60600 Y0.63000
X0.60600 Y0.62900
X0.60700 Y0.62900
X0.60700 Y0.62800
X0.60800 Y0.62800
X0.60800 Y0.62600
X0.60900 Y0.62600
X0.60900 Y0.62400
X0.61000 Y0.62400
X0.61000 Y0.62000
X0.61100 Y0.62000
X0.61100 Y0.61800
X0.61200 Y0.61800
X0.61200 Y0.60200
X0.61100 Y0.60200
X0.61100 Y0.60100
X0.61000 Y0.60100
X0.61000 Y0.59700
X0.60900 Y0.59700
X0.60900 Y0.59500
X0.60800 Y0.59500
X0.60800 Y0.59300
X0.60700 Y0.59300
X0.60700 Y0.59100
X0.60600 Y0.59100
X0.60600 Y0.59000
X0.60500 Y0.59000
X0.60500 Y0.58900
X0.60400 Y0.58900
X0.60400 Y0.58800
X0.60300 Y0.58800
X0.60300 Y0.58600
X0.60200 Y0.58600
X0.60200 Y0.58500
X0.60000 Y0.58500
X0.60000 Y0.58400
X0.59900 Y0.58400
X0.59900 Y0.57800
X0.60000 Y0.57800
X0.60000 Y0.57600
X0.60200 Y0.57600
X0.60200 Y0.57500
X0.60300 Y0.57500
X0.60300 Y0.57400
X0.60400 Y0.57400
X0.60400 Y0.57300
X0.60500 Y0.57300
X0.60500 Y0.57200
X0.60600 Y0.57200
X0.60600 Y0.57100
X0.60700 Y0.57100
X0.60700 Y0.57000
X0.60800 Y0.57000
X0.60800 Y0.56900
X0.60900 Y0.56900
X0.60900 Y0.56800
X0.61000 Y0.56800
X0.61000 Y0.56700
X0.61100 Y0.56700
X0.61100 Y0.56600
X0.61200 Y0.56600
X0.61200 Y0.56500
X0.61300 Y0.56500
X0.61300 Y0.56400
X0.61400 Y0.56400
X0.61400 Y0.56300
X0.61500 Y0.56300
X0.61500 Y0.56200
X0.61600 Y0.56200
X0.61600 Y0.56100
X0.61700 Y0.56100
X0.61700 Y0.56000
X0.61800 Y0.56000
X0.61800 Y0.55900
X0.61900 Y0.55900
X0.61900 Y0.55800
X0.62000 Y0.55800
X0.62000 Y0.55700
X0.62100 Y0.55700
X0.62100 Y0.55600
X0.62200 Y0.55600
X0.62200 Y0.55500
X0.62300 Y0.55500
X0.62300 Y0.55400
X0.62400 Y0.55400
X0.62400 Y0.55300
X0.62500 Y0.55300
X0.62500 Y0.55200
X0.62600 Y0.55200
X0.62600 Y0.55100
X0.62700 Y0.55100
X0.62700 Y0.55000
X0.62800 Y0.55000
X0.62800 Y0.54900
X0.62900 Y0.54900
X0.62900 Y0.54800
X0.63000 Y0.54800
X0.63000 Y0.54700
X0.63100 Y0.54700
X0.63100 Y0.54600
X0.63200 Y0.54600
X0.63200 Y0.54500
X0.63300 Y0.54500
X0.63300 Y0.54400
X0.63400 Y0.54400
X0.63400 Y0.54300
X0.63500 Y0.54300
X0.63500 Y0.54200
X0.63600 Y0.54200
X0.63600 Y0.54100
X0.63700 Y0.54100
X0.63700 Y0.54000
X0.63800 Y0.54000
X0.63800 Y0.53900
X0.63900 Y0.53900
X0.63900 Y0.53800
X0.64000 Y0.53800
X0.64000 Y0.53700
X0.64100 Y0.53700
X0.64100 Y0.53600
X0.64200 Y0.53600
X0.64200 Y0.53500
X0.64300 Y0.53500
X0.64300 Y0.53400
X0.64400 Y0.53400
X0.64400 Y0.53300
X0.64500 Y0.53300
X0.64500 Y0.53200
X0.64600 Y0.53200
X0.64600 Y0.53100
X0.64700 Y0.53100
X0.64700 Y0.53000
X0.64800 Y0.53000
X0.64800 Y0.52900
X0.64900 Y0.52900
X0.64900 Y0.52800
X0.65000 Y0.52800
X0.65000 Y0.52700
X0.65100 Y0.52700
X0.65100 Y0.52600
X0.65200 Y0.52600
X0.65200 Y0.52500
X0.65300 Y0.52500
X0.65300 Y0.52400
X0.65400 Y0.52400
X0.65400 Y0.52300
X0.65500 Y0.52300
X0.65500 Y0.52200
X0.65600 Y0.52200
X0.65600 Y0.52100
X0.65700 Y0.52100
X0.65700 Y0.52000
X0.65800 Y0.52000
X0.65800 Y0.51900
X0.65900 Y0.51900
X0.65900 Y0.51800
X0.66000 Y0.51800
X0.66000 Y0.51700
X0.66100 Y0.51700
X0.66100 Y0.51600
X0.66200 Y0.51600
X0.66200 Y0.51500
X0.66300 Y0.51500
X0.66300 Y0.51400
X0.66400 Y0.51400
X0.66400 Y0.51300
X0.66500 Y0.51300
X0.66500 Y0.51200
X0.66600 Y0.51200
X0.66600 Y0.51100
X0.66700 Y0.51100
X0.66700 Y0.51000
X0.66800 Y0.51000
X0.66800 Y0.50900
X0.66900 Y0.50900
X0.66900 Y0.50800
X0.67000 Y0.50800
X0.67000 Y0.50700
X0.67100 Y0.50700
X0.67100 Y0.50600
X0.67200 Y0.50600
X0.67200 Y0.50500
X0.67300 Y0.50500
X0.67300 Y0.50400
X0.67400 Y0.50400
X0.67400 Y0.50300
X0.67500 Y0.50300
X0.67500 Y0.50200
X0.67600 Y0.50200
X0.67600 Y0.50100
X0.67700 Y0.50100
X0.67700 Y0.50000
X0.67800 Y0.50000
X0.67800 Y0.49900
X0.67900 Y0.49900
X0.67900 Y0.49800
X0.68000 Y0.49800
X0.68000 Y0.49700
X0.68100 Y0.49700
X0.68100 Y0.49600
X0.68200 Y0.49600
X0.68200 Y0.49500
X0.68300 Y0.49500
X0.68300 Y0.49400
X0.68400 Y0.49400
X0.68400 Y0.49300
X0.68500 Y0.49300
X0.68500 Y0.49200
X0.68600 Y0.49200
X0.68600 Y0.49100
X0.68700 Y0.49100
X0.68700 Y0.49000
X0.68800 Y0.49000
X0.68800 Y0.48900
X0.68900 Y0.48900
X0.68900 Y0.48800
X0.69000 Y0.48800
X0.69000 Y0.48700
X0.69100 Y0.48700
X0.69100 Y0.48600
X0.69200 Y0.48600
X0.69200 Y0.48500
X0.69300 Y0.48500
X0.69300 Y0.48400
X0.69400 Y0.48400
X0.69400 Y0.48300
X0.69500 Y0.48300
X0.69500 Y0.48200
X0.69600 Y0.48200
X0.69600 Y0.48100
X0.69700 Y0.48100
X0.69700 Y0.48000
X0.69800 Y0.48000
X0.69800 Y0.47900
X0.69900 Y0.47900
X0.69900 Y0.47800
X0.70000 Y0.47800
X0.70000 Y0.47700
X0.70100 Y0.47700
X0.70100 Y0.47600
X0.70200 Y0.47600
X0.70200 Y0.47500
X0.70300 Y0.47500
X0.70300 Y0.47400
X0.70400 Y0.47400
X0.70400 Y0.47300
X0.70500 Y0.47300
X0.70500 Y0.47100
X0.70600 Y0.47100
X0.70600 Y0.46700
X0.70700 Y0.46700
X0.70700 Y0.37000
X0.73800 Y0.37000
X0.73800 Y0.30900
X0.65200 Y0.30900
X0.65200 Y0.31000
X0.65100 Y0.31000
X0.65100 Y0.31100
X0.65000 Y0.31100
X0.65000 Y0.31200
X0.64900 Y0.31200
X0.64900 Y0.31300
X0.64800 Y0.31300
X0.64800 Y0.31400
X0.64700 Y0.31400
X0.64700 Y0.36500
X0.64800 Y0.36500
X0.64800 Y0.36600
X0.64900 Y0.36600
X0.64900 Y0.36700
X0.65000 Y0.36700
X0.65000 Y0.36800
X0.65100 Y0.36800
X0.65100 Y0.36900
X0.65200 Y0.36900
X0.65200 Y0.37000
X0.68400 Y0.37000
X0.68400 Y0.45900
X0.68300 Y0.45900
X0.68300 Y0.46200
X0.68200 Y0.46200
X0.68200 Y0.46300
X0.68100 Y0.46300
X0.68100 Y0.46400
X0.68000 Y0.46400
X0.68000 Y0.46500
X0.67900 Y0.46500
X0.67900 Y0.46600
X0.67800 Y0.46600
X0.67800 Y0.46700
X0.67700 Y0.46700
X0.67700 Y0.46800
X0.67600 Y0.46800
X0.67600 Y0.46900
X0.67500 Y0.46900
X0.67500 Y0.47000
X0.67400 Y0.47000
X0.67400 Y0.47100
X0.67300 Y0.47100
X0.67300 Y0.47200
X0.67200 Y0.47200
X0.67200 Y0.47300
X0.67100 Y0.47300
X0.67100 Y0.47400
X0.67000 Y0.47400
X0.67000 Y0.47500
X0.66900 Y0.47500
X0.66900 Y0.47600
X0.66800 Y0.47600
X0.66800 Y0.47700
X0.66700 Y0.47700
X0.66700 Y0.47800
X0.66600 Y0.47800
X0.66600 Y0.47900
X0.66500 Y0.47900
X0.66500 Y0.48000
X0.66400 Y0.48000
X0.66400 Y0.48100
X0.66300 Y0.48100
X0.66300 Y0.48200
X0.66200 Y0.48200
X0.66200 Y0.48300
X0.66100 Y0.48300
X0.66100 Y0.48400
X0.66000 Y0.48400
X0.66000 Y0.48500
X0.65900 Y0.48500
X0.65900 Y0.48600
X0.65800 Y0.48600
X0.65800 Y0.48700
X0.65700 Y0.48700
X0.65700 Y0.48800
X0.65600 Y0.48800
X0.65600 Y0.48900
X0.65500 Y0.48900
X0.65500 Y0.49000
X0.65400 Y0.49000
X0.65400 Y0.49100
X0.65300 Y0.49100
X0.65300 Y0.49200
X0.65200 Y0.49200
X0.65200 Y0.49300
X0.65100 Y0.49300
X0.65100 Y0.49400
X0.65000 Y0.49400
X0.65000 Y0.49500
X0.64900 Y0.49500
X0.64900 Y0.49600
X0.64800 Y0.49600
X0.64800 Y0.49700
X0.64700 Y0.49700
X0.64700 Y0.49800
X0.64600 Y0.49800
X0.64600 Y0.49900
X0.64500 Y0.49900
X0.64500 Y0.50000
X0.64400 Y0.50000
X0.64400 Y0.50100
X0.64300 Y0.50100
X0.64300 Y0.50200
X0.64200 Y0.50200
X0.64200 Y0.50300
X0.64100 Y0.50300
X0.64100 Y0.50400
X0.64000 Y0.50400
X0.64000 Y0.50500
X0.63900 Y0.50500
X0.63900 Y0.50600
X0.63800 Y0.50600
X0.63800 Y0.50700
X0.63700 Y0.50700
X0.63700 Y0.50800
X0.63600 Y0.50800
X0.63600 Y0.50900
X0.63500 Y0.50900
X0.63500 Y0.51000
X0.63400 Y0.51000
X0.63400 Y0.51100
X0.63300 Y0.51100
X0.63300 Y0.51200
X0.63200 Y0.51200
X0.63200 Y0.51300
X0.63100 Y0.51300
X0.63100 Y0.51400
X0.63000 Y0.51400
X0.63000 Y0.51500
X0.62900 Y0.51500
X0.62900 Y0.51600
X0.62800 Y0.51600
X0.62800 Y0.51700
X0.62700 Y0.51700
X0.62700 Y0.51800
X0.62600 Y0.51800
X0.62600 Y0.51900
X0.62500 Y0.51900
X0.62500 Y0.52000
X0.62400 Y0.52000
X0.62400 Y0.52100
X0.62300 Y0.52100
X0.62300 Y0.52200
X0.62200 Y0.52200
X0.62200 Y0.52300
X0.62100 Y0.52300
X0.62100 Y0.52400
X0.62000 Y0.52400
X0.62000 Y0.52500
X0.61900 Y0.52500
X0.61900 Y0.52600
X0.61800 Y0.52600
X0.61800 Y0.52700
X0.61700 Y0.52700
X0.61700 Y0.52800
X0.61600 Y0.52800
X0.61600 Y0.52900
X0.61500 Y0.52900
X0.61500 Y0.53000
X0.61400 Y0.53000
X0.61400 Y0.53100
X0.61300 Y0.53100
X0.61300 Y0.53200
X0.61200 Y0.53200
X0.61200 Y0.53300
X0.61100 Y0.53300
X0.61100 Y0.53400
X0.61000 Y0.53400
X0.61000 Y0.53500
X0.60900 Y0.53500
X0.60900 Y0.53600
X0.60800 Y0.53600
X0.60800 Y0.53700
X0.60700 Y0.53700
X0.60700 Y0.53800
X0.60600 Y0.53800
X0.60600 Y0.53900
X0.60500 Y0.53900
X0.60500 Y0.54000
X0.60400 Y0.54000
X0.60400 Y0.54100
X0.60300 Y0.54100
X0.60300 Y0.54200
X0.60200 Y0.54200
X0.60200 Y0.54300
X0.60100 Y0.54300
X0.60100 Y0.54400
X0.60000 Y0.54400
X0.60000 Y0.54500
X0.59900 Y0.54500
X0.59900 Y0.54600
X0.59800 Y0.54600
X0.59800 Y0.54700
X0.59700 Y0.54700
X0.59700 Y0.54800
X0.59600 Y0.54800
X0.59600 Y0.54900
X0.59500 Y0.54900
X0.59500 Y0.55000
X0.59400 Y0.55000
X0.59400 Y0.55100
X0.59300 Y0.55100
X0.59300 Y0.55200
X0.59200 Y0.55200
X0.59200 Y0.55300
X0.59100 Y0.55300
X0.59100 Y0.55400
X0.59000 Y0.55400
X0.59000 Y0.55500
X0.58900 Y0.55500
X0.58900 Y0.55600
X0.58800 Y0.55600
X0.58800 Y0.55700
X0.58700 Y0.55700
X0.58700 Y0.55800
X0.58600 Y0.55800
X0.58600 Y0.55900
X0.58500 Y0.55900
X0.58500 Y0.56000
X0.58400 Y0.56000
X0.58400 Y0.56100
X0.58300 Y0.56100
X0.58300 Y0.56200
X0.58200 Y0.56200
X0.58200 Y0.56300
X0.58100 Y0.56300
X0.58100 Y0.56400
X0.58000 Y0.56400
X0.58000 Y0.56500
X0.57900 Y0.56500
X0.57900 Y0.56600
X0.57800 Y0.56600
X0.57800 Y0.56700
X0.57700 Y0.56700
X0.57700 Y0.56800
X0.57600 Y0.56800
X0.57600 Y0.56900
X0.57500 Y0.56900
X0.57500 Y0.57000
X0.57400 Y0.57000
X0.57400 Y0.57100
X0.57300 Y0.57100
X0.57300 Y0.57200
X0.57200 Y0.57200
X0.57200 Y0.57300
X0.57100 Y0.57300
X0.57100 Y0.57500
X0.57000 Y0.57500
X0.57000 Y0.57800
X0.56900 Y0.57800
X0.56900 Y0.58000
X0.56800 Y0.58000
X0.56800 Y0.58100
X0.56600 Y0.58100
X0.56600 Y0.58200
X0.56500 Y0.58200
X0.56500 Y0.58300
X0.56300 Y0.58300
X0.56300 Y0.58400
X0.56100 Y0.58400
X0.56100 Y0.58500
X0.55900 Y0.58500
X0.55900 Y0.58600
X0.55800 Y0.58600
X0.55800 Y0.58700
X0.55700 Y0.58700
X0.55700 Y0.58800
X0.55600 Y0.58800
X0.55600 Y0.59000
X0.55500 Y0.59000
X0.55500 Y0.59100
X0.55400 Y0.59100
X0.55400 Y0.59300
X0.55300 Y0.59300
X0.55300 Y0.59400
X0.55200 Y0.59400
X0.55200 Y0.59700
X0.55100 Y0.59700
X0.55100 Y0.59900
X0.55000 Y0.59900
X0.55000 Y0.60200
X0.54900 Y0.60200
X0.54900 Y0.61900
X0.55000 Y0.61900
X0.55000 Y0.62200
X0.55100 Y0.62200
X0.55100 Y0.62400
X0.55200 Y0.62400
X0.55200 Y0.62700
X0.55300 Y0.62700
X0.55300 Y0.62800
X0.55400 Y0.62800
X0.55400 Y0.63000
X0.55500 Y0.63000
X0.55500 Y0.63100
X0.55600 Y0.63100
X0.55600 Y0.63200
X0.55700 Y0.63200
X0.55700 Y0.63300
X0.55800 Y0.63300
X0.55800 Y0.63400
X0.55900 Y0.63400
X0.55900 Y0.63500
X0.56000 Y0.63500
X0.56000 Y0.63600
X0.56100 Y0.63600
X0.56100 Y0.63700
X0.56300 Y0.63700
X0.56300 Y0.63800
X0.56500 Y0.63800
X0.56500 Y0.63900
X0.56600 Y0.63900
X0.56600 Y0.64000
X0.57100 Y0.64000
X0.57100 Y0.64100
X0.57200 Y0.64100
X0.57200 Y0.64200
X0.58800 Y0.64200
X0.58800 Y0.64100
X0.59000 Y0.64100
X0.59000 Y0.64000
X0.59500 Y0.64000
X0.59500 Y0.63900
X0.59600 Y0.63900
X0.59600 Y0.63800
X0.59800 Y0.63800
X0.59800 Y0.63700
G04 P0 ( dwell for no time -- G64 should not smooth over this point )
G00 Z0.19685 ( retract )

G00 X0.60400 Y0.93700 ( rapid move to begin. )
F0.98425
G01 Z-0.01969
G04 P0 ( dwell for no time -- G64 should not smooth over this point )
F1.96850
X0.60400 Y0.93700
X0.60500 Y0.93700
X0.60500 Y0.93600
X0.60600 Y0.93600
X0.60600 Y0.93500
X0.60700 Y0.93500
X0.60700 Y0.93400
X0.60800 Y0.93400
X0.60800 Y0.93300
X0.60900 Y0.93300
X0.60900 Y0.93200
X0.61000 Y0.93200
X0.61000 Y0.93100
X0.61100 Y0.93100
X0.61100 Y0.92900
X0.61200 Y0.92900
X0.61200 Y0.92800
X0.61300 Y0.92800
X0.61300 Y0.92600
X0.61400 Y0.92600
X0.61400 Y0.92400
X0.61500 Y0.92400
X0.61500 Y0.92200
X0.61600 Y0.92200
X0.61600 Y0.91800
X0.61700 Y0.91800
X0.61700 Y0.90200
X0.61600 Y0.90200
X0.61600 Y0.89800
X0.61500 Y0.89800
X0.61500 Y0.89700
X0.61400 Y0.89700
X0.61400 Y0.89500
X0.61300 Y0.89500
X0.61300 Y0.89300
X0.61200 Y0.89300
X0.61200 Y0.89200
X0.61100 Y0.89200
X0.61100 Y0.89000
X0.61000 Y0.89000
X0.61000 Y0.88800
X0.60900 Y0.88800
X0.60900 Y0.88700
X0.60800 Y0.88700
X0.60800 Y0.88600
X0.60700 Y0.88600
X0.60700 Y0.88500
X0.60600 Y0.88500
X0.60600 Y0.88300
X0.60500 Y0.88300
X0.60500 Y0.88200
X0.60400 Y0.88200
X0.60400 Y0.88100
X0.60300 Y0.88100
X0.60300 Y0.88000
X0.60100 Y0.88000
X0.60100 Y0.87900
X0.60000 Y0.87900
X0.60000 Y0.87800
X0.59800 Y0.87800
X0.59800 Y0.87700
X0.59600 Y0.87700
X0.59600 Y0.87600
X0.59300 Y0.87600
X0.59300 Y0.87500
X0.58900 Y0.87500
X0.58900 Y0.87400
X0.58300 Y0.87400
X0.58300 Y0.87300
X0.57800 Y0.87300
X0.57800 Y0.87400
X0.57200 Y0.87400
X0.57200 Y0.87500
X0.56700 Y0.87500
X0.56700 Y0.87600
X0.56500 Y0.87600
X0.56500 Y0.87700
X0.56300 Y0.87700
X0.56300 Y0.87800
X0.56100 Y0.87800
X0.56100 Y0.87900
X0.56000 Y0.87900
X0.56000 Y0.88000
X0.55800 Y0.88000
X0.55800 Y0.88100
X0.55700 Y0.88100
X0.55700 Y0.88200
X0.55600 Y0.88200
X0.55600 Y0.88300
X0.55500 Y0.88300
X0.55500 Y0.88400
X0.55400 Y0.88400
X0.55400 Y0.88500
X0.55300 Y0.88500
X0.55300 Y0.88600
X0.55200 Y0.88600
X0.55200 Y0.88700
X0.55100 Y0.88700
X0.55100 Y0.88800
X0.55000 Y0.88800
X0.55000 Y0.89000
X0.54900 Y0.89000
X0.54900 Y0.89100
X0.54800 Y0.89100
X0.54800 Y0.89300
X0.54700 Y0.89300
X0.54700 Y0.89500
X0.54600 Y0.89500
X0.54600 Y0.89800
X0.54500 Y0.89800
X0.54500 Y0.90200
X0.54400 Y0.90200
X0.54400 Y0.90800
X0.54300 Y0.90800
X0.54300 Y0.91300
X0.54400 Y0.91300
X0.54400 Y0.91900
X0.54500 Y0.91900
X0.54500 Y0.92300
X0.54600 Y0.92300
X0.54600 Y0.92600
X0.54700 Y0.92600
X0.54700 Y0.92800
X0.54800 Y0.92800
X0.54800 Y0.93000
X0.54900 Y0.93000
X0.54900 Y0.93100
X0.55000 Y0.93100
X0.55000 Y0.93200
X0.55100 Y0.93200
X0.55100 Y0.93300
X0.55200 Y0.93300
X0.55200 Y0.93400
X0.55300 Y0.93400
X0.55300 Y0.93500
X0.55400 Y0.93500
X0.55400 Y0.93600
X0.55500 Y0.93600
X0.55500 Y0.93700
X0.55600 Y0.93700
X0.55600 Y0.93800
X0.55700 Y0.93800
X0.55700 Y0.93900
X0.55800 Y0.93900
X0.55800 Y0.94000
X0.56000 Y0.94000
X0.56000 Y0.94100
X0.56200 Y0.94100
X0.56200 Y0.94200
X0.56300 Y0.94200
X0.56300 Y0.94300
X0.56500 Y0.94300
X0.56500 Y0.94400
X0.56700 Y0.94400
X0.56700 Y0.94500
X0.56800 Y0.94500
X0.56800 Y0.94600
X0.57200 Y0.94600
X0.57200 Y0.94700
X0.58800 Y0.94700
X0.58800 Y0.94600
X0.59200 Y0.94600
X0.59200 Y0.94500
X0.59400 Y0.94500
X0.59400 Y0.94400
X0.59600 Y0.94400
X0.59600 Y0.94300
X0.59800 Y0.94300
X0.59800 Y0.94200
X0.59900 Y0.94200
X0.59900 Y0.94100
X0.60100 Y0.94100
X0.60100 Y0.94000
X0.60200 Y0.94000
X0.60200 Y0.93900
X0.60300 Y0.93900
X0.60300 Y0.93800
X0.60400 Y0.93800
X0.60400 Y0.93700
G04 P0 ( dwell for no time -- G64 should not smooth over this point )
G00 Z0.19685 ( retract )

G00 X0.64500 Y1.04800 ( rapid move to begin. )
F0.98425
G01 Z-0.01969
G04 P0 ( dwell for no time -- G64 should not smooth over this point )
F1.96850
X0.64500 Y1.04800
X0.64600 Y1.04800
X0.64600 Y1.04700
X0.64700 Y1.04700
X0.64700 Y1.04600
X0.64800 Y1.04600
X0.64800 Y1.04400
X0.64900 Y1.04400
X0.64900 Y1.04200
X0.65000 Y1.04200
X0.65000 Y1.04100
X0.65100 Y1.04100
X0.65100 Y1.03700
X0.65200 Y1.03700
X0.65200 Y1.03200
X0.65300 Y1.03200
X0.65300 Y1.02900
X0.65400 Y1.02900
X0.65400 Y1.02800
X0.65500 Y1.02800
X0.65500 Y1.02700
X0.65600 Y1.02700
X0.65600 Y1.02600
X0.65700 Y1.02600
X0.65700 Y1.02500
X0.65800 Y1.02500
X0.65800 Y1.02400
X0.65900 Y1.02400
X0.65900 Y1.02300
X0.66000 Y1.02300
X0.66000 Y1.02200
X0.66100 Y1.02200
X0.66100 Y1.02100
X0.66200 Y1.02100
X0.66200 Y1.02000
X0.66300 Y1.02000
X0.66300 Y1.01900
X0.66400 Y1.01900
X0.66400 Y1.01800
X0.66500 Y1.01800
X0.66500 Y1.01700
X0.66600 Y1.01700
X0.66600 Y1.01600
X0.66700 Y1.01600
X0.66700 Y1.01500
X0.66800 Y1.01500
X0.66800 Y1.01400
X0.66900 Y1.01400
X0.66900 Y1.01300
X0.67000 Y1.01300
X0.67000 Y1.01200
X0.67100 Y1.01200
X0.67100 Y1.01100
X0.67200 Y1.01100
X0.67200 Y1.01000
X0.67300 Y1.01000
X0.67300 Y1.00900
X0.67400 Y1.00900
X0.67400 Y1.00800
X0.67500 Y1.00800
X0.67500 Y1.00700
X0.67600 Y1.00700
X0.67600 Y1.00600
X0.67700 Y1.00600
X0.67700 Y1.00500
X0.67800 Y1.00500
X0.67800 Y1.00400
X0.67900 Y1.00400
X0.67900 Y1.00300
X0.68000 Y1.00300
X0.68000 Y1.00200
X0.68100 Y1.00200
X0.68100 Y1.00100
X0.68200 Y1.00100
X0.68200 Y1.00000
X0.68300 Y1.00000
X0.68300 Y0.99900
X0.68400 Y0.99900
X0.68400 Y0.99800
X0.68500 Y0.99800
X0.68500 Y0.99700
X0.68600 Y0.99700
X0.68600 Y0.99600
X0.68700 Y0.99600
X0.68700 Y0.99500
X0.68800 Y0.99500
X0.68800 Y0.99400
X0.68900 Y0.99400
X0.68900 Y0.99300
X0.69000 Y0.99300
X0.69000 Y0.99200
X0.69100 Y0.99200
X0.69100 Y0.99100
X0.69200 Y0.99100
X0.69200 Y0.99000
X0.69300 Y0.99000
X0.69300 Y0.98900
X0.69400 Y0.98900
X0.69400 Y0.98800
X0.69500 Y0.98800
X0.69500 Y0.98700
X0.69600 Y0.98700
X0.69600 Y0.98600
X0.69700 Y0.98600
X0.69700 Y0.98500
X0.69800 Y0.98500
X0.69800 Y0.98400
X0.69900 Y0.98400
X0.69900 Y0.98300
X0.70000 Y0.98300
X0.70000 Y0.98200
X0.70100 Y0.98200
X0.70100 Y0.98100
X0.70200 Y0.98100
X0.70200 Y0.98000
X0.70300 Y0.98000
X0.70300 Y0.97900
X0.70400 Y0.97900
X0.70400 Y0.97800
X0.70500 Y0.97800
X0.70500 Y0.97700
X0.70600 Y0.97700
X0.70600 Y0.97600
X0.70700 Y0.97600
X0.70700 Y0.97500
X0.70800 Y0.97500
X0.70800 Y0.97400
X0.70900 Y0.97400
X0.70900 Y0.97300
X0.71000 Y0.97300
X0.71000 Y0.97200
X0.71100 Y0.97200
X0.71100 Y0.97100
X0.71200 Y0.97100
X0.71200 Y0.97000
X0.71300 Y0.97000
X0.71300 Y0.96900
X0.71400 Y0.96900
X0.71400 Y0.96800
X0.71500 Y0.96800
X0.71500 Y0.96700
X0.71600 Y0.96700
X0.71600 Y0.96600
X0.71700 Y0.96600
X0.71700 Y0.96500
X0.71800 Y0.96500
X0.71800 Y0.96400
X0.71900 Y0.96400
X0.71900 Y0.96300
X0.72000 Y0.96300
X0.72000 Y0.96200
X0.72100 Y0.96200
X0.72100 Y0.96100
X0.72200 Y0.96100
X0.72200 Y0.96000
X0.72300 Y0.96000
X0.72300 Y0.95900
X0.72400 Y0.95900
X0.72400 Y0.95800
X0.72500 Y0.95800
X0.72500 Y0.95700
X0.72600 Y0.95700
X0.72600 Y0.95600
X0.72700 Y0.95600
X0.72700 Y0.95500
X0.73000 Y0.95500
X0.73000 Y0.95400
X0.73300 Y0.95400
X0.73300 Y0.95300
X0.73600 Y0.95300
X0.73600 Y0.95200
X0.74000 Y0.95200
X0.74000 Y0.95300
X0.74100 Y0.95300
X0.74100 Y0.95400
X0.74300 Y0.95400
X0.74300 Y0.95300
X0.74400 Y0.95300
X0.74400 Y0.95200
X0.74500 Y0.95200
X0.74500 Y0.95100
X0.74600 Y0.95100
X0.74600 Y0.95000
X0.74700 Y0.95000
X0.74700 Y0.94900
X0.74800 Y0.94900
X0.74800 Y0.94800
X0.74900 Y0.94800
X0.74900 Y0.94700
X0.75000 Y0.94700
X0.75000 Y0.94600
X0.75100 Y0.94600
X0.75100 Y0.94500
X0.75200 Y0.94500
X0.75200 Y0.94300
X0.75300 Y0.94300
X0.75300 Y0.87600
X0.75200 Y0.87600
X0.75200 Y0.87500
X0.75100 Y0.87500
X0.75100 Y0.87400
X0.75000 Y0.87400
X0.75000 Y0.87300
X0.74900 Y0.87300
X0.74900 Y0.87200
X0.74800 Y0.87200
X0.74800 Y0.87100
X0.74700 Y0.87100
X0.74700 Y0.61300
X0.74600 Y0.61300
X0.74600 Y0.61000
X0.74500 Y0.61000
X0.74500 Y0.60800
X0.74400 Y0.60800
X0.74400 Y0.60700
X0.74300 Y0.60700
X0.74300 Y0.60600
X0.74200 Y0.60600
X0.74200 Y0.60500
X0.74100 Y0.60500
X0.74100 Y0.60400
X0.74000 Y0.60400
X0.74000 Y0.60300
X0.73900 Y0.60300
X0.73900 Y0.60200
X0.73800 Y0.60200
X0.73800 Y0.60100
X0.73700 Y0.60100
X0.73700 Y0.60000
X0.73600 Y0.60000
X0.73600 Y0.59900
X0.73500 Y0.59900
X0.73500 Y0.59800
X0.73400 Y0.59800
X0.73400 Y0.59700
X0.73300 Y0.59700
X0.73300 Y0.59600
X0.73200 Y0.59600
X0.73200 Y0.59500
X0.73100 Y0.59500
X0.73100 Y0.59400
X0.73000 Y0.59400
X0.73000 Y0.59300
X0.72900 Y0.59300
X0.72900 Y0.59200
X0.72800 Y0.59200
X0.72800 Y0.59100
X0.72700 Y0.59100
X0.72700 Y0.59000
X0.72600 Y0.59000
X0.72600 Y0.58900
X0.72500 Y0.58900
X0.72500 Y0.58800
X0.72400 Y0.58800
X0.72400 Y0.58700
X0.72300 Y0.58700
X0.72300 Y0.58600
X0.72200 Y0.58600
X0.72200 Y0.58500
X0.72100 Y0.58500
X0.72100 Y0.58400
X0.72000 Y0.58400
X0.72000 Y0.58300
X0.71900 Y0.58300
X0.71900 Y0.58200
X0.71800 Y0.58200
X0.71800 Y0.58100
X0.71700 Y0.58100
X0.71700 Y0.58000
X0.71600 Y0.58000
X0.71600 Y0.57900
X0.71500 Y0.57900
X0.71500 Y0.57800
X0.71400 Y0.57800
X0.71400 Y0.57700
X0.71300 Y0.57700
X0.71300 Y0.57600
X0.71200 Y0.57600
X0.71200 Y0.57300
X0.71100 Y0.57300
X0.71100 Y0.57000
X0.71200 Y0.57000
X0.71200 Y0.55200
X0.71100 Y0.55200
X0.71100 Y0.55100
X0.71000 Y0.55100
X0.71000 Y0.54700
X0.70900 Y0.54700
X0.70900 Y0.54500
X0.70800 Y0.54500
X0.70800 Y0.54300
X0.70700 Y0.54300
X0.70700 Y0.54100
X0.70600 Y0.54100
X0.70600 Y0.54000
X0.70500 Y0.54000
X0.70500 Y0.53900
X0.70400 Y0.53900
X0.70400 Y0.53800
X0.70300 Y0.53800
X0.70300 Y0.53600
X0.70200 Y0.53600
X0.70200 Y0.53500
X0.70000 Y0.53500
X0.70000 Y0.53400
X0.69800 Y0.53400
X0.69800 Y0.53300
X0.69600 Y0.53300
X0.69600 Y0.53200
X0.69500 Y0.53200
X0.69500 Y0.53100
X0.69200 Y0.53100
X0.69200 Y0.53000
X0.68900 Y0.53000
X0.68900 Y0.52900
X0.67200 Y0.52900
X0.67200 Y0.53000
X0.66900 Y0.53000
X0.66900 Y0.53100
X0.66600 Y0.53100
X0.66600 Y0.53200
X0.66500 Y0.53200
X0.66500 Y0.53300
X0.66300 Y0.53300
X0.66300 Y0.53400
X0.66100 Y0.53400
X0.66100 Y0.53500
X0.65900 Y0.53500
X0.65900 Y0.53600
X0.65800 Y0.53600
X0.65800 Y0.53700
X0.65700 Y0.53700
X0.65700 Y0.53800
X0.65600 Y0.53800
X0.65600 Y0.54000
X0.65500 Y0.54000
X0.65500 Y0.54100
X0.65400 Y0.54100
X0.65400 Y0.54300
X0.65300 Y0.54300
X0.65300 Y0.54400
X0.65200 Y0.54400
X0.65200 Y0.54700
X0.65100 Y0.54700
X0.65100 Y0.54900
X0.65000 Y0.54900
X0.65000 Y0.55200
X0.64900 Y0.55200
X0.64900 Y0.56900
X0.65000 Y0.56900
X0.65000 Y0.57200
X0.65100 Y0.57200
X0.65100 Y0.57400
X0.65200 Y0.57400
X0.65200 Y0.57700
X0.65300 Y0.57700
X0.65300 Y0.57800
X0.65400 Y0.57800
X0.65400 Y0.58000
X0.65500 Y0.58000
X0.65500 Y0.58100
X0.65600 Y0.58100
X0.65600 Y0.58200
X0.65700 Y0.58200
X0.65700 Y0.58300
X0.65800 Y0.58300
X0.65800 Y0.58400
X0.65900 Y0.58400
X0.65900 Y0.58500
X0.66000 Y0.58500
X0.66000 Y0.58600
X0.66100 Y0.58600
X0.66100 Y0.58700
X0.66300 Y0.58700
X0.66300 Y0.58800
X0.66500 Y0.58800
X0.66500 Y0.58900
X0.66600 Y0.58900
X0.66600 Y0.59000
X0.67100 Y0.59000
X0.67100 Y0.59100
X0.67200 Y0.59100
X0.67200 Y0.59200
X0.69100 Y0.59200
X0.69100 Y0.59100
X0.69300 Y0.59100
X0.69300 Y0.59200
X0.69600 Y0.59200
X0.69600 Y0.59300
X0.69700 Y0.59300
X0.69700 Y0.59400
X0.69800 Y0.59400
X0.69800 Y0.59500
X0.69900 Y0.59500
X0.69900 Y0.59600
X0.70000 Y0.59600
X0.70000 Y0.59700
X0.70100 Y0.59700
X0.70100 Y0.59800
X0.70200 Y0.59800
X0.70200 Y0.59900
X0.70300 Y0.59900
X0.70300 Y0.60000
X0.70400 Y0.60000
X0.70400 Y0.60100
X0.70500 Y0.60100
X0.70500 Y0.60200
X0.70600 Y0.60200
X0.70600 Y0.60300
X0.70700 Y0.60300
X0.70700 Y0.60400
X0.70800 Y0.60400
X0.70800 Y0.60500
X0.70900 Y0.60500
X0.70900 Y0.60600
X0.71000 Y0.60600
X0.71000 Y0.60700
X0.71100 Y0.60700
X0.71100 Y0.60800
X0.71200 Y0.60800
X0.71200 Y0.60900
X0.71300 Y0.60900
X0.71300 Y0.61000
X0.71400 Y0.61000
X0.71400 Y0.61100
X0.71500 Y0.61100
X0.71500 Y0.61200
X0.71600 Y0.61200
X0.71600 Y0.61300
X0.71700 Y0.61300
X0.71700 Y0.61400
X0.71800 Y0.61400
X0.71800 Y0.61500
X0.71900 Y0.61500
X0.71900 Y0.61600
X0.72000 Y0.61600
X0.72000 Y0.61700
X0.72100 Y0.61700
X0.72100 Y0.61800
X0.72200 Y0.61800
X0.72200 Y0.61900
X0.72300 Y0.61900
X0.72300 Y0.62200
X0.72400 Y0.62200
X0.72400 Y0.92400
X0.72300 Y0.92400
X0.72300 Y0.92700
X0.72200 Y0.92700
X0.72200 Y0.92800
X0.72100 Y0.92800
X0.72100 Y0.92900
X0.72000 Y0.92900
X0.72000 Y0.93000
X0.71900 Y0.93000
X0.71900 Y0.93100
X0.71800 Y0.93100
X0.71800 Y0.93200
X0.71700 Y0.93200
X0.71700 Y0.93300
X0.71600 Y0.93300
X0.71600 Y0.93400
X0.71500 Y0.93400
X0.71500 Y0.93500
X0.71400 Y0.93500
X0.71400 Y0.93600
X0.71300 Y0.93600
X0.71300 Y0.93700
X0.71200 Y0.93700
X0.71200 Y0.93800
X0.71100 Y0.93800
X0.71100 Y0.93900
X0.71000 Y0.93900
X0.71000 Y0.94000
X0.70900 Y0.94000
X0.70900 Y0.94100
X0.70800 Y0.94100
X0.70800 Y0.94200
X0.70700 Y0.94200
X0.70700 Y0.94300
X0.70600 Y0.94300
X0.70600 Y0.94400
X0.70500 Y0.94400
X0.70500 Y0.94500
X0.70400 Y0.94500
X0.70400 Y0.94600
X0.70300 Y0.94600
X0.70300 Y0.94700
X0.70200 Y0.94700
X0.70200 Y0.94800
X0.70100 Y0.94800
X0.70100 Y0.94900
X0.70000 Y0.94900
X0.70000 Y0.95000
X0.69900 Y0.95000
X0.69900 Y0.95100
X0.69800 Y0.95100
X0.69800 Y0.95200
X0.69700 Y0.95200
X0.69700 Y0.95300
X0.69600 Y0.95300
X0.69600 Y0.95400
X0.69500 Y0.95400
X0.69500 Y0.95500
X0.69400 Y0.95500
X0.69400 Y0.95600
X0.69300 Y0.95600
X0.69300 Y0.95700
X0.69200 Y0.95700
X0.69200 Y0.95800
X0.69100 Y0.95800
X0.69100 Y0.95900
X0.69000 Y0.95900
X0.69000 Y0.96000
X0.68900 Y0.96000
X0.68900 Y0.96100
X0.68800 Y0.96100
X0.68800 Y0.96200
X0.68700 Y0.96200
X0.68700 Y0.96300
X0.68600 Y0.96300
X0.68600 Y0.96400
X0.68500 Y0.96400
X0.68500 Y0.96500
X0.68400 Y0.96500
X0.68400 Y0.96600
X0.68300 Y0.96600
X0.68300 Y0.96700
X0.68200 Y0.96700
X0.68200 Y0.96800
X0.68100 Y0.96800
X0.68100 Y0.96900
X0.68000 Y0.96900
X0.68000 Y0.97000
X0.67900 Y0.97000
X0.67900 Y0.97100
X0.67800 Y0.97100
X0.67800 Y0.97200
X0.67700 Y0.97200
X0.67700 Y0.97300
X0.67600 Y0.97300
X0.67600 Y0.97400
X0.67500 Y0.97400
X0.67500 Y0.97500
X0.67400 Y0.97500
X0.67400 Y0.97600
X0.67300 Y0.97600
X0.67300 Y0.97700
X0.67200 Y0.97700
X0.67200 Y0.97800
X0.67100 Y0.97800
X0.67100 Y0.97900
X0.67000 Y0.97900
X0.67000 Y0.98000
X0.66900 Y0.98000
X0.66900 Y0.98100
X0.66800 Y0.98100
X0.66800 Y0.98200
X0.66700 Y0.98200
X0.66700 Y0.98300
X0.66600 Y0.98300
X0.66600 Y0.98400
X0.66500 Y0.98400
X0.66500 Y0.98500
X0.66400 Y0.98500
X0.66400 Y0.98600
X0.66300 Y0.98600
X0.66300 Y0.98700
X0.66200 Y0.98700
X0.66200 Y0.98800
X0.66100 Y0.98800
X0.66100 Y0.98900
X0.66000 Y0.98900
X0.66000 Y0.99000
X0.65900 Y0.99000
X0.65900 Y0.99100
X0.65800 Y0.99100
X0.65800 Y0.99200
X0.65700 Y0.99200
X0.65700 Y0.99300
X0.65600 Y0.99300
X0.65600 Y0.99400
X0.65500 Y0.99400
X0.65500 Y0.99500
X0.65400 Y0.99500
X0.65400 Y0.99600
X0.65300 Y0.99600
X0.65300 Y0.99700
X0.65200 Y0.99700
X0.65200 Y0.99800
X0.65100 Y0.99800
X0.65100 Y0.99900
X0.65000 Y0.99900
X0.65000 Y1.00000
X0.64900 Y1.00000
X0.64900 Y1.00100
X0.64800 Y1.00100
X0.64800 Y1.00200
X0.64700 Y1.00200
X0.64700 Y1.00300
X0.64600 Y1.00300
X0.64600 Y1.00400
X0.64500 Y1.00400
X0.64500 Y1.00500
X0.64400 Y1.00500
X0.64400 Y1.00600
X0.64300 Y1.00600
X0.64300 Y1.00700
X0.64200 Y1.00700
X0.64200 Y1.00800
X0.62500 Y1.00800
X0.62500 Y1.00900
X0.62300 Y1.00900
X0.62300 Y1.01000
X0.62000 Y1.01000
X0.62000 Y1.01100
X0.61800 Y1.01100
X0.61800 Y1.01200
X0.61600 Y1.01200
X0.61600 Y1.01300
X0.61500 Y1.01300
X0.61500 Y1.01400
X0.61400 Y1.01400
X0.61400 Y1.01500
X0.61300 Y1.01500
X0.61300 Y1.01600
X0.61200 Y1.01600
X0.61200 Y1.01800
X0.61100 Y1.01800
X0.61100 Y1.01900
X0.61000 Y1.01900
X0.61000 Y1.02300
X0.60900 Y1.02300
X0.60900 Y1.02500
X0.60800 Y1.02500
X0.60800 Y1.03500
X0.60900 Y1.03500
X0.60900 Y1.03700
X0.61000 Y1.03700
X0.61000 Y1.04200
X0.61100 Y1.04200
X0.61100 Y1.04300
X0.61200 Y1.04300
X0.61200 Y1.04500
X0.61300 Y1.04500
X0.61300 Y1.04600
X0.61400 Y1.04600
X0.61400 Y1.04700
X0.61500 Y1.04700
X0.61500 Y1.04800
X0.61600 Y1.04800
X0.61600 Y1.04900
X0.61700 Y1.04900
X0.61700 Y1.05100
X0.61800 Y1.05100
X0.61800 Y1.05300
X0.61900 Y1.05300
X0.61900 Y1.05500
X0.64200 Y1.05500
X0.64200 Y1.05300
X0.64300 Y1.05300
X0.64300 Y1.05100
X0.64400 Y1.05100
X0.64400 Y1.04900
X0.64500 Y1.04900
X0.64500 Y1.04800
G04 P0 ( dwell for no time -- G64 should not smooth over this point )
G00 Z0.19685 ( retract )

G00 X0.74000 Y1.05200 ( rapid move to begin. )
F0.98425
G01 Z-0.01969
G04 P0 ( dwell for no time -- G64 should not smooth over this point )
F1.96850
X0.74000 Y1.05200
X0.74100 Y1.05200
X0.74100 Y0.95300
X0.74000 Y0.95300
X0.74000 Y0.95200
X0.73600 Y0.95200
X0.73600 Y0.95300
X0.73300 Y0.95300
X0.73300 Y0.95400
X0.73000 Y0.95400
X0.73000 Y0.95500
X0.72700 Y0.95500
X0.72700 Y0.95600
X0.72600 Y0.95600
X0.72600 Y0.95700
X0.72500 Y0.95700
X0.72500 Y0.95800
X0.72400 Y0.95800
X0.72400 Y0.95900
X0.72300 Y0.95900
X0.72300 Y0.96000
X0.72200 Y0.96000
X0.72200 Y0.96100
X0.72100 Y0.96100
X0.72100 Y0.96200
X0.72000 Y0.96200
X0.72000 Y0.96300
X0.71900 Y0.96300
X0.71900 Y0.96400
X0.71800 Y0.96400
X0.71800 Y0.96500
X0.71700 Y0.96500
X0.71700 Y0.96600
X0.71600 Y0.96600
X0.71600 Y0.96700
X0.71500 Y0.96700
X0.71500 Y0.96800
X0.71400 Y0.96800
X0.71400 Y0.96900
X0.71300 Y0.96900
X0.71300 Y0.97000
X0.71200 Y0.97000
X0.71200 Y0.97100
X0.71100 Y0.97100
X0.71100 Y0.97200
X0.71000 Y0.97200
X0.71000 Y0.97300
X0.70900 Y0.97300
X0.70900 Y0.97400
X0.70800 Y0.97400
X0.70800 Y0.97500
X0.70700 Y0.97500
X0.70700 Y0.97600
X0.70600 Y0.97600
X0.70600 Y0.97700
X0.70500 Y0.97700
X0.70500 Y0.97800
X0.70400 Y0.97800
X0.70400 Y0.97900
X0.70300 Y0.97900
X0.70300 Y0.98000
X0.70200 Y0.98000
X0.70200 Y0.98100
X0.70100 Y0.98100
X0.70100 Y0.98200
X0.70000 Y0.98200
X0.70000 Y0.98300
X0.69900 Y0.98300
X0.69900 Y0.98400
X0.69800 Y0.98400
X0.69800 Y0.98500
X0.69700 Y0.98500
X0.69700 Y0.98600
X0.69600 Y0.98600
X0.69600 Y0.98700
X0.69500 Y0.98700
X0.69500 Y0.98800
X0.69400 Y0.98800
X0.69400 Y0.98900
X0.69300 Y0.98900
X0.69300 Y0.99000
X0.69200 Y0.99000
X0.69200 Y0.99100
X0.69100 Y0.99100
X0.69100 Y0.99200
X0.69000 Y0.99200
X0.69000 Y0.99300
X0.68900 Y0.99300
X0.68900 Y0.99400
X0.68800 Y0.99400
X0.68800 Y0.99500
X0.68700 Y0.99500
X0.68700 Y0.99600
X0.68600 Y0.99600
X0.68600 Y0.99700
X0.68500 Y0.99700
X0.68500 Y0.99800
X0.68400 Y0.99800
X0.68400 Y0.99900
X0.68300 Y0.99900
X0.68300 Y1.00000
X0.68200 Y1.00000
X0.68200 Y1.00100
X0.68100 Y1.00100
X0.68100 Y1.00200
X0.68000 Y1.00200
X0.68000 Y1.00300
X0.67900 Y1.00300
X0.67900 Y1.00400
X0.67800 Y1.00400
X0.67800 Y1.00500
X0.67700 Y1.00500
X0.67700 Y1.00600
X0.67600 Y1.00600
X0.67600 Y1.00700
X0.67500 Y1.00700
X0.67500 Y1.00800
X0.67400 Y1.00800
X0.67400 Y1.00900
X0.67300 Y1.00900
X0.67300 Y1.01000
X0.67200 Y1.01000
X0.67200 Y1.01100
X0.67100 Y1.01100
X0.67100 Y1.01200
X0.67000 Y1.01200
X0.67000 Y1.01300
X0.66900 Y1.01300
X0.66900 Y1.01400
X0.66800 Y1.01400
X0.66800 Y1.01500
X0.66700 Y1.01500
X0.66700 Y1.01600
X0.66600 Y1.01600
X0.66600 Y1.01700
X0.66500 Y1.01700
X0.66500 Y1.01800
X0.66400 Y1.01800
X0.66400 Y1.01900
X0.66300 Y1.01900
X0.66300 Y1.02000
X0.66200 Y1.02000
X0.66200 Y1.02100
X0.66100 Y1.02100
X0.66100 Y1.02200
X0.66000 Y1.02200
X0.66000 Y1.02300
X0.65900 Y1.02300
X0.65900 Y1.02400
X0.65800 Y1.02400
X0.65800 Y1.02500
X0.65700 Y1.02500
X0.65700 Y1.02600
X0.65600 Y1.02600
X0.65600 Y1.02700
X0.65500 Y1.02700
X0.65500 Y1.02800
X0.65400 Y1.02800
X0.65400 Y1.02900
X0.65300 Y1.02900
X0.65300 Y1.03200
X0.65200 Y1.03200
X0.65200 Y1.03700
X0.65100 Y1.03700
X0.65100 Y1.04100
X0.65000 Y1.04100
X0.65000 Y1.04200
X0.64900 Y1.04200
X0.64900 Y1.04400
X0.64800 Y1.04400
X0.64800 Y1.04600
X0.64700 Y1.04600
X0.64700 Y1.04700
X0.64600 Y1.04700
X0.64600 Y1.04800
X0.64500 Y1.04800
X0.64500 Y1.04900
X0.64400 Y1.04900
X0.64400 Y1.05100
X0.64300 Y1.05100
X0.64300 Y1.05300
X0.64200 Y1.05300
X0.64200 Y1.05600
X0.64300 Y1.05600
X0.64300 Y1.05700
X0.73600 Y1.05700
X0.73600 Y1.05600
X0.73700 Y1.05600
X0.73700 Y1.05500
X0.73800 Y1.05500
X0.73800 Y1.05400
X0.73900 Y1.05400
X0.73900 Y1.05300
X0.74000 Y1.05300
X0.74000 Y1.05200
G04 P0 ( dwell for no time -- G64 should not smooth over this point )
G00 Z0.19685 ( retract )

G00 X0.72700 Y1.31200 ( rapid move to begin. )
F0.98425
G01 Z-0.01969
G04 P0 ( dwell for no time -- G64 should not smooth over this point )
F1.96850
X0.72700 Y1.31200
X0.72700 Y1.12400
X0.72600 Y1.12400
X0.72600 Y1.12300
X0.72500 Y1.12300
X0.72500 Y1.12100
X0.72400 Y1.12100
X0.72400 Y1.12000
X0.72300 Y1.12000
X0.72300 Y1.11900
X0.72000 Y1.11900
X0.72000 Y1.11800
X0.57100 Y1.11800
X0.57100 Y1.11900
X0.56800 Y1.11900
X0.56800 Y1.12000
X0.56600 Y1.12000
X0.56600 Y1.12100
X0.56500 Y1.12100
X0.56500 Y1.12300
X0.56400 Y1.12300
X0.56400 Y1.12600
X0.56300 Y1.12600
X0.56300 Y1.31400
X0.56400 Y1.31400
X0.56400 Y1.31700
X0.56500 Y1.31700
X0.56500 Y1.31800
X0.56600 Y1.31800
X0.56600 Y1.31900
X0.56700 Y1.31900
X0.56700 Y1.32000
X0.56800 Y1.32000
X0.56800 Y1.32100
X0.57000 Y1.32100
X0.57000 Y1.32200
X0.72100 Y1.32200
X0.72100 Y1.32100
X0.72200 Y1.32100
X0.72200 Y1.32000
X0.72300 Y1.32000
X0.72300 Y1.31900
X0.72400 Y1.31900
X0.72400 Y1.31800
X0.72500 Y1.31800
X0.72500 Y1.31700
X0.72600 Y1.31700
X0.72600 Y1.31600
X0.72700 Y1.31600
X0.72700 Y1.31200
G04 P0 ( dwell for no time -- G64 should not smooth over this point )
G00 Z0.19685 ( retract )

G00 X0.72300 Y1.51500 ( rapid move to begin. )
F0.98425
G01 Z-0.01969
G04 P0 ( dwell for no time -- G64 should not smooth over this point )
F1.96850
X0.72300 Y1.51500
X0.72400 Y1.51500
X0.72400 Y1.51300
X0.72500 Y1.51300
X0.72500 Y1.51200
X0.72600 Y1.51200
X0.72600 Y1.51000
X0.72700 Y1.51000
X0.72700 Y1.50900
X0.72800 Y1.50900
X0.72800 Y1.50800
X0.72900 Y1.50800
X0.72900 Y1.50700
X0.77000 Y1.50700
X0.77000 Y1.50600
X0.77400 Y1.50600
X0.77400 Y1.50500
X0.77600 Y1.50500
X0.77600 Y1.50400
X0.77700 Y1.50400
X0.77700 Y1.50300
X0.77900 Y1.50300
X0.77900 Y1.50200
X0.78000 Y1.50200
X0.78000 Y1.50100
X0.78100 Y1.50100
X0.78100 Y1.49900
X0.78200 Y1.49900
X0.78200 Y1.49800
X0.78300 Y1.49800
X0.78300 Y1.49700
X0.78400 Y1.49700
X0.78400 Y1.49600
X0.78500 Y1.49600
X0.78500 Y1.49500
X0.78600 Y1.49500
X0.78600 Y1.49400
X0.78700 Y1.49400
X0.78700 Y1.49300
X0.78800 Y1.49300
X0.78800 Y1.49200
X0.78900 Y1.49200
X0.78900 Y1.49100
X0.79000 Y1.49100
X0.79000 Y1.49000
X0.79100 Y1.49000
X0.79100 Y1.48900
X0.79200 Y1.48900
X0.79200 Y1.48800
X0.79300 Y1.48800
X0.79300 Y1.48700
X0.79400 Y1.48700
X0.79400 Y1.48600
X0.79500 Y1.48600
X0.79500 Y1.48500
X0.79600 Y1.48500
X0.79600 Y1.48400
X0.79700 Y1.48400
X0.79700 Y1.48300
X0.79800 Y1.48300
X0.79800 Y1.48200
X0.79900 Y1.48200
X0.79900 Y1.48100
X0.80000 Y1.48100
X0.80000 Y1.48000
X0.80100 Y1.48000
X0.80100 Y1.47900
X0.80200 Y1.47900
X0.80200 Y1.47800
X0.80300 Y1.47800
X0.80300 Y1.47700
X0.80400 Y1.47700
X0.80400 Y1.47600
X0.80500 Y1.47600
X0.80500 Y1.47500
X0.80600 Y1.47500
X0.80600 Y1.47400
X0.80700 Y1.47400
X0.80700 Y1.47300
X0.80800 Y1.47300
X0.80800 Y1.47200
X0.80900 Y1.47200
X0.80900 Y1.47100
X0.81000 Y1.47100
X0.81000 Y1.47000
X0.81100 Y1.47000
X0.81100 Y1.46900
X0.81200 Y1.46900
X0.81200 Y1.46800
X0.81300 Y1.46800
X0.81300 Y1.46700
X0.81400 Y1.46700
X0.81400 Y1.46600
X0.81500 Y1.46600
X0.81500 Y1.46500
X0.81600 Y1.46500
X0.81600 Y1.46400
X0.81700 Y1.46400
X0.81700 Y1.46300
X0.81800 Y1.46300
X0.81800 Y1.46200
X0.81900 Y1.46200
X0.81900 Y1.46100
X0.82000 Y1.46100
X0.82000 Y1.46000
X0.82100 Y1.46000
X0.82100 Y1.45900
X0.82200 Y1.45900
X0.82200 Y1.45800
X0.82300 Y1.45800
X0.82300 Y1.45700
X0.82400 Y1.45700
X0.82400 Y1.45600
X0.82500 Y1.45600
X0.82500 Y1.45500
X0.82600 Y1.45500
X0.82600 Y1.45400
X0.82700 Y1.45400
X0.82700 Y1.45300
X0.82800 Y1.45300
X0.82800 Y1.45200
X0.82900 Y1.45200
X0.82900 Y1.45100
X0.83000 Y1.45100
X0.83000 Y1.45000
X0.83100 Y1.45000
X0.83100 Y1.44900
X0.83200 Y1.44900
X0.83200 Y1.44800
X0.83300 Y1.44800
X0.83300 Y1.44700
X0.83400 Y1.44700
X0.83400 Y1.44600
X0.83500 Y1.44600
X0.83500 Y1.44500
X0.83600 Y1.44500
X0.83600 Y1.44400
X0.83700 Y1.44400
X0.83700 Y1.44300
X0.83800 Y1.44300
X0.83800 Y1.44200
X0.83900 Y1.44200
X0.83900 Y1.44100
X0.84000 Y1.44100
X0.84000 Y1.44000
X0.84100 Y1.44000
X0.84100 Y1.43900
X0.84200 Y1.43900
X0.84200 Y1.43800
X0.84300 Y1.43800
X0.84300 Y1.43700
X0.84400 Y1.43700
X0.84400 Y1.43600
X0.84500 Y1.43600
X0.84500 Y1.43500
X0.84600 Y1.43500
X0.84600 Y1.43400
X0.84700 Y1.43400
X0.84700 Y1.43300
X0.84800 Y1.43300
X0.84800 Y1.43200
X0.84900 Y1.43200
X0.84900 Y1.43100
X0.85000 Y1.43100
X0.85000 Y1.43000
X0.85100 Y1.43000
X0.85100 Y1.42900
X0.85200 Y1.42900
X0.85200 Y1.42800
X0.85300 Y1.42800
X0.85300 Y1.42700
X0.85400 Y1.42700
X0.85400 Y1.42600
X0.85500 Y1.42600
X0.85500 Y1.42500
X0.85600 Y1.42500
X0.85600 Y1.42400
X0.85700 Y1.42400
X0.85700 Y1.42300
X0.85800 Y1.42300
X0.85800 Y1.42200
X0.85900 Y1.42200
X0.85900 Y1.42100
X0.86000 Y1.42100
X0.86000 Y1.42000
X0.86100 Y1.42000
X0.86100 Y1.41900
X0.86200 Y1.41900
X0.86200 Y1.41800
X0.86300 Y1.41800
X0.86300 Y1.41700
X0.86400 Y1.41700
X0.86400 Y1.41600
X0.86500 Y1.41600
X0.86500 Y1.41500
X0.86600 Y1.41500
X0.86600 Y1.41400
X0.86700 Y1.41400
X0.86700 Y1.41300
X0.86800 Y1.41300
X0.86800 Y1.41200
X0.86900 Y1.41200
X0.86900 Y1.41100
X0.87000 Y1.41100
X0.87000 Y1.41000
X0.87100 Y1.41000
X0.87100 Y1.40900
X0.87200 Y1.40900
X0.87200 Y1.40800
X0.87300 Y1.40800
X0.87300 Y1.40700
X0.87400 Y1.40700
X0.87400 Y1.40600
X0.87500 Y1.40600
X0.87500 Y1.40500
X0.87600 Y1.40500
X0.87600 Y1.40400
X0.87700 Y1.40400
X0.87700 Y1.40300
X0.87800 Y1.40300
X0.87800 Y1.40200
X0.87900 Y1.40200
X0.87900 Y1.40100
X0.88000 Y1.40100
X0.88000 Y1.40000
X0.88100 Y1.40000
X0.88100 Y1.39900
X0.88200 Y1.39900
X0.88200 Y1.39800
X0.88300 Y1.39800
X0.88300 Y1.39700
X0.88400 Y1.39700
X0.88400 Y1.39600
X0.88500 Y1.39600
X0.88500 Y1.39500
X0.88600 Y1.39500
X0.88600 Y1.39400
X0.88700 Y1.39400
X0.88700 Y1.39300
X0.88800 Y1.39300
X0.88800 Y1.39200
X0.88900 Y1.39200
X0.88900 Y1.39100
X0.89000 Y1.39100
X0.89000 Y1.39000
X0.89100 Y1.39000
X0.89100 Y1.38900
X0.89200 Y1.38900
X0.89200 Y1.38800
X0.89300 Y1.38800
X0.89300 Y1.38700
X0.89400 Y1.38700
X0.89400 Y1.38600
X0.89500 Y1.38600
X0.89500 Y1.38500
X0.89600 Y1.38500
X0.89600 Y1.38400
X0.89700 Y1.38400
X0.89700 Y1.38300
X0.89800 Y1.38300
X0.89800 Y1.38200
X0.89900 Y1.38200
X0.89900 Y1.38100
X0.90000 Y1.38100
X0.90000 Y1.38000
X0.90100 Y1.38000
X0.90100 Y1.37900
X0.90200 Y1.37900
X0.90200 Y1.37800
X0.90300 Y1.37800
X0.90300 Y1.37700
X0.90400 Y1.37700
X0.90400 Y1.37600
X0.90500 Y1.37600
X0.90500 Y1.37500
X0.90600 Y1.37500
X0.90600 Y1.37400
X0.90700 Y1.37400
X0.90700 Y1.37300
X0.90800 Y1.37300
X0.90800 Y1.37200
X0.90900 Y1.37200
X0.90900 Y1.37100
X0.91000 Y1.37100
X0.91000 Y1.37000
X0.91100 Y1.37000
X0.91100 Y1.36900
X0.91200 Y1.36900
X0.91200 Y1.36800
X0.91300 Y1.36800
X0.91300 Y1.36700
X0.91400 Y1.36700
X0.91400 Y1.36600
X0.91500 Y1.36600
X0.91500 Y1.36500
X0.91600 Y1.36500
X0.91600 Y1.36400
X0.91700 Y1.36400
X0.91700 Y1.36300
X0.91800 Y1.36300
X0.91800 Y1.36200
X0.91900 Y1.36200
X0.91900 Y1.36100
X0.92000 Y1.36100
X0.92000 Y1.36000
X0.92100 Y1.36000
X0.92100 Y1.35900
X0.92200 Y1.35900
X0.92200 Y1.35800
X0.92300 Y1.35800
X0.92300 Y1.35700
X0.92400 Y1.35700
X0.92400 Y1.35600
X0.92500 Y1.35600
X0.92500 Y1.35500
X0.92600 Y1.35500
X0.92600 Y1.35400
X0.92700 Y1.35400
X0.92700 Y1.35300
X0.92800 Y1.35300
X0.92800 Y1.35200
X0.92900 Y1.35200
X0.92900 Y1.35100
X0.93000 Y1.35100
X0.93000 Y1.35000
X0.93100 Y1.35000
X0.93100 Y1.34900
X0.93200 Y1.34900
X0.93200 Y1.34800
X0.93300 Y1.34800
X0.93300 Y1.34700
X0.93400 Y1.34700
X0.93400 Y1.34600
X0.93500 Y1.34600
X0.93500 Y1.34500
X0.93600 Y1.34500
X0.93600 Y1.34400
X0.93700 Y1.34400
X0.93700 Y1.34300
X0.93800 Y1.34300
X0.93800 Y1.34200
X0.93900 Y1.34200
X0.93900 Y1.34100
X0.94000 Y1.34100
X0.94000 Y1.34000
X0.94100 Y1.34000
X0.94100 Y1.33900
X0.94200 Y1.33900
X0.94200 Y1.33800
X0.94300 Y1.33800
X0.94300 Y1.33700
X0.94400 Y1.33700
X0.94400 Y1.33600
X0.94500 Y1.33600
X0.94500 Y1.33500
X0.94600 Y1.33500
X0.94600 Y1.33400
X0.94700 Y1.33400
X0.94700 Y1.33300
X0.94800 Y1.33300
X0.94800 Y1.33200
X0.94900 Y1.33200
X0.94900 Y1.33100
X0.95000 Y1.33100
X0.95000 Y1.33000
X0.95100 Y1.33000
X0.95100 Y1.32900
X0.95200 Y1.32900
X0.95200 Y1.32800
X0.95300 Y1.32800
X0.95300 Y1.32700
X0.95400 Y1.32700
X0.95400 Y1.32600
X0.95500 Y1.32600
X0.95500 Y1.32500
X0.95600 Y1.32500
X0.95600 Y1.32400
X0.95700 Y1.32400
X0.95700 Y1.32300
X0.95800 Y1.32300
X0.95800 Y1.32200
X0.95900 Y1.32200
X0.95900 Y1.32100
X0.96000 Y1.32100
X0.96000 Y1.32000
X0.96100 Y1.32000
X0.96100 Y1.31900
X0.96200 Y1.31900
X0.96200 Y1.31800
X0.96300 Y1.31800
X0.96300 Y1.31700
X0.96400 Y1.31700
X0.96400 Y1.31600
X0.96500 Y1.31600
X0.96500 Y1.31500
X0.96600 Y1.31500
X0.96600 Y1.31400
X0.96700 Y1.31400
X0.96700 Y1.31300
X0.96800 Y1.31300
X0.96800 Y1.31200
X0.96900 Y1.31200
X0.96900 Y1.31100
X0.97000 Y1.31100
X0.97000 Y1.31000
X0.97100 Y1.31000
X0.97100 Y1.30900
X0.97200 Y1.30900
X0.97200 Y1.30800
X0.97300 Y1.30800
X0.97300 Y1.30700
X0.97400 Y1.30700
X0.97400 Y1.30600
X0.97500 Y1.30600
X0.97500 Y1.30500
X0.97600 Y1.30500
X0.97600 Y1.30400
X0.97700 Y1.30400
X0.97700 Y1.30300
X0.97800 Y1.30300
X0.97800 Y1.30200
X0.97900 Y1.30200
X0.97900 Y1.30100
X0.98000 Y1.30100
X0.98000 Y1.30000
X0.98100 Y1.30000
X0.98100 Y1.29900
X0.98200 Y1.29900
X0.98200 Y1.29800
X0.98300 Y1.29800
X0.98300 Y1.29700
X0.98400 Y1.29700
X0.98400 Y1.29600
X0.98500 Y1.29600
X0.98500 Y1.29500
X0.98600 Y1.29500
X0.98600 Y1.29400
X0.98700 Y1.29400
X0.98700 Y1.29300
X0.98800 Y1.29300
X0.98800 Y1.29200
X0.98900 Y1.29200
X0.98900 Y1.29100
X0.99000 Y1.29100
X0.99000 Y1.29000
X0.99100 Y1.29000
X0.99100 Y1.28900
X0.99200 Y1.28900
X0.99200 Y1.28800
X0.99300 Y1.28800
X0.99300 Y1.28700
X0.99400 Y1.28700
X0.99400 Y1.28600
X0.99500 Y1.28600
X0.99500 Y1.28500
X0.99600 Y1.28500
X0.99600 Y1.28400
X0.99700 Y1.28400
X0.99700 Y1.28300
X0.99800 Y1.28300
X0.99800 Y1.28200
X0.99900 Y1.28200
X0.99900 Y1.28100
X1.00000 Y1.28100
X1.00000 Y1.28000
X1.00100 Y1.28000
X1.00100 Y1.27900
X1.00200 Y1.27900
X1.00200 Y1.27800
X1.00300 Y1.27800
X1.00300 Y1.27700
X1.00400 Y1.27700
X1.00400 Y1.27600
X1.00500 Y1.27600
X1.00500 Y1.27500
X1.00600 Y1.27500
X1.00600 Y1.27400
X1.00700 Y1.27400
X1.00700 Y1.27300
X1.00800 Y1.27300
X1.00800 Y1.27200
X1.00900 Y1.27200
X1.00900 Y1.27100
X1.01000 Y1.27100
X1.01000 Y1.27000
X1.01100 Y1.27000
X1.01100 Y1.26900
X1.01200 Y1.26900
X1.01200 Y1.26800
X1.01300 Y1.26800
X1.01300 Y1.26700
X1.01400 Y1.26700
X1.01400 Y1.26600
X1.01500 Y1.26600
X1.01500 Y1.26500
X1.01600 Y1.26500
X1.01600 Y1.26400
X1.01700 Y1.26400
X1.01700 Y1.26300
X1.01800 Y1.26300
X1.01800 Y1.26200
X1.01900 Y1.26200
X1.01900 Y1.26100
X1.02000 Y1.26100
X1.02000 Y1.26000
X1.02100 Y1.26000
X1.02100 Y1.25900
X1.02200 Y1.25900
X1.02200 Y1.25800
X1.02300 Y1.25800
X1.02300 Y1.25700
X1.02400 Y1.25700
X1.02400 Y1.25600
X1.02500 Y1.25600
X1.02500 Y1.25500
X1.02600 Y1.25500
X1.02600 Y1.25400
X1.02700 Y1.25400
X1.02700 Y1.25300
X1.02800 Y1.25300
X1.02800 Y1.25200
X1.02900 Y1.25200
X1.02900 Y1.25100
X1.03000 Y1.25100
X1.03000 Y1.25000
X1.03100 Y1.25000
X1.03100 Y1.24900
X1.03200 Y1.24900
X1.03200 Y1.24800
X1.03300 Y1.24800
X1.03300 Y1.24700
X1.03400 Y1.24700
X1.03400 Y1.24600
X1.03500 Y1.24600
X1.03500 Y1.24500
X1.03600 Y1.24500
X1.03600 Y1.24400
X1.03700 Y1.24400
X1.03700 Y1.24300
X1.03800 Y1.24300
X1.03800 Y1.24200
X1.03900 Y1.24200
X1.03900 Y1.24100
X1.04000 Y1.24100
X1.04000 Y1.24000
X1.04100 Y1.24000
X1.04100 Y1.23900
X1.04200 Y1.23900
X1.04200 Y1.23800
X1.04300 Y1.23800
X1.04300 Y1.23700
X1.04400 Y1.23700
X1.04400 Y1.23600
X1.04500 Y1.23600
X1.04500 Y1.23500
X1.04600 Y1.23500
X1.04600 Y1.23400
X1.04700 Y1.23400
X1.04700 Y1.23300
X1.04800 Y1.23300
X1.04800 Y1.23200
X1.04900 Y1.23200
X1.04900 Y1.23100
X1.05000 Y1.23100
X1.05000 Y1.23000
X1.05100 Y1.23000
X1.05100 Y1.22900
X1.05200 Y1.22900
X1.05200 Y1.22800
X1.05300 Y1.22800
X1.05300 Y1.22700
X1.05400 Y1.22700
X1.05400 Y1.22600
X1.05500 Y1.22600
X1.05500 Y1.22500
X1.05600 Y1.22500
X1.05600 Y1.22400
X1.05700 Y1.22400
X1.05700 Y1.22300
X1.05800 Y1.22300
X1.05800 Y1.22200
X1.05900 Y1.22200
X1.05900 Y1.22100
X1.06000 Y1.22100
X1.06000 Y1.22000
X1.06100 Y1.22000
X1.06100 Y1.21900
X1.06200 Y1.21900
X1.06200 Y1.21800
X1.06300 Y1.21800
X1.06300 Y1.21700
X1.06400 Y1.21700
X1.06400 Y1.21600
X1.06500 Y1.21600
X1.06500 Y1.21500
X1.06600 Y1.21500
X1.06600 Y1.21400
X1.06700 Y1.21400
X1.06700 Y1.21300
X1.06800 Y1.21300
X1.06800 Y1.21200
X1.06900 Y1.21200
X1.06900 Y1.21100
X1.07000 Y1.21100
X1.07000 Y1.21000
X1.07100 Y1.21000
X1.07100 Y1.20900
X1.07200 Y1.20900
X1.07200 Y1.20800
X1.07300 Y1.20800
X1.07300 Y1.20700
X1.07400 Y1.20700
X1.07400 Y1.20600
X1.07500 Y1.20600
X1.07500 Y1.20500
X1.07600 Y1.20500
X1.07600 Y1.20400
X1.07700 Y1.20400
X1.07700 Y1.20300
X1.07800 Y1.20300
X1.07800 Y1.20200
X1.07900 Y1.20200
X1.07900 Y1.20100
X1.08000 Y1.20100
X1.08000 Y1.20000
X1.08100 Y1.20000
X1.08100 Y1.19900
X1.08200 Y1.19900
X1.08200 Y1.19800
X1.08300 Y1.19800
X1.08300 Y1.19700
X1.08400 Y1.19700
X1.08400 Y1.19600
X1.08500 Y1.19600
X1.08500 Y1.19500
X1.08600 Y1.19500
X1.08600 Y1.19400
X1.08700 Y1.19400
X1.08700 Y1.19300
X1.08800 Y1.19300
X1.08800 Y1.19200
X1.08900 Y1.19200
X1.08900 Y1.19100
X1.09000 Y1.19100
X1.09000 Y1.19000
X1.09100 Y1.19000
X1.09100 Y1.18900
X1.09200 Y1.18900
X1.09200 Y1.18800
X1.09300 Y1.18800
X1.09300 Y1.18700
X1.09400 Y1.18700
X1.09400 Y1.18600
X1.09500 Y1.18600
X1.09500 Y1.18500
X1.09600 Y1.18500
X1.09600 Y1.18400
X1.09700 Y1.18400
X1.09700 Y1.18300
X1.09800 Y1.18300
X1.09800 Y1.18200
X1.09900 Y1.18200
X1.09900 Y1.18100
X1.10000 Y1.18100
X1.10000 Y1.18000
X1.10100 Y1.18000
X1.10100 Y1.17900
X1.10200 Y1.17900
X1.10200 Y1.17800
X1.10300 Y1.17800
X1.10300 Y1.17700
X1.10400 Y1.17700
X1.10400 Y1.17600
X1.10500 Y1.17600
X1.10500 Y1.17500
X1.10600 Y1.17500
X1.10600 Y1.17400
X1.10800 Y1.17400
X1.10800 Y1.17500
X1.10900 Y1.17500
X1.10900 Y1.17600
X1.11000 Y1.17600
X1.11000 Y1.17700
X1.11100 Y1.17700
X1.11100 Y1.17800
X1.11200 Y1.17800
X1.11200 Y1.17900
X1.11300 Y1.17900
X1.11300 Y1.18100
X1.11400 Y1.18100
X1.11400 Y1.18200
X1.11500 Y1.18200
X1.11500 Y1.18300
X1.11600 Y1.18300
X1.11600 Y1.18400
X1.11700 Y1.18400
X1.11700 Y1.18500
X1.11800 Y1.18500
X1.11800 Y1.18600
X1.11900 Y1.18600
X1.11900 Y1.18700
X1.12000 Y1.18700
X1.12000 Y1.18800
X1.12100 Y1.18800
X1.12100 Y1.18900
X1.12200 Y1.18900
X1.12200 Y1.19000
X1.12400 Y1.19000
X1.12400 Y1.19100
X1.12500 Y1.19100
X1.12500 Y1.19200
X1.12600 Y1.19200
X1.12600 Y1.19300
X1.12700 Y1.19300
X1.12700 Y1.19400
X1.12800 Y1.19400
X1.12800 Y1.19500
X1.13000 Y1.19500
X1.13000 Y1.19600
X1.13100 Y1.19600
X1.13100 Y1.19700
X1.13200 Y1.19700
X1.13200 Y1.19800
X1.13300 Y1.19800
X1.13300 Y1.19900
X1.13500 Y1.19900
X1.13500 Y1.20000
X1.13700 Y1.20000
X1.13700 Y1.20100
X1.13800 Y1.20100
X1.13800 Y1.20200
X1.14000 Y1.20200
X1.14000 Y1.20300
X1.14200 Y1.20300
X1.14200 Y1.20400
X1.14300 Y1.20400
X1.14300 Y1.20500
X1.14500 Y1.20500
X1.14500 Y1.20600
X1.14700 Y1.20600
X1.14700 Y1.20700
X1.14800 Y1.20700
X1.14800 Y1.20800
X1.15000 Y1.20800
X1.15000 Y1.20900
X1.15200 Y1.20900
X1.15200 Y1.21000
X1.15400 Y1.21000
X1.15400 Y1.21100
X1.15700 Y1.21100
X1.15700 Y1.21200
X1.15900 Y1.21200
X1.15900 Y1.21300
X1.16100 Y1.21300
X1.16100 Y1.21400
X1.16300 Y1.21400
X1.16300 Y1.21500
X1.16600 Y1.21500
X1.16600 Y1.21600
X1.16800 Y1.21600
X1.16800 Y1.21700
X1.17100 Y1.21700
X1.17100 Y1.21800
X1.17500 Y1.21800
X1.17500 Y1.21900
X1.17900 Y1.21900
X1.17900 Y1.22000
X1.18300 Y1.22000
X1.18300 Y1.22100
X1.18700 Y1.22100
X1.18700 Y1.22200
X1.19900 Y1.22200
X1.19900 Y1.22300
X1.21800 Y1.22300
X1.21800 Y1.22200
X1.23000 Y1.22200
X1.23000 Y1.22100
X1.23400 Y1.22100
X1.23400 Y1.22000
X1.23800 Y1.22000
X1.23800 Y1.21900
X1.24200 Y1.21900
X1.24200 Y1.21800
X1.24600 Y1.21800
X1.24600 Y1.21700
X1.24900 Y1.21700
X1.24900 Y1.21600
X1.25200 Y1.21600
X1.25200 Y1.21500
X1.25400 Y1.21500
X1.25400 Y1.21400
X1.25600 Y1.21400
X1.25600 Y1.21300
X1.25900 Y1.21300
X1.25900 Y1.21200
X1.26100 Y1.21200
X1.26100 Y1.21100
X1.26300 Y1.21100
X1.26300 Y1.21000
X1.26600 Y1.21000
X1.26600 Y1.20900
X1.26800 Y1.20900
X1.26800 Y1.20800
X1.26900 Y1.20800
X1.26900 Y1.20700
X1.27100 Y1.20700
X1.27100 Y1.20600
X1.27300 Y1.20600
X1.27300 Y1.20500
X1.27400 Y1.20500
X1.27400 Y1.20400
X1.27600 Y1.20400
X1.27600 Y1.20300
X1.27800 Y1.20300
X1.27800 Y1.20200
X1.28000 Y1.20200
X1.28000 Y1.20100
X1.28100 Y1.20100
X1.28100 Y1.20000
X1.28300 Y1.20000
X1.28300 Y1.19900
X1.28500 Y1.19900
X1.28500 Y1.19800
X1.28600 Y1.19800
X1.28600 Y1.19700
X1.28700 Y1.19700
X1.28700 Y1.19600
X1.28800 Y1.19600
X1.28800 Y1.19500
X1.28900 Y1.19500
X1.28900 Y1.19400
X1.29000 Y1.19400
X1.29000 Y1.19300
X1.29100 Y1.19300
X1.29100 Y1.19200
X1.29300 Y1.19200
X1.29300 Y1.19100
X1.29400 Y1.19100
X1.29400 Y1.19000
X1.29500 Y1.19000
X1.29500 Y1.18900
X1.29600 Y1.18900
X1.29600 Y1.18800
X1.29700 Y1.18800
X1.29700 Y1.18700
X1.29800 Y1.18700
X1.29800 Y1.18600
X1.29900 Y1.18600
X1.29900 Y1.18500
X1.30000 Y1.18500
X1.30000 Y1.18400
X1.30100 Y1.18400
X1.30100 Y1.18300
X1.30200 Y1.18300
X1.30200 Y1.18200
X1.30300 Y1.18200
X1.30300 Y1.18100
X1.30400 Y1.18100
X1.30400 Y1.17900
X1.30500 Y1.17900
X1.30500 Y1.17800
X1.30600 Y1.17800
X1.30600 Y1.17700
X1.30700 Y1.17700
X1.30700 Y1.17600
X1.30800 Y1.17600
X1.30800 Y1.17400
X1.30900 Y1.17400
X1.30900 Y1.17300
X1.31000 Y1.17300
X1.31000 Y1.17200
X1.31100 Y1.17200
X1.31100 Y1.17100
X1.31200 Y1.17100
X1.31200 Y1.16900
X1.31300 Y1.16900
X1.31300 Y1.16800
X1.31400 Y1.16800
X1.31400 Y1.16600
X1.31500 Y1.16600
X1.31500 Y1.16400
X1.31600 Y1.16400
X1.31600 Y1.16300
X1.31700 Y1.16300
X1.31700 Y1.16100
X1.31800 Y1.16100
X1.31800 Y1.16000
X1.31900 Y1.16000
X1.31900 Y1.15800
X1.32000 Y1.15800
X1.32000 Y1.15600
X1.32100 Y1.15600
X1.32100 Y1.15500
X1.32200 Y1.15500
X1.32200 Y1.15300
X1.32300 Y1.15300
X1.32300 Y1.15200
X1.32400 Y1.15200
X1.32400 Y1.14900
X1.32500 Y1.14900
X1.32500 Y1.14600
X1.32600 Y1.14600
X1.32600 Y1.14300
X1.32700 Y1.14300
X1.32700 Y1.14100
X1.32800 Y1.14100
X1.32800 Y1.13800
X1.32900 Y1.13800
X1.32900 Y1.13500
X1.33000 Y1.13500
X1.33000 Y1.13200
X1.33100 Y1.13200
X1.33100 Y1.12800
X1.33200 Y1.12800
X1.33200 Y1.12400
X1.33300 Y1.12400
X1.33300 Y1.12100
X1.33400 Y1.12100
X1.33400 Y1.11700
X1.33500 Y1.11700
X1.33500 Y1.10500
X1.33600 Y1.10500
X1.33600 Y1.08600
X1.33500 Y1.08600
X1.33500 Y1.07400
X1.33400 Y1.07400
X1.33400 Y1.07000
X1.33300 Y1.07000
X1.33300 Y1.06600
X1.33200 Y1.06600
X1.33200 Y1.06200
X1.33100 Y1.06200
X1.33100 Y1.05800
X1.33000 Y1.05800
X1.33000 Y1.05500
X1.32900 Y1.05500
X1.32900 Y1.05200
X1.32800 Y1.05200
X1.32800 Y1.04900
X1.32700 Y1.04900
X1.32700 Y1.04700
X1.32600 Y1.04700
X1.32600 Y1.04400
X1.32500 Y1.04400
X1.32500 Y1.04100
X1.32400 Y1.04100
X1.32400 Y1.03800
X1.32300 Y1.03800
X1.32300 Y1.03600
X1.32200 Y1.03600
X1.32200 Y1.03500
X1.32100 Y1.03500
X1.32100 Y1.03400
X1.32000 Y1.03400
X1.32000 Y1.03200
X1.31900 Y1.03200
X1.31900 Y1.03000
X1.31800 Y1.03000
X1.31800 Y1.02900
X1.31700 Y1.02900
X1.31700 Y1.02700
X1.31600 Y1.02700
X1.31600 Y1.02600
X1.31500 Y1.02600
X1.31500 Y1.02400
X1.31400 Y1.02400
X1.31400 Y1.02200
X1.31300 Y1.02200
X1.31300 Y1.02100
X1.31200 Y1.02100
X1.31200 Y1.01900
X1.31100 Y1.01900
X1.31100 Y1.01800
X1.31000 Y1.01800
X1.31000 Y1.01700
X1.30900 Y1.01700
X1.30900 Y1.01600
X1.30800 Y1.01600
X1.30800 Y1.01500
X1.30700 Y1.01500
X1.30700 Y1.01400
X1.30600 Y1.01400
X1.30600 Y1.01200
X1.30500 Y1.01200
X1.30500 Y1.01100
X1.30400 Y1.01100
X1.30400 Y1.01000
X1.30300 Y1.01000
X1.30300 Y1.00900
X1.30200 Y1.00900
X1.30200 Y1.00800
X1.30100 Y1.00800
X1.30100 Y1.00700
X1.30000 Y1.00700
X1.30000 Y1.00500
X1.29800 Y1.00500
X1.29800 Y1.00400
X1.29700 Y1.00400
X1.29700 Y1.00300
X1.29600 Y1.00300
X1.29600 Y1.00200
X1.29500 Y1.00200
X1.29500 Y1.00100
X1.29400 Y1.00100
X1.29400 Y1.00000
X1.29300 Y1.00000
X1.29300 Y0.99900
X1.29200 Y0.99900
X1.29200 Y0.99800
X1.29000 Y0.99800
X1.29000 Y0.99700
X1.28900 Y0.99700
X1.28900 Y0.99600
X1.28800 Y0.99600
X1.28800 Y0.99500
X1.28700 Y0.99500
X1.28700 Y0.99400
X1.28600 Y0.99400
X1.28600 Y0.99300
X1.28500 Y0.99300
X1.28500 Y0.99200
X1.28300 Y0.99200
X1.28300 Y0.99100
X1.28200 Y0.99100
X1.28200 Y0.99000
X1.28000 Y0.99000
X1.28000 Y0.98900
X1.27900 Y0.98900
X1.27900 Y0.98800
X1.27700 Y0.98800
X1.27700 Y0.98700
X1.27600 Y0.98700
X1.27600 Y0.98600
X1.27400 Y0.98600
X1.27400 Y0.98500
X1.27200 Y0.98500
X1.27200 Y0.98400
X1.27100 Y0.98400
X1.27100 Y0.98300
X1.26900 Y0.98300
X1.26900 Y0.98200
X1.26800 Y0.98200
X1.26800 Y0.98100
X1.26600 Y0.98100
X1.26600 Y0.98000
X1.26300 Y0.98000
X1.26300 Y0.97900
X1.26000 Y0.97900
X1.26000 Y0.97800
X1.25800 Y0.97800
X1.25800 Y0.97700
X1.25500 Y0.97700
X1.25500 Y0.97600
X1.25200 Y0.97600
X1.25200 Y0.97500
X1.24900 Y0.97500
X1.24900 Y0.97400
X1.24600 Y0.97400
X1.24600 Y0.97300
X1.24200 Y0.97300
X1.24200 Y0.97200
X1.23800 Y0.97200
X1.23800 Y0.97100
X1.23400 Y0.97100
X1.23400 Y0.97000
X1.23000 Y0.97000
X1.23000 Y0.96900
X1.22300 Y0.96900
X1.22300 Y0.96800
X1.21300 Y0.96800
X1.21300 Y0.96700
X1.20400 Y0.96700
X1.20400 Y0.96800
X1.19400 Y0.96800
X1.19400 Y0.96900
X1.18700 Y0.96900
X1.18700 Y0.97000
X1.18300 Y0.97000
X1.18300 Y0.97100
X1.17900 Y0.97100
X1.17900 Y0.97200
X1.17500 Y0.97200
X1.17500 Y0.97300
X1.17100 Y0.97300
X1.17100 Y0.97400
X1.16800 Y0.97400
X1.16800 Y0.97500
X1.16500 Y0.97500
X1.16500 Y0.97600
X1.16300 Y0.97600
X1.16300 Y0.97700
X1.16000 Y0.97700
X1.16000 Y0.97800
X1.15700 Y0.97800
X1.15700 Y0.97900
X1.15500 Y0.97900
X1.15500 Y0.98000
X1.15200 Y0.98000
X1.15200 Y0.98100
X1.15000 Y0.98100
X1.15000 Y0.98200
X1.14900 Y0.98200
X1.14900 Y0.98300
X1.14700 Y0.98300
X1.14700 Y0.98400
X1.14600 Y0.98400
X1.14600 Y0.98500
X1.14400 Y0.98500
X1.14400 Y0.98600
X1.14200 Y0.98600
X1.14200 Y0.98700
X1.14100 Y0.98700
X1.14100 Y0.98800
X1.13900 Y0.98800
X1.13900 Y0.98900
X1.13800 Y0.98900
X1.13800 Y0.99000
X1.13600 Y0.99000
X1.13600 Y0.99100
X1.13500 Y0.99100
X1.13500 Y0.99200
X1.13300 Y0.99200
X1.13300 Y0.99300
X1.13200 Y0.99300
X1.13200 Y0.99400
X1.13100 Y0.99400
X1.13100 Y0.99500
X1.13000 Y0.99500
X1.13000 Y0.99600
X1.12800 Y0.99600
X1.12800 Y0.99700
X1.12700 Y0.99700
X1.12700 Y0.99800
X1.12600 Y0.99800
X1.12600 Y0.99900
X1.12500 Y0.99900
X1.12500 Y1.00000
X1.12400 Y1.00000
X1.12400 Y1.00100
X1.12200 Y1.00100
X1.12200 Y1.00200
X1.12100 Y1.00200
X1.12100 Y1.00300
X1.12000 Y1.00300
X1.12000 Y1.00400
X1.11900 Y1.00400
X1.11900 Y1.00500
X1.11800 Y1.00500
X1.11800 Y1.00600
X1.11700 Y1.00600
X1.11700 Y1.00700
X1.11600 Y1.00700
X1.11600 Y1.00800
X1.11500 Y1.00800
X1.11500 Y1.00900
X1.11400 Y1.00900
X1.11400 Y1.01000
X1.11300 Y1.01000
X1.11300 Y1.01100
X1.11200 Y1.01100
X1.11200 Y1.01200
X1.11100 Y1.01200
X1.11100 Y1.01400
X1.11000 Y1.01400
X1.11000 Y1.01500
X1.10900 Y1.01500
X1.10900 Y1.01600
X1.10800 Y1.01600
X1.10800 Y1.01700
X1.10700 Y1.01700
X1.10700 Y1.01800
X1.10600 Y1.01800
X1.10600 Y1.01900
X1.10500 Y1.01900
X1.10500 Y1.02100
X1.10400 Y1.02100
X1.10400 Y1.02300
X1.10300 Y1.02300
X1.10300 Y1.02400
X1.10200 Y1.02400
X1.10200 Y1.02600
X1.10100 Y1.02600
X1.10100 Y1.02800
X1.10000 Y1.02800
X1.10000 Y1.02900
X1.09900 Y1.02900
X1.09900 Y1.03100
X1.09800 Y1.03100
X1.09800 Y1.03300
X1.09700 Y1.03300
X1.09700 Y1.03400
X1.09600 Y1.03400
X1.09600 Y1.03600
X1.09500 Y1.03600
X1.09500 Y1.03800
X1.09400 Y1.03800
X1.09400 Y1.04000
X1.09300 Y1.04000
X1.09300 Y1.04200
X1.09200 Y1.04200
X1.09200 Y1.04500
X1.09100 Y1.04500
X1.09100 Y1.04700
X1.09000 Y1.04700
X1.09000 Y1.05000
X1.08900 Y1.05000
X1.08900 Y1.05200
X1.08800 Y1.05200
X1.08800 Y1.05500
X1.08700 Y1.05500
X1.08700 Y1.05800
X1.08600 Y1.05800
X1.08600 Y1.06200
X1.08500 Y1.06200
X1.08500 Y1.06600
X1.08400 Y1.06600
X1.08400 Y1.07000
X1.08300 Y1.07000
X1.08300 Y1.07400
X1.08200 Y1.07400
X1.08200 Y1.08600
X1.08100 Y1.08600
X1.08100 Y1.10500
X1.08200 Y1.10500
X1.08200 Y1.11700
X1.08300 Y1.11700
X1.08300 Y1.12100
X1.08400 Y1.12100
X1.08400 Y1.12600
X1.08500 Y1.12600
X1.08500 Y1.13000
X1.08600 Y1.13000
X1.08600 Y1.13400
X1.08500 Y1.13400
X1.08500 Y1.13500
X1.08400 Y1.13500
X1.08400 Y1.13600
X1.08300 Y1.13600
X1.08300 Y1.13700
X1.08200 Y1.13700
X1.08200 Y1.13800
X1.08100 Y1.13800
X1.08100 Y1.13900
X1.08000 Y1.13900
X1.08000 Y1.14000
X1.07900 Y1.14000
X1.07900 Y1.14100
X1.07800 Y1.14100
X1.07800 Y1.14200
X1.07700 Y1.14200
X1.07700 Y1.14300
X1.07600 Y1.14300
X1.07600 Y1.14400
X1.07500 Y1.14400
X1.07500 Y1.14500
X1.07400 Y1.14500
X1.07400 Y1.14600
X1.07300 Y1.14600
X1.07300 Y1.14700
X1.07200 Y1.14700
X1.07200 Y1.14800
X1.07100 Y1.14800
X1.07100 Y1.14900
X1.07000 Y1.14900
X1.07000 Y1.15000
X1.06900 Y1.15000
X1.06900 Y1.15100
X1.06800 Y1.15100
X1.06800 Y1.15200
X1.06700 Y1.15200
X1.06700 Y1.15300
X1.06600 Y1.15300
X1.06600 Y1.15400
X1.06500 Y1.15400
X1.06500 Y1.15500
X1.06400 Y1.15500
X1.06400 Y1.15600
X1.06300 Y1.15600
X1.06300 Y1.15700
X1.06200 Y1.15700
X1.06200 Y1.15800
X1.06100 Y1.15800
X1.06100 Y1.15900
X1.06000 Y1.15900
X1.06000 Y1.16000
X1.05900 Y1.16000
X1.05900 Y1.16100
X1.05800 Y1.16100
X1.05800 Y1.16200
X1.05700 Y1.16200
X1.05700 Y1.16300
X1.05600 Y1.16300
X1.05600 Y1.16400
X1.05500 Y1.16400
X1.05500 Y1.16500
X1.05400 Y1.16500
X1.05400 Y1.16600
X1.05300 Y1.16600
X1.05300 Y1.16700
X1.05200 Y1.16700
X1.05200 Y1.16800
X1.05100 Y1.16800
X1.05100 Y1.16900
X1.05000 Y1.16900
X1.05000 Y1.17000
X1.04900 Y1.17000
X1.04900 Y1.17100
X1.04700 Y1.17100
X1.04700 Y1.17200
X1.04600 Y1.17200
X1.04600 Y1.17300
X1.04500 Y1.17300
X1.04500 Y1.17400
X1.04400 Y1.17400
X1.04400 Y1.17500
X1.04300 Y1.17500
X1.04300 Y1.17600
X1.04200 Y1.17600
X1.04200 Y1.17700
X1.04100 Y1.17700
X1.04100 Y1.17800
X1.04000 Y1.17800
X1.04000 Y1.17900
X1.03900 Y1.17900
X1.03900 Y1.18000
X1.03800 Y1.18000
X1.03800 Y1.18100
X1.03700 Y1.18100
X1.03700 Y1.18200
X1.03600 Y1.18200
X1.03600 Y1.18300
X1.03500 Y1.18300
X1.03500 Y1.18400
X1.03400 Y1.18400
X1.03400 Y1.18500
X1.03300 Y1.18500
X1.03300 Y1.18600
X1.03200 Y1.18600
X1.03200 Y1.18700
X1.03100 Y1.18700
X1.03100 Y1.18800
X1.03000 Y1.18800
X1.03000 Y1.18900
X1.02900 Y1.18900
X1.02900 Y1.19000
X1.02800 Y1.19000
X1.02800 Y1.19100
X1.02700 Y1.19100
X1.02700 Y1.19200
X1.02600 Y1.19200
X1.02600 Y1.19300
X1.02500 Y1.19300
X1.02500 Y1.19400
X1.02400 Y1.19400
X1.02400 Y1.19500
X1.02300 Y1.19500
X1.02300 Y1.19600
X1.02200 Y1.19600
X1.02200 Y1.19700
X1.02100 Y1.19700
X1.02100 Y1.19800
X1.02000 Y1.19800
X1.02000 Y1.19900
X1.01900 Y1.19900
X1.01900 Y1.20000
X1.01800 Y1.20000
X1.01800 Y1.20100
X1.01700 Y1.20100
X1.01700 Y1.20200
X1.01600 Y1.20200
X1.01600 Y1.20300
X1.01500 Y1.20300
X1.01500 Y1.20400
X1.01400 Y1.20400
X1.01400 Y1.20500
X1.01300 Y1.20500
X1.01300 Y1.20600
X1.01200 Y1.20600
X1.01200 Y1.20700
X1.01100 Y1.20700
X1.01100 Y1.20800
X1.01000 Y1.20800
X1.01000 Y1.20900
X1.00900 Y1.20900
X1.00900 Y1.21000
X1.00800 Y1.21000
X1.00800 Y1.21100
X1.00700 Y1.21100
X1.00700 Y1.21200
X1.00600 Y1.21200
X1.00600 Y1.21300
X1.00500 Y1.21300
X1.00500 Y1.21400
X1.00400 Y1.21400
X1.00400 Y1.21500
X1.00300 Y1.21500
X1.00300 Y1.21600
X1.00200 Y1.21600
X1.00200 Y1.21700
X1.00100 Y1.21700
X1.00100 Y1.21800
X1.00000 Y1.21800
X1.00000 Y1.21900
X0.99900 Y1.21900
X0.99900 Y1.22000
X0.99800 Y1.22000
X0.99800 Y1.22100
X0.99700 Y1.22100
X0.99700 Y1.22200
X0.99600 Y1.22200
X0.99600 Y1.22300
X0.99500 Y1.22300
X0.99500 Y1.22400
X0.99400 Y1.22400
X0.99400 Y1.22500
X0.99300 Y1.22500
X0.99300 Y1.22600
X0.99200 Y1.22600
X0.99200 Y1.22700
X0.99100 Y1.22700
X0.99100 Y1.22800
X0.99000 Y1.22800
X0.99000 Y1.22900
X0.98900 Y1.22900
X0.98900 Y1.23000
X0.98800 Y1.23000
X0.98800 Y1.23100
X0.98700 Y1.23100
X0.98700 Y1.23200
X0.98600 Y1.23200
X0.98600 Y1.23300
X0.98500 Y1.23300
X0.98500 Y1.23400
X0.98400 Y1.23400
X0.98400 Y1.23500
X0.98300 Y1.23500
X0.98300 Y1.23600
X0.98200 Y1.23600
X0.98200 Y1.23700
X0.98100 Y1.23700
X0.98100 Y1.23800
X0.98000 Y1.23800
X0.98000 Y1.23900
X0.97900 Y1.23900
X0.97900 Y1.24000
X0.97800 Y1.24000
X0.97800 Y1.24100
X0.97700 Y1.24100
X0.97700 Y1.24200
X0.97600 Y1.24200
X0.97600 Y1.24300
X0.97500 Y1.24300
X0.97500 Y1.24400
X0.97400 Y1.24400
X0.97400 Y1.24500
X0.97300 Y1.24500
X0.97300 Y1.24600
X0.97200 Y1.24600
X0.97200 Y1.24700
X0.97100 Y1.24700
X0.97100 Y1.24800
X0.97000 Y1.24800
X0.97000 Y1.24900
X0.96900 Y1.24900
X0.96900 Y1.25000
X0.96800 Y1.25000
X0.96800 Y1.25100
X0.96700 Y1.25100
X0.96700 Y1.25200
X0.96600 Y1.25200
X0.96600 Y1.25300
X0.96500 Y1.25300
X0.96500 Y1.25400
X0.96400 Y1.25400
X0.96400 Y1.25500
X0.96300 Y1.25500
X0.96300 Y1.25600
X0.96200 Y1.25600
X0.96200 Y1.25700
X0.96100 Y1.25700
X0.96100 Y1.25800
X0.96000 Y1.25800
X0.96000 Y1.25900
X0.95900 Y1.25900
X0.95900 Y1.26000
X0.95800 Y1.26000
X0.95800 Y1.26100
X0.95700 Y1.26100
X0.95700 Y1.26200
X0.95600 Y1.26200
X0.95600 Y1.26300
X0.95500 Y1.26300
X0.95500 Y1.26400
X0.95400 Y1.26400
X0.95400 Y1.26500
X0.95300 Y1.26500
X0.95300 Y1.26600
X0.95200 Y1.26600
X0.95200 Y1.26700
X0.95100 Y1.26700
X0.95100 Y1.26800
X0.95000 Y1.26800
X0.95000 Y1.26900
X0.94900 Y1.26900
X0.94900 Y1.27000
X0.94800 Y1.27000
X0.94800 Y1.27100
X0.94700 Y1.27100
X0.94700 Y1.27200
X0.94600 Y1.27200
X0.94600 Y1.27300
X0.94500 Y1.27300
X0.94500 Y1.27400
X0.94400 Y1.27400
X0.94400 Y1.27500
X0.94300 Y1.27500
X0.94300 Y1.27600
X0.94200 Y1.27600
X0.94200 Y1.27700
X0.94100 Y1.27700
X0.94100 Y1.27800
X0.94000 Y1.27800
X0.94000 Y1.27900
X0.93900 Y1.27900
X0.93900 Y1.28000
X0.93800 Y1.28000
X0.93800 Y1.28100
X0.93700 Y1.28100
X0.93700 Y1.28200
X0.93600 Y1.28200
X0.93600 Y1.28300
X0.93500 Y1.28300
X0.93500 Y1.28400
X0.93400 Y1.28400
X0.93400 Y1.28500
X0.93300 Y1.28500
X0.93300 Y1.28600
X0.93200 Y1.28600
X0.93200 Y1.28700
X0.93100 Y1.28700
X0.93100 Y1.28800
X0.93000 Y1.28800
X0.93000 Y1.28900
X0.92900 Y1.28900
X0.92900 Y1.29000
X0.92800 Y1.29000
X0.92800 Y1.29100
X0.92700 Y1.29100
X0.92700 Y1.29200
X0.92600 Y1.29200
X0.92600 Y1.29300
X0.92500 Y1.29300
X0.92500 Y1.29400
X0.92400 Y1.29400
X0.92400 Y1.29500
X0.92300 Y1.29500
X0.92300 Y1.29600
X0.92200 Y1.29600
X0.92200 Y1.29700
X0.92100 Y1.29700
X0.92100 Y1.29800
X0.92000 Y1.29800
X0.92000 Y1.29900
X0.91900 Y1.29900
X0.91900 Y1.30000
X0.91800 Y1.30000
X0.91800 Y1.30100
X0.91700 Y1.30100
X0.91700 Y1.30200
X0.91600 Y1.30200
X0.91600 Y1.30300
X0.91500 Y1.30300
X0.91500 Y1.30400
X0.91400 Y1.30400
X0.91400 Y1.30500
X0.91300 Y1.30500
X0.91300 Y1.30600
X0.91200 Y1.30600
X0.91200 Y1.30700
X0.91100 Y1.30700
X0.91100 Y1.30800
X0.91000 Y1.30800
X0.91000 Y1.30900
X0.90900 Y1.30900
X0.90900 Y1.31000
X0.90800 Y1.31000
X0.90800 Y1.31100
X0.90700 Y1.31100
X0.90700 Y1.31200
X0.90600 Y1.31200
X0.90600 Y1.31300
X0.90500 Y1.31300
X0.90500 Y1.31400
X0.90400 Y1.31400
X0.90400 Y1.31500
X0.90300 Y1.31500
X0.90300 Y1.31600
X0.90200 Y1.31600
X0.90200 Y1.31700
X0.90100 Y1.31700
X0.90100 Y1.31800
X0.90000 Y1.31800
X0.90000 Y1.31900
X0.89900 Y1.31900
X0.89900 Y1.32000
X0.89800 Y1.32000
X0.89800 Y1.32100
X0.89700 Y1.32100
X0.89700 Y1.32200
X0.89600 Y1.32200
X0.89600 Y1.32300
X0.89500 Y1.32300
X0.89500 Y1.32400
X0.89400 Y1.32400
X0.89400 Y1.32500
X0.89300 Y1.32500
X0.89300 Y1.32600
X0.89200 Y1.32600
X0.89200 Y1.32700
X0.89100 Y1.32700
X0.89100 Y1.32800
X0.89000 Y1.32800
X0.89000 Y1.32900
X0.88900 Y1.32900
X0.88900 Y1.33000
X0.88800 Y1.33000
X0.88800 Y1.33100
X0.88700 Y1.33100
X0.88700 Y1.33200
X0.88600 Y1.33200
X0.88600 Y1.33300
X0.88500 Y1.33300
X0.88500 Y1.33400
X0.88400 Y1.33400
X0.88400 Y1.33500
X0.88300 Y1.33500
X0.88300 Y1.33600
X0.88200 Y1.33600
X0.88200 Y1.33700
X0.88100 Y1.33700
X0.88100 Y1.33800
X0.88000 Y1.33800
X0.88000 Y1.33900
X0.87900 Y1.33900
X0.87900 Y1.34000
X0.87800 Y1.34000
X0.87800 Y1.34100
X0.87700 Y1.34100
X0.87700 Y1.34200
X0.87600 Y1.34200
X0.87600 Y1.34300
X0.87500 Y1.34300
X0.87500 Y1.34400
X0.87400 Y1.34400
X0.87400 Y1.34500
X0.87300 Y1.34500
X0.87300 Y1.34600
X0.87200 Y1.34600
X0.87200 Y1.34700
X0.87100 Y1.34700
X0.87100 Y1.34800
X0.87000 Y1.34800
X0.87000 Y1.34900
X0.86900 Y1.34900
X0.86900 Y1.35000
X0.86800 Y1.35000
X0.86800 Y1.35100
X0.86700 Y1.35100
X0.86700 Y1.35200
X0.86600 Y1.35200
X0.86600 Y1.35300
X0.86500 Y1.35300
X0.86500 Y1.35400
X0.86400 Y1.35400
X0.86400 Y1.35500
X0.86300 Y1.35500
X0.86300 Y1.35600
X0.86200 Y1.35600
X0.86200 Y1.35700
X0.86100 Y1.35700
X0.86100 Y1.35800
X0.86000 Y1.35800
X0.86000 Y1.35900
X0.85900 Y1.35900
X0.85900 Y1.36000
X0.85800 Y1.36000
X0.85800 Y1.36100
X0.85700 Y1.36100
X0.85700 Y1.36200
X0.85600 Y1.36200
X0.85600 Y1.36300
X0.85500 Y1.36300
X0.85500 Y1.36400
X0.85400 Y1.36400
X0.85400 Y1.36500
X0.85300 Y1.36500
X0.85300 Y1.36600
X0.85200 Y1.36600
X0.85200 Y1.36700
X0.85100 Y1.36700
X0.85100 Y1.36800
X0.85000 Y1.36800
X0.85000 Y1.36900
X0.84900 Y1.36900
X0.84900 Y1.37000
X0.84800 Y1.37000
X0.84800 Y1.37100
X0.84700 Y1.37100
X0.84700 Y1.37200
X0.84600 Y1.37200
X0.84600 Y1.37300
X0.84500 Y1.37300
X0.84500 Y1.37400
X0.84400 Y1.37400
X0.84400 Y1.37500
X0.84300 Y1.37500
X0.84300 Y1.37600
X0.84200 Y1.37600
X0.84200 Y1.37700
X0.84100 Y1.37700
X0.84100 Y1.37800
X0.84000 Y1.37800
X0.84000 Y1.37900
X0.83900 Y1.37900
X0.83900 Y1.38000
X0.83800 Y1.38000
X0.83800 Y1.38100
X0.83700 Y1.38100
X0.83700 Y1.38200
X0.83600 Y1.38200
X0.83600 Y1.38300
X0.83500 Y1.38300
X0.83500 Y1.38400
X0.83400 Y1.38400
X0.83400 Y1.38500
X0.83300 Y1.38500
X0.83300 Y1.38600
X0.83200 Y1.38600
X0.83200 Y1.38700
X0.83100 Y1.38700
X0.83100 Y1.38800
X0.83000 Y1.38800
X0.83000 Y1.38900
X0.82900 Y1.38900
X0.82900 Y1.39000
X0.82800 Y1.39000
X0.82800 Y1.39100
X0.82700 Y1.39100
X0.82700 Y1.39200
X0.82600 Y1.39200
X0.82600 Y1.39300
X0.82500 Y1.39300
X0.82500 Y1.39400
X0.82400 Y1.39400
X0.82400 Y1.39500
X0.82300 Y1.39500
X0.82300 Y1.39600
X0.82200 Y1.39600
X0.82200 Y1.39700
X0.82100 Y1.39700
X0.82100 Y1.39800
X0.82000 Y1.39800
X0.82000 Y1.39900
X0.81900 Y1.39900
X0.81900 Y1.40000
X0.81800 Y1.40000
X0.81800 Y1.40100
X0.81700 Y1.40100
X0.81700 Y1.40200
X0.81600 Y1.40200
X0.81600 Y1.40300
X0.81500 Y1.40300
X0.81500 Y1.40400
X0.81400 Y1.40400
X0.81400 Y1.40500
X0.81300 Y1.40500
X0.81300 Y1.40600
X0.81200 Y1.40600
X0.81200 Y1.40700
X0.81100 Y1.40700
X0.81100 Y1.40800
X0.81000 Y1.40800
X0.81000 Y1.40900
X0.80900 Y1.40900
X0.80900 Y1.41000
X0.80800 Y1.41000
X0.80800 Y1.41100
X0.80700 Y1.41100
X0.80700 Y1.41200
X0.80600 Y1.41200
X0.80600 Y1.41300
X0.80500 Y1.41300
X0.80500 Y1.41400
X0.80400 Y1.41400
X0.80400 Y1.41500
X0.80300 Y1.41500
X0.80300 Y1.41600
X0.80200 Y1.41600
X0.80200 Y1.41700
X0.80100 Y1.41700
X0.80100 Y1.41800
X0.80000 Y1.41800
X0.80000 Y1.41900
X0.79900 Y1.41900
X0.79900 Y1.42000
X0.79800 Y1.42000
X0.79800 Y1.42100
X0.79700 Y1.42100
X0.79700 Y1.42200
X0.79600 Y1.42200
X0.79600 Y1.42300
X0.79500 Y1.42300
X0.79500 Y1.42400
X0.79400 Y1.42400
X0.79400 Y1.42500
X0.79300 Y1.42500
X0.79300 Y1.42600
X0.79200 Y1.42600
X0.79200 Y1.42700
X0.79100 Y1.42700
X0.79100 Y1.42800
X0.79000 Y1.42800
X0.79000 Y1.42900
X0.78900 Y1.42900
X0.78900 Y1.43000
X0.78800 Y1.43000
X0.78800 Y1.43100
X0.78700 Y1.43100
X0.78700 Y1.43200
X0.78600 Y1.43200
X0.78600 Y1.43300
X0.78500 Y1.43300
X0.78500 Y1.43400
X0.78400 Y1.43400
X0.78400 Y1.43500
X0.78300 Y1.43500
X0.78300 Y1.43600
X0.78200 Y1.43600
X0.78200 Y1.43700
X0.78100 Y1.43700
X0.78100 Y1.43800
X0.78000 Y1.43800
X0.78000 Y1.43900
X0.77900 Y1.43900
X0.77900 Y1.44000
X0.77800 Y1.44000
X0.77800 Y1.44100
X0.77700 Y1.44100
X0.77700 Y1.44200
X0.77600 Y1.44200
X0.77600 Y1.44300
X0.77500 Y1.44300
X0.77500 Y1.44400
X0.77400 Y1.44400
X0.77400 Y1.44500
X0.77300 Y1.44500
X0.77300 Y1.44600
X0.77200 Y1.44600
X0.77200 Y1.44700
X0.77100 Y1.44700
X0.77100 Y1.44800
X0.77000 Y1.44800
X0.77000 Y1.44900
X0.76900 Y1.44900
X0.76900 Y1.45000
X0.76800 Y1.45000
X0.76800 Y1.45100
X0.76700 Y1.45100
X0.76700 Y1.45200
X0.76600 Y1.45200
X0.76600 Y1.45300
X0.76500 Y1.45300
X0.76500 Y1.45400
X0.76400 Y1.45400
X0.76400 Y1.45500
X0.76300 Y1.45500
X0.76300 Y1.45600
X0.76200 Y1.45600
X0.76200 Y1.45700
X0.76100 Y1.45700
X0.76100 Y1.45800
X0.76000 Y1.45800
X0.76000 Y1.45900
X0.75900 Y1.45900
X0.75900 Y1.46000
X0.75800 Y1.46000
X0.75800 Y1.46100
X0.75700 Y1.46100
X0.75700 Y1.46200
X0.75600 Y1.46200
X0.75600 Y1.46300
X0.72900 Y1.46300
X0.72900 Y1.46200
X0.72800 Y1.46200
X0.72800 Y1.46100
X0.72700 Y1.46100
X0.72700 Y1.46000
X0.72600 Y1.46000
X0.72600 Y1.45800
X0.72500 Y1.45800
X0.72500 Y1.45700
X0.72400 Y1.45700
X0.72400 Y1.45600
X0.72300 Y1.45600
X0.72300 Y1.45500
X0.72200 Y1.45500
X0.72200 Y1.45400
X0.72100 Y1.45400
X0.72100 Y1.45300
X0.72000 Y1.45300
X0.72000 Y1.45200
X0.71900 Y1.45200
X0.71900 Y1.45100
X0.71800 Y1.45100
X0.71800 Y1.45000
X0.71700 Y1.45000
X0.71700 Y1.44900
X0.71500 Y1.44900
X0.71500 Y1.44800
X0.71300 Y1.44800
X0.71300 Y1.44700
X0.71000 Y1.44700
X0.71000 Y1.44600
X0.70400 Y1.44600
X0.70400 Y1.44500
X0.68900 Y1.44500
X0.68900 Y1.44400
X0.68800 Y1.44400
X0.68800 Y1.44300
X0.68700 Y1.44300
X0.68700 Y1.44200
X0.68600 Y1.44200
X0.68600 Y1.44100
X0.68100 Y1.44100
X0.68100 Y1.44200
X0.67700 Y1.44200
X0.67700 Y1.44100
X0.67600 Y1.44100
X0.67600 Y1.44000
X0.67500 Y1.44000
X0.67500 Y1.43900
X0.67400 Y1.43900
X0.67400 Y1.43800
X0.67300 Y1.43800
X0.67300 Y1.43700
X0.67200 Y1.43700
X0.67200 Y1.43600
X0.67100 Y1.43600
X0.67100 Y1.43500
X0.67000 Y1.43500
X0.67000 Y1.43400
X0.66900 Y1.43400
X0.66900 Y1.43300
X0.66800 Y1.43300
X0.66800 Y1.43200
X0.66700 Y1.43200
X0.66700 Y1.43100
X0.66600 Y1.43100
X0.66600 Y1.43000
X0.66500 Y1.43000
X0.66500 Y1.42900
X0.66400 Y1.42900
X0.66400 Y1.42800
X0.66300 Y1.42800
X0.66300 Y1.42700
X0.66200 Y1.42700
X0.66200 Y1.42600
X0.66100 Y1.42600
X0.66100 Y1.42500
X0.66000 Y1.42500
X0.66000 Y1.42400
X0.65900 Y1.42400
X0.65900 Y1.42300
X0.65800 Y1.42300
X0.65800 Y1.42200
X0.65700 Y1.42200
X0.65700 Y1.42100
X0.65600 Y1.42100
X0.65600 Y1.42000
X0.65500 Y1.42000
X0.65500 Y1.41900
X0.65400 Y1.41900
X0.65400 Y1.41800
X0.65300 Y1.41800
X0.65300 Y1.41700
X0.65200 Y1.41700
X0.65200 Y1.41600
X0.65100 Y1.41600
X0.65100 Y1.41500
X0.65000 Y1.41500
X0.65000 Y1.41400
X0.64900 Y1.41400
X0.64900 Y1.41300
X0.64800 Y1.41300
X0.64800 Y1.41200
X0.64700 Y1.41200
X0.64700 Y1.41100
X0.64600 Y1.41100
X0.64600 Y1.41000
X0.64500 Y1.41000
X0.64500 Y1.40800
X0.64400 Y1.40800
X0.64400 Y1.40700
X0.64300 Y1.40700
X0.64300 Y1.40600
X0.64200 Y1.40600
X0.64200 Y1.40500
X0.64100 Y1.40500
X0.64100 Y1.40400
X0.64000 Y1.40400
X0.64000 Y1.40300
X0.63900 Y1.40300
X0.63900 Y1.40200
X0.63800 Y1.40200
X0.63800 Y1.40100
X0.63700 Y1.40100
X0.63700 Y1.40000
X0.63600 Y1.40000
X0.63600 Y1.39900
X0.63500 Y1.39900
X0.63500 Y1.39800
X0.63400 Y1.39800
X0.63400 Y1.39700
X0.63300 Y1.39700
X0.63300 Y1.39600
X0.63200 Y1.39600
X0.63200 Y1.39500
X0.63100 Y1.39500
X0.63100 Y1.39400
X0.63000 Y1.39400
X0.63000 Y1.39300
X0.62900 Y1.39300
X0.62900 Y1.39200
X0.62800 Y1.39200
X0.62800 Y1.39100
X0.62700 Y1.39100
X0.62700 Y1.39000
X0.62600 Y1.39000
X0.62600 Y1.38900
X0.62500 Y1.38900
X0.62500 Y1.38800
X0.62400 Y1.38800
X0.62400 Y1.38700
X0.62300 Y1.38700
X0.62300 Y1.38600
X0.62200 Y1.38600
X0.62200 Y1.38500
X0.62100 Y1.38500
X0.62100 Y1.38400
X0.62000 Y1.38400
X0.62000 Y1.38300
X0.61900 Y1.38300
X0.61900 Y1.38200
X0.61800 Y1.38200
X0.61800 Y1.38100
X0.61700 Y1.38100
X0.61700 Y1.38000
X0.61600 Y1.38000
X0.61600 Y1.37900
X0.61500 Y1.37900
X0.61500 Y1.37800
X0.61400 Y1.37800
X0.61400 Y1.37700
X0.61300 Y1.37700
X0.61300 Y1.37600
X0.61200 Y1.37600
X0.61200 Y1.37500
X0.61100 Y1.37500
X0.61100 Y1.37400
X0.61000 Y1.37400
X0.61000 Y1.37300
X0.60900 Y1.37300
X0.60900 Y1.37200
X0.60800 Y1.37200
X0.60800 Y1.37100
X0.60700 Y1.37100
X0.60700 Y1.37000
X0.60600 Y1.37000
X0.60600 Y1.36900
X0.60500 Y1.36900
X0.60500 Y1.36800
X0.60400 Y1.36800
X0.60400 Y1.36700
X0.60300 Y1.36700
X0.60300 Y1.36600
X0.60200 Y1.36600
X0.60200 Y1.36500
X0.60100 Y1.36500
X0.60100 Y1.36400
X0.60000 Y1.36400
X0.60000 Y1.36300
X0.59900 Y1.36300
X0.59900 Y1.36200
X0.59800 Y1.36200
X0.59800 Y1.36100
X0.59600 Y1.36100
X0.59600 Y1.36000
X0.59500 Y1.36000
X0.59500 Y1.35900
X0.59300 Y1.35900
X0.59300 Y1.35800
X0.58900 Y1.35800
X0.58900 Y1.35700
X0.40500 Y1.35700
X0.40500 Y1.35600
X0.40400 Y1.35600
X0.40400 Y1.35500
X0.35700 Y1.35500
X0.35700 Y1.35600
X0.35600 Y1.35600
X0.35600 Y1.35700
X0.35400 Y1.35700
X0.35400 Y1.35800
X0.35300 Y1.35800
X0.35300 Y1.35900
X0.35200 Y1.35900
X0.35200 Y1.36200
X0.35100 Y1.36200
X0.35100 Y1.39500
X0.35200 Y1.39500
X0.35200 Y1.39800
X0.35300 Y1.39800
X0.35300 Y1.39900
X0.35400 Y1.39900
X0.35400 Y1.40000
X0.35500 Y1.40000
X0.35500 Y1.40100
X0.35600 Y1.40100
X0.35600 Y1.40200
X0.35800 Y1.40200
X0.35800 Y1.40300
X0.40300 Y1.40300
X0.40300 Y1.40200
X0.40400 Y1.40200
X0.40400 Y1.40100
X0.57600 Y1.40100
X0.57600 Y1.40200
X0.57700 Y1.40200
X0.57700 Y1.40300
X0.57800 Y1.40300
X0.57800 Y1.40400
X0.57900 Y1.40400
X0.57900 Y1.40500
X0.58000 Y1.40500
X0.58000 Y1.40600
X0.58100 Y1.40600
X0.58100 Y1.40700
X0.58200 Y1.40700
X0.58200 Y1.40800
X0.58300 Y1.40800
X0.58300 Y1.40900
X0.58400 Y1.40900
X0.58400 Y1.41000
X0.58500 Y1.41000
X0.58500 Y1.41100
X0.58600 Y1.41100
X0.58600 Y1.41200
X0.58700 Y1.41200
X0.58700 Y1.41300
X0.58800 Y1.41300
X0.58800 Y1.41400
X0.58900 Y1.41400
X0.58900 Y1.41500
X0.59000 Y1.41500
X0.59000 Y1.41600
X0.59100 Y1.41600
X0.59100 Y1.41700
X0.59200 Y1.41700
X0.59200 Y1.41800
X0.59300 Y1.41800
X0.59300 Y1.41900
X0.59400 Y1.41900
X0.59400 Y1.42000
X0.59500 Y1.42000
X0.59500 Y1.42100
X0.59600 Y1.42100
X0.59600 Y1.42200
X0.59700 Y1.42200
X0.59700 Y1.42300
X0.59800 Y1.42300
X0.59800 Y1.42400
X0.59900 Y1.42400
X0.59900 Y1.42500
X0.60000 Y1.42500
X0.60000 Y1.42600
X0.60100 Y1.42600
X0.60100 Y1.42700
X0.60200 Y1.42700
X0.60200 Y1.42800
X0.60300 Y1.42800
X0.60300 Y1.42900
X0.60400 Y1.42900
X0.60400 Y1.43000
X0.60500 Y1.43000
X0.60500 Y1.43100
X0.60600 Y1.43100
X0.60600 Y1.43200
X0.60700 Y1.43200
X0.60700 Y1.43300
X0.60800 Y1.43300
X0.60800 Y1.43400
X0.60900 Y1.43400
X0.60900 Y1.43500
X0.61000 Y1.43500
X0.61000 Y1.43600
X0.61100 Y1.43600
X0.61100 Y1.43700
X0.61200 Y1.43700
X0.61200 Y1.43800
X0.61300 Y1.43800
X0.61300 Y1.43900
X0.61400 Y1.43900
X0.61400 Y1.44000
X0.61500 Y1.44000
X0.61500 Y1.44100
X0.61600 Y1.44100
X0.61600 Y1.44200
X0.61700 Y1.44200
X0.61700 Y1.44300
X0.61800 Y1.44300
X0.61800 Y1.44400
X0.61900 Y1.44400
X0.61900 Y1.44500
X0.62000 Y1.44500
X0.62000 Y1.44600
X0.62100 Y1.44600
X0.62100 Y1.44700
X0.62200 Y1.44700
X0.62200 Y1.44800
X0.62300 Y1.44800
X0.62300 Y1.44900
X0.62400 Y1.44900
X0.62400 Y1.45000
X0.62500 Y1.45000
X0.62500 Y1.45100
X0.62600 Y1.45100
X0.62600 Y1.45200
X0.62700 Y1.45200
X0.62700 Y1.45300
X0.62800 Y1.45300
X0.62800 Y1.45400
X0.62900 Y1.45400
X0.62900 Y1.45500
X0.63000 Y1.45500
X0.63000 Y1.45600
X0.63100 Y1.45600
X0.63100 Y1.45700
X0.63200 Y1.45700
X0.63200 Y1.45800
X0.63300 Y1.45800
X0.63300 Y1.45900
X0.63400 Y1.45900
X0.63400 Y1.46000
X0.63500 Y1.46000
X0.63500 Y1.46100
X0.63600 Y1.46100
X0.63600 Y1.46200
X0.63700 Y1.46200
X0.63700 Y1.46300
X0.63800 Y1.46300
X0.63800 Y1.46400
X0.63900 Y1.46400
X0.63900 Y1.46500
X0.64000 Y1.46500
X0.64000 Y1.46600
X0.64100 Y1.46600
X0.64100 Y1.46700
X0.64200 Y1.46700
X0.64200 Y1.46800
X0.64300 Y1.46800
X0.64300 Y1.46900
X0.64400 Y1.46900
X0.64400 Y1.47000
X0.64500 Y1.47000
X0.64500 Y1.47100
X0.64600 Y1.47100
X0.64600 Y1.47200
X0.64700 Y1.47200
X0.64700 Y1.47600
X0.64600 Y1.47600
X0.64600 Y1.47900
X0.64700 Y1.47900
X0.64700 Y1.48000
X0.64800 Y1.48000
X0.64800 Y1.48100
X0.64900 Y1.48100
X0.64900 Y1.48200
X0.65000 Y1.48200
X0.65000 Y1.49900
X0.65100 Y1.49900
X0.65100 Y1.50400
X0.65200 Y1.50400
X0.65200 Y1.50800
X0.65300 Y1.50800
X0.65300 Y1.51000
X0.65400 Y1.51000
X0.65400 Y1.51200
X0.65500 Y1.51200
X0.65500 Y1.51300
X0.65600 Y1.51300
X0.65600 Y1.51400
X0.65700 Y1.51400
X0.65700 Y1.51500
X0.65800 Y1.51500
X0.65800 Y1.51600
X0.65900 Y1.51600
X0.65900 Y1.51700
X0.66000 Y1.51700
X0.66000 Y1.51800
X0.66100 Y1.51800
X0.66100 Y1.51900
X0.66200 Y1.51900
X0.66200 Y1.52000
X0.66300 Y1.52000
X0.66300 Y1.52100
X0.66500 Y1.52100
X0.66500 Y1.52200
X0.66600 Y1.52200
X0.66600 Y1.52300
X0.66800 Y1.52300
X0.66800 Y1.52400
X0.67100 Y1.52400
X0.67100 Y1.52500
X0.67700 Y1.52500
X0.67700 Y1.52600
X0.70400 Y1.52600
X0.70400 Y1.52500
X0.71000 Y1.52500
X0.71000 Y1.52400
X0.71300 Y1.52400
X0.71300 Y1.52300
X0.71400 Y1.52300
X0.71400 Y1.52200
X0.71500 Y1.52200
X0.71500 Y1.52100
X0.71700 Y1.52100
X0.71700 Y1.52000
X0.71800 Y1.52000
X0.71800 Y1.51900
X0.72000 Y1.51900
X0.72000 Y1.51800
X0.72100 Y1.51800
X0.72100 Y1.51700
X0.72200 Y1.51700
X0.72200 Y1.51600
X0.72300 Y1.51600
X0.72300 Y1.51500
G04 P0 ( dwell for no time -- G64 should not smooth over this point )
G00 Z0.19685 ( retract )

G00 X0.50900 Y1.31200 ( rapid move to begin. )
F0.98425
G01 Z-0.01969
G04 P0 ( dwell for no time -- G64 should not smooth over this point )
F1.96850
X0.50900 Y1.31200
X0.50900 Y1.12400
X0.50800 Y1.12400
X0.50800 Y1.12300
X0.50700 Y1.12300
X0.50700 Y1.12100
X0.50600 Y1.12100
X0.50600 Y1.12000
X0.50500 Y1.12000
X0.50500 Y1.11900
X0.50200 Y1.11900
X0.50200 Y1.11800
X0.35300 Y1.11800
X0.35300 Y1.11900
X0.35000 Y1.11900
X0.35000 Y1.12000
X0.34800 Y1.12000
X0.34800 Y1.12100
X0.34700 Y1.12100
X0.34700 Y1.12300
X0.34600 Y1.12300
X0.34600 Y1.12600
X0.34500 Y1.12600
X0.34500 Y1.31400
X0.34600 Y1.31400
X0.34600 Y1.31700
X0.34700 Y1.31700
X0.34700 Y1.31800
X0.34800 Y1.31800
X0.34800 Y1.31900
X0.34900 Y1.31900
X0.34900 Y1.32000
X0.35000 Y1.32000
X0.35000 Y1.32100
X0.35200 Y1.32100
X0.35200 Y1.32200
X0.50300 Y1.32200
X0.50300 Y1.32100
X0.50400 Y1.32100
X0.50400 Y1.32000
X0.50500 Y1.32000
X0.50500 Y1.31900
X0.50600 Y1.31900
X0.50600 Y1.31800
X0.50700 Y1.31800
X0.50700 Y1.31700
X0.50800 Y1.31700
X0.50800 Y1.31600
X0.50900 Y1.31600
X0.50900 Y1.31200
G04 P0 ( dwell for no time -- G64 should not smooth over this point )
G00 Z0.19685 ( retract )

G00 X0.48000 Y1.04800 ( rapid move to begin. )
F0.98425
G01 Z-0.01969
G04 P0 ( dwell for no time -- G64 should not smooth over this point )
F1.96850
X0.48000 Y1.04800
X0.48100 Y1.04800
X0.48100 Y1.04700
X0.48200 Y1.04700
X0.48200 Y1.04600
X0.48300 Y1.04600
X0.48300 Y1.04500
X0.48400 Y1.04500
X0.48400 Y1.04300
X0.48700 Y1.04300
X0.48700 Y1.04200
X0.56700 Y1.04200
X0.56700 Y1.04100
X0.57100 Y1.04100
X0.57100 Y1.04000
X0.57300 Y1.04000
X0.57300 Y1.03900
X0.57400 Y1.03900
X0.57400 Y1.03700
X0.57500 Y1.03700
X0.57500 Y1.03600
X0.57600 Y1.03600
X0.57600 Y1.03500
X0.57700 Y1.03500
X0.57700 Y1.03400
X0.57800 Y1.03400
X0.57800 Y1.03300
X0.57900 Y1.03300
X0.57900 Y1.03200
X0.58000 Y1.03200
X0.58000 Y1.03100
X0.58100 Y1.03100
X0.58100 Y1.03000
X0.58200 Y1.03000
X0.58200 Y1.02900
X0.58300 Y1.02900
X0.58300 Y1.02800
X0.58400 Y1.02800
X0.58400 Y1.02700
X0.58500 Y1.02700
X0.58500 Y1.02600
X0.58600 Y1.02600
X0.58600 Y1.02500
X0.58700 Y1.02500
X0.58700 Y1.02400
X0.58800 Y1.02400
X0.58800 Y1.02300
X0.58900 Y1.02300
X0.58900 Y1.02200
X0.59000 Y1.02200
X0.59000 Y1.02100
X0.59100 Y1.02100
X0.59100 Y1.02000
X0.59200 Y1.02000
X0.59200 Y1.01900
X0.59300 Y1.01900
X0.59300 Y1.01800
X0.59400 Y1.01800
X0.59400 Y1.01700
X0.59500 Y1.01700
X0.59500 Y1.01600
X0.59600 Y1.01600
X0.59600 Y1.01500
X0.59700 Y1.01500
X0.59700 Y1.01400
X0.59800 Y1.01400
X0.59800 Y1.01300
X0.59900 Y1.01300
X0.59900 Y1.01200
X0.60000 Y1.01200
X0.60000 Y1.01100
X0.60100 Y1.01100
X0.60100 Y1.01000
X0.60200 Y1.01000
X0.60200 Y1.00900
X0.60300 Y1.00900
X0.60300 Y1.00800
X0.60400 Y1.00800
X0.60400 Y1.00700
X0.60500 Y1.00700
X0.60500 Y1.00600
X0.60600 Y1.00600
X0.60600 Y1.00500
X0.60700 Y1.00500
X0.60700 Y1.00400
X0.60800 Y1.00400
X0.60800 Y1.00300
X0.60900 Y1.00300
X0.60900 Y1.00200
X0.61000 Y1.00200
X0.61000 Y1.00100
X0.61100 Y1.00100
X0.61100 Y1.00000
X0.61200 Y1.00000
X0.61200 Y0.99900
X0.61300 Y0.99900
X0.61300 Y0.99800
X0.61400 Y0.99800
X0.61400 Y0.99700
X0.61500 Y0.99700
X0.61500 Y0.99600
X0.61600 Y0.99600
X0.61600 Y0.99500
X0.61700 Y0.99500
X0.61700 Y0.99400
X0.61800 Y0.99400
X0.61800 Y0.99300
X0.61900 Y0.99300
X0.61900 Y0.99200
X0.62000 Y0.99200
X0.62000 Y0.99100
X0.62100 Y0.99100
X0.62100 Y0.99000
X0.62200 Y0.99000
X0.62200 Y0.98900
X0.62300 Y0.98900
X0.62300 Y0.98800
X0.62400 Y0.98800
X0.62400 Y0.98700
X0.62500 Y0.98700
X0.62500 Y0.98600
X0.62600 Y0.98600
X0.62600 Y0.98500
X0.62700 Y0.98500
X0.62700 Y0.98400
X0.62800 Y0.98400
X0.62800 Y0.98300
X0.62900 Y0.98300
X0.62900 Y0.98200
X0.63000 Y0.98200
X0.63000 Y0.98100
X0.63100 Y0.98100
X0.63100 Y0.98000
X0.63200 Y0.98000
X0.63200 Y0.97900
X0.63300 Y0.97900
X0.63300 Y0.97800
X0.63400 Y0.97800
X0.63400 Y0.97700
X0.63500 Y0.97700
X0.63500 Y0.97600
X0.63600 Y0.97600
X0.63600 Y0.97500
X0.63700 Y0.97500
X0.63700 Y0.97400
X0.63800 Y0.97400
X0.63800 Y0.97300
X0.63900 Y0.97300
X0.63900 Y0.97200
X0.64000 Y0.97200
X0.64000 Y0.97100
X0.64100 Y0.97100
X0.64100 Y0.97000
X0.64200 Y0.97000
X0.64200 Y0.96900
X0.64400 Y0.96900
X0.64400 Y0.96800
X0.64500 Y0.96800
X0.64500 Y0.96600
X0.64600 Y0.96600
X0.64600 Y0.96200
X0.64700 Y0.96200
X0.64700 Y0.87400
X0.64800 Y0.87400
X0.64800 Y0.87000
X0.64700 Y0.87000
X0.64700 Y0.85000
X0.64800 Y0.85000
X0.64800 Y0.84600
X0.64700 Y0.84600
X0.64700 Y0.81200
X0.64800 Y0.81200
X0.64800 Y0.80900
X0.64900 Y0.80900
X0.64900 Y0.80800
X0.65000 Y0.80800
X0.65000 Y0.80700
X0.65100 Y0.80700
X0.65100 Y0.80600
X0.65200 Y0.80600
X0.65200 Y0.80500
X0.65300 Y0.80500
X0.65300 Y0.80400
X0.65400 Y0.80400
X0.65400 Y0.80300
X0.65500 Y0.80300
X0.65500 Y0.80200
X0.65600 Y0.80200
X0.65600 Y0.80100
X0.65700 Y0.80100
X0.65700 Y0.80000
X0.65800 Y0.80000
X0.65800 Y0.79900
X0.65900 Y0.79900
X0.65900 Y0.79800
X0.66000 Y0.79800
X0.66000 Y0.79700
X0.66100 Y0.79700
X0.66100 Y0.79600
X0.66200 Y0.79600
X0.66200 Y0.79500
X0.66300 Y0.79500
X0.66300 Y0.79400
X0.66400 Y0.79400
X0.66400 Y0.79300
X0.66500 Y0.79300
X0.66500 Y0.79200
X0.66800 Y0.79200
X0.66800 Y0.79100
X0.67000 Y0.79100
X0.67000 Y0.79200
X0.68800 Y0.79200
X0.68800 Y0.79100
X0.69000 Y0.79100
X0.69000 Y0.79000
X0.69500 Y0.79000
X0.69500 Y0.78900
X0.69600 Y0.78900
X0.69600 Y0.78800
X0.69800 Y0.78800
X0.69800 Y0.78700
X0.69900 Y0.78700
X0.69900 Y0.78600
X0.70000 Y0.78600
X0.70000 Y0.78500
X0.70100 Y0.78500
X0.70100 Y0.78400
X0.70200 Y0.78400
X0.70200 Y0.78300
X0.70300 Y0.78300
X0.70300 Y0.78200
X0.70400 Y0.78200
X0.70400 Y0.78100
X0.70500 Y0.78100
X0.70500 Y0.78000
X0.70600 Y0.78000
X0.70600 Y0.77900
X0.70700 Y0.77900
X0.70700 Y0.77700
X0.70800 Y0.77700
X0.70800 Y0.77600
X0.70900 Y0.77600
X0.70900 Y0.77400
X0.71000 Y0.77400
X0.71000 Y0.77000
X0.71100 Y0.77000
X0.71100 Y0.76800
X0.71200 Y0.76800
X0.71200 Y0.75200
X0.71100 Y0.75200
X0.71100 Y0.75100
X0.71000 Y0.75100
X0.71000 Y0.74700
X0.70900 Y0.74700
X0.70900 Y0.74500
X0.70800 Y0.74500
X0.70800 Y0.74300
X0.70700 Y0.74300
X0.70700 Y0.74100
X0.70600 Y0.74100
X0.70600 Y0.74000
X0.70500 Y0.74000
X0.70500 Y0.73900
X0.70400 Y0.73900
X0.70400 Y0.73800
X0.70300 Y0.73800
X0.70300 Y0.73600
X0.70200 Y0.73600
X0.70200 Y0.73500
X0.70000 Y0.73500
X0.70000 Y0.73400
X0.69800 Y0.73400
X0.69800 Y0.73300
X0.69600 Y0.73300
X0.69600 Y0.73200
X0.69500 Y0.73200
X0.69500 Y0.73100
X0.69200 Y0.73100
X0.69200 Y0.73000
X0.68900 Y0.73000
X0.68900 Y0.72900
X0.67200 Y0.72900
X0.67200 Y0.73000
X0.66900 Y0.73000
X0.66900 Y0.73100
X0.66600 Y0.73100
X0.66600 Y0.73200
X0.66500 Y0.73200
X0.66500 Y0.73300
X0.66300 Y0.73300
X0.66300 Y0.73400
X0.66100 Y0.73400
X0.66100 Y0.73500
X0.65900 Y0.73500
X0.65900 Y0.73600
X0.65800 Y0.73600
X0.65800 Y0.73700
X0.65700 Y0.73700
X0.65700 Y0.73800
X0.65600 Y0.73800
X0.65600 Y0.74000
X0.65500 Y0.74000
X0.65500 Y0.74100
X0.65400 Y0.74100
X0.65400 Y0.74300
X0.65300 Y0.74300
X0.65300 Y0.74400
X0.65200 Y0.74400
X0.65200 Y0.74700
X0.65100 Y0.74700
X0.65100 Y0.74900
X0.65000 Y0.74900
X0.65000 Y0.75200
X0.64900 Y0.75200
X0.64900 Y0.77000
X0.65000 Y0.77000
X0.65000 Y0.77300
X0.64900 Y0.77300
X0.64900 Y0.77600
X0.64800 Y0.77600
X0.64800 Y0.77700
X0.64700 Y0.77700
X0.64700 Y0.77800
X0.64600 Y0.77800
X0.64600 Y0.77900
X0.64500 Y0.77900
X0.64500 Y0.78000
X0.64400 Y0.78000
X0.64400 Y0.78100
X0.64300 Y0.78100
X0.64300 Y0.78200
X0.64200 Y0.78200
X0.64200 Y0.78300
X0.64100 Y0.78300
X0.64100 Y0.78400
X0.64000 Y0.78400
X0.64000 Y0.78500
X0.63900 Y0.78500
X0.63900 Y0.78600
X0.63800 Y0.78600
X0.63800 Y0.78700
X0.63700 Y0.78700
X0.63700 Y0.78800
X0.63600 Y0.78800
X0.63600 Y0.78900
X0.63500 Y0.78900
X0.63500 Y0.79000
