( pcb2gcode 1.2.2 )
( Software-independent Gcode )

G94 ( Inches per minute feed rate. )
G20 ( Units == INCHES. )

G90 ( Absolute coordinates. )
S10000 ( RPM spindle speed. )
G64 P0.00200 ( set maximum deviation from commanded toolpath )
F1.96850 ( Feedrate. )

F1.96850 ( Feedrate. )
M3 ( Spindle on clockwise. )
G04 P0 ( dwell for no time -- G64 should not smooth over this point )
G00 Z0.19685 ( retract )

G00 X0.56184 Y0.28730 ( rapid move to begin. )
F0.98425
G01 Z-0.01969
G04 P0 ( dwell for no time -- G64 should not smooth over this point )
F1.96850
X0.56184 Y0.28730
X0.55484 Y0.28130
X0.54884 Y0.26830
X0.54984 Y0.24830
X0.55184 Y0.24730
X0.55284 Y0.24330
X0.55484 Y0.24230
X0.55584 Y0.23830
X0.55984 Y0.23530
X0.55984 Y0.23330
X0.56984 Y0.22630
X0.58284 Y0.22330
X0.59784 Y0.22530
X0.60784 Y0.23030
X0.61784 Y0.24130
X0.62184 Y0.25230
X0.62284 Y0.26330
X0.61784 Y0.28030
X0.60784 Y0.29030
X0.59384 Y0.29730
X0.57384 Y0.29630
X0.56484 Y0.29130
X0.56184 Y0.28730
G04 P0 ( dwell for no time -- G64 should not smooth over this point )
G00 Z0.19685 ( retract )

G00 X0.56184 Y0.38730 ( rapid move to begin. )
F0.98425
G01 Z-0.01969
G04 P0 ( dwell for no time -- G64 should not smooth over this point )
F1.96850
X0.56184 Y0.38730
X0.55484 Y0.38130
X0.54984 Y0.37230
X0.54884 Y0.35230
X0.55584 Y0.33830
X0.56584 Y0.32830
X0.58284 Y0.32330
X0.59784 Y0.32530
X0.60784 Y0.33030
X0.61584 Y0.33830
X0.61984 Y0.34630
X0.62984 Y0.34630
X0.63584 Y0.34030
X0.63584 Y0.33830
X0.65084 Y0.32430
X0.64884 Y0.31830
X0.64984 Y0.29830
X0.65184 Y0.29730
X0.65284 Y0.29330
X0.65484 Y0.29230
X0.65584 Y0.28830
X0.65984 Y0.28530
X0.65984 Y0.28330
X0.66584 Y0.27830
X0.68284 Y0.27330
X0.69384 Y0.27430
X0.70784 Y0.28030
X0.71784 Y0.29130
X0.72284 Y0.30830
X0.72184 Y0.31930
X0.71784 Y0.33030
X0.70784 Y0.34030
X0.69384 Y0.34730
X0.67784 Y0.34730
X0.67084 Y0.34530
X0.64284 Y0.37330
X0.63884 Y0.37530
X0.61984 Y0.37530
X0.61784 Y0.38030
X0.60784 Y0.39030
X0.59884 Y0.39430
X0.59784 Y0.39630
X0.57784 Y0.39730
X0.56784 Y0.39330
X0.56184 Y0.38730
G04 P0 ( dwell for no time -- G64 should not smooth over this point )
G00 Z0.19685 ( retract )

G00 X0.66184 Y0.43730 ( rapid move to begin. )
F0.98425
G01 Z-0.01969
G04 P0 ( dwell for no time -- G64 should not smooth over this point )
F1.96850
X0.66184 Y0.43730
X0.65484 Y0.43130
X0.64984 Y0.42230
X0.64984 Y0.39830
X0.65184 Y0.39730
X0.65584 Y0.38830
X0.65984 Y0.38530
X0.65984 Y0.38330
X0.66284 Y0.38030
X0.66984 Y0.37630
X0.68284 Y0.37330
X0.70084 Y0.37630
X0.70784 Y0.38030
X0.71584 Y0.38830
X0.72084 Y0.39830
X0.72284 Y0.41630
X0.78084 Y0.41630
X0.79584 Y0.42030
X0.82484 Y0.42030
X0.83984 Y0.41730
X0.84184 Y0.41530
X0.84384 Y0.41630
X1.07084 Y0.41530
X1.07484 Y0.42030
X1.14584 Y0.42030
X1.14984 Y0.41530
X1.26084 Y0.41630
X1.27584 Y0.42030
X1.30484 Y0.42030
X1.31984 Y0.41730
X1.32184 Y0.41530
X1.32384 Y0.41630
X1.55084 Y0.41530
X1.55484 Y0.42030
X1.62584 Y0.42030
X1.62984 Y0.41530
X1.67884 Y0.41630
X1.67984 Y0.39830
X1.68184 Y0.39730
X1.68584 Y0.38830
X1.69584 Y0.37830
X1.71284 Y0.37330
X1.72784 Y0.37530
X1.73784 Y0.38030
X1.74784 Y0.39130
X1.75284 Y0.40830
X1.75184 Y0.41930
X1.74884 Y0.42830
X1.73784 Y0.44030
X1.73084 Y0.44330
X1.72984 Y0.44630
X1.70984 Y0.44630
X1.70584 Y0.44230
X1.70584 Y0.44030
X1.69484 Y0.44130
X0.85284 Y0.44030
X0.84584 Y0.44330
X0.67284 Y0.44430
X0.66384 Y0.44230
X0.66384 Y0.43930
X0.66184 Y0.43730
G04 P0 ( dwell for no time -- G64 should not smooth over this point )
G00 Z0.19685 ( retract )

G00 X0.77784 Y0.41530 ( rapid move to begin. )
F0.98425
G01 Z-0.01969
G04 P0 ( dwell for no time -- G64 should not smooth over this point )
F1.96850
X0.77784 Y0.41530
X0.77284 Y0.40930
X0.76984 Y0.39930
X0.76984 Y0.37230
X0.77284 Y0.36130
X0.78384 Y0.34930
X0.79684 Y0.34530
X0.82384 Y0.34530
X0.83684 Y0.34930
X0.84484 Y0.35630
X0.84484 Y0.35830
X0.84884 Y0.36230
X0.85084 Y0.37230
X0.85084 Y0.39930
X0.84884 Y0.40830
X0.84384 Y0.41530
X0.82484 Y0.42030
X0.79584 Y0.42030
X0.78084 Y0.41730
X0.77784 Y0.41530
G04 P0 ( dwell for no time -- G64 should not smooth over this point )
G00 Z0.19685 ( retract )

G00 X0.77784 Y0.31530 ( rapid move to begin. )
F0.98425
G01 Z-0.01969
G04 P0 ( dwell for no time -- G64 should not smooth over this point )
F1.96850
X0.77784 Y0.31530
X0.77284 Y0.30930
X0.76984 Y0.29930
X0.77084 Y0.26730
X0.77484 Y0.25830
X0.78384 Y0.24930
X0.79084 Y0.24630
X0.79484 Y0.24630
X0.79584 Y0.22730
X0.79484 Y0.22530
X0.79084 Y0.22530
X0.78284 Y0.21930
X0.78084 Y0.21930
X0.77184 Y0.20730
X0.76984 Y0.19930
X0.76984 Y0.17230
X0.77184 Y0.16330
X0.78384 Y0.14930
X0.79084 Y0.14630
X0.82284 Y0.14530
X0.82384 Y0.14330
X0.83084 Y0.14530
X0.84984 Y0.12530
X0.85384 Y0.12430
X1.08684 Y0.12330
X1.64684 Y0.12430
X1.65084 Y0.12530
X1.70184 Y0.17630
X1.70684 Y0.17430
X1.71784 Y0.17330
X1.73084 Y0.17630
X1.73784 Y0.18030
X1.74784 Y0.19130
X1.75284 Y0.20830
X1.74984 Y0.22630
X1.73784 Y0.24030
X1.72384 Y0.24730
X1.70384 Y0.24630
X1.69184 Y0.23830
X1.68284 Y0.22830
X1.67984 Y0.22230
X1.67884 Y0.20230
X1.68084 Y0.19530
X1.63884 Y0.15330
X1.61884 Y0.15330
X1.61484 Y0.15130
X1.59984 Y0.14930
X1.58084 Y0.14930
X1.56584 Y0.15130
X1.56384 Y0.14830
X1.31784 Y0.14830
X1.31484 Y0.15230
X1.30584 Y0.15030
X1.27484 Y0.15030
X1.26684 Y0.15230
X1.26384 Y0.14830
X1.13784 Y0.14830
X1.13584 Y0.15130
X1.11984 Y0.14930
X1.10084 Y0.14930
X1.08584 Y0.15130
X1.08184 Y0.15330
X0.86184 Y0.15330
X0.85084 Y0.16430
X0.85284 Y0.17230
X0.85084 Y0.17330
X0.85084 Y0.19930
X0.84784 Y0.21030
X0.83784 Y0.22130
X0.82984 Y0.22530
X0.82584 Y0.22530
X0.82484 Y0.22730
X0.82584 Y0.24630
X0.83284 Y0.24730
X0.83984 Y0.25130
X0.84884 Y0.26230
X0.85084 Y0.27230
X0.85084 Y0.29930
X0.84684 Y0.31230
X0.83484 Y0.32330
X0.82384 Y0.32630
X0.79084 Y0.32530
X0.78284 Y0.31930
X0.78084 Y0.31930
X0.77784 Y0.31530
G04 P0 ( dwell for no time -- G64 should not smooth over this point )
G00 Z0.19685 ( retract )

G00 X0.66184 Y0.23730 ( rapid move to begin. )
F0.98425
G01 Z-0.01969
G04 P0 ( dwell for no time -- G64 should not smooth over this point )
F1.96850
X0.66184 Y0.23730
X0.65484 Y0.23130
X0.64884 Y0.21830
X0.64984 Y0.19830
X0.65184 Y0.19730
X0.65284 Y0.19330
X0.65484 Y0.19230
X0.65584 Y0.18830
X0.65984 Y0.18530
X0.65984 Y0.18330
X0.66984 Y0.17630
X0.68284 Y0.17330
X0.69784 Y0.17530
X0.70784 Y0.18030
X0.71784 Y0.19130
X0.72184 Y0.20230
X0.72284 Y0.21330
X0.71784 Y0.23030
X0.70784 Y0.24030
X0.69384 Y0.24730
X0.67384 Y0.24630
X0.66484 Y0.24130
X0.66184 Y0.23730
G04 P0 ( dwell for no time -- G64 should not smooth over this point )
G00 Z0.19685 ( retract )

G00 X0.77784 Y0.11530 ( rapid move to begin. )
F0.98425
G01 Z-0.01969
G04 P0 ( dwell for no time -- G64 should not smooth over this point )
F1.96850
X0.77784 Y0.11530
X0.77284 Y0.10930
X0.76984 Y0.09930
X0.76984 Y0.07230
X0.77284 Y0.06130
X0.78384 Y0.04930
X0.79684 Y0.04530
X0.82384 Y0.04530
X0.83684 Y0.04930
X0.84484 Y0.05630
X0.84484 Y0.05830
X0.84884 Y0.06230
X0.85084 Y0.07230
X0.85084 Y0.09930
X0.84684 Y0.11230
X0.83784 Y0.12130
X0.83584 Y0.12130
X0.83284 Y0.12430
X0.82384 Y0.12630
X0.79684 Y0.12630
X0.78684 Y0.12330
X0.77784 Y0.11530
G04 P0 ( dwell for no time -- G64 should not smooth over this point )
G00 Z0.19685 ( retract )

G00 X1.07784 Y0.11530 ( rapid move to begin. )
F0.98425
G01 Z-0.01969
G04 P0 ( dwell for no time -- G64 should not smooth over this point )
F1.96850
X1.07784 Y0.11530
X1.07284 Y0.10930
X1.06984 Y0.09930
X1.06984 Y0.07230
X1.07284 Y0.06130
X1.08384 Y0.04930
X1.09684 Y0.04530
X1.12384 Y0.04530
X1.13684 Y0.04930
X1.14484 Y0.05630
X1.14484 Y0.05830
X1.14884 Y0.06230
X1.15084 Y0.07230
X1.15084 Y0.09930
X1.14684 Y0.11230
X1.13784 Y0.12130
X1.12884 Y0.12430
X1.09184 Y0.12430
X1.08684 Y0.12330
X1.07784 Y0.11530
G04 P0 ( dwell for no time -- G64 should not smooth over this point )
G00 Z0.19685 ( retract )

G00 X1.25784 Y0.11530 ( rapid move to begin. )
F0.98425
G01 Z-0.01969
G04 P0 ( dwell for no time -- G64 should not smooth over this point )
F1.96850
X1.25784 Y0.11530
X1.25184 Y0.10730
X1.24984 Y0.09930
X1.24984 Y0.07230
X1.25284 Y0.06130
X1.26384 Y0.04930
X1.27684 Y0.04530
X1.30384 Y0.04530
X1.31684 Y0.04930
X1.32484 Y0.05630
X1.32484 Y0.05830
X1.32884 Y0.06230
X1.33084 Y0.07230
X1.33084 Y0.09930
X1.32684 Y0.11230
X1.31784 Y0.12130
X1.30884 Y0.12430
X1.27184 Y0.12430
X1.26684 Y0.12330
X1.25784 Y0.11530
G04 P0 ( dwell for no time -- G64 should not smooth over this point )
G00 Z0.19685 ( retract )

G00 X1.26884 Y0.21530 ( rapid move to begin. )
F0.98425
G01 Z-0.01969
G04 P0 ( dwell for no time -- G64 should not smooth over this point )
F1.96850
X1.26884 Y0.21530
X1.26184 Y0.21030
X1.25384 Y0.19430
X1.25384 Y0.17730
X1.25584 Y0.17530
X1.25784 Y0.16630
X1.26384 Y0.16030
X1.26584 Y0.15330
X1.27484 Y0.15030
X1.30584 Y0.15030
X1.31484 Y0.15230
X1.31684 Y0.15930
X1.32384 Y0.16730
X1.32384 Y0.17230
X1.32584 Y0.17430
X1.32784 Y0.18430
X1.32684 Y0.19430
X1.32484 Y0.19630
X1.32184 Y0.20730
X1.30984 Y0.21830
X1.30084 Y0.22030
X1.29884 Y0.22230
X1.28184 Y0.22230
X1.27984 Y0.22030
X1.27184 Y0.21830
X1.26884 Y0.21530
G04 P0 ( dwell for no time -- G64 should not smooth over this point )
G00 Z0.19685 ( retract )

G00 X1.26284 Y0.31530 ( rapid move to begin. )
F0.98425
G01 Z-0.01969
G04 P0 ( dwell for no time -- G64 should not smooth over this point )
F1.96850
X1.26284 Y0.31530
X1.25484 Y0.30630
X1.25384 Y0.29530
X1.25384 Y0.27730
X1.25584 Y0.27530
X1.25684 Y0.26830
X1.25984 Y0.26530
X1.25984 Y0.26330
X1.26884 Y0.25430
X1.27584 Y0.25130
X1.27984 Y0.25130
X1.28184 Y0.24930
X1.28884 Y0.24830
X1.29884 Y0.24930
X1.31484 Y0.25630
X1.32384 Y0.26730
X1.32384 Y0.27230
X1.32584 Y0.27430
X1.32784 Y0.28430
X1.32684 Y0.29430
X1.32484 Y0.29630
X1.32184 Y0.30730
X1.30984 Y0.31830
X1.30084 Y0.32030
X1.29884 Y0.32230
X1.26984 Y0.32130
X1.26284 Y0.31530
G04 P0 ( dwell for no time -- G64 should not smooth over this point )
G00 Z0.19685 ( retract )

G00 X1.28684 Y0.34430 ( rapid move to begin. )
F0.98425
G01 Z-0.01969
G04 P0 ( dwell for no time -- G64 should not smooth over this point )
F1.96850
X1.28684 Y0.34430
X1.28384 Y0.34430
X1.27284 Y0.33330
X1.26984 Y0.32130
X1.29884 Y0.32230
X1.30084 Y0.32030
X1.30984 Y0.31830
X1.32184 Y0.30730
X1.32484 Y0.29630
X1.32684 Y0.29430
X1.32784 Y0.28430
X1.32584 Y0.27430
X1.32384 Y0.27230
X1.32384 Y0.26730
X1.32184 Y0.26630
X1.31984 Y0.26130
X1.30784 Y0.25230
X1.29184 Y0.24830
X1.28184 Y0.24930
X1.27984 Y0.25130
X1.27584 Y0.25130
X1.26884 Y0.25430
X1.25784 Y0.26630
X1.25584 Y0.27530
X1.25384 Y0.27730
X1.25484 Y0.30630
X1.24284 Y0.30330
X1.14784 Y0.20830
X1.14584 Y0.20330
X1.14784 Y0.18030
X1.14584 Y0.17630
X1.14584 Y0.17130
X1.14184 Y0.16330
X1.13784 Y0.16030
X1.13784 Y0.15630
X1.13584 Y0.15430
X1.13584 Y0.15030
X1.13784 Y0.14830
X1.26384 Y0.14830
X1.26684 Y0.15130
X1.26684 Y0.15330
X1.26384 Y0.15730
X1.26384 Y0.16030
X1.25784 Y0.16630
X1.25584 Y0.17530
X1.25384 Y0.17730
X1.25384 Y0.19430
X1.25584 Y0.19630
X1.25784 Y0.20430
X1.25984 Y0.20530
X1.26284 Y0.21130
X1.27184 Y0.21830
X1.27984 Y0.22030
X1.28184 Y0.22230
X1.29884 Y0.22230
X1.30084 Y0.22030
X1.30784 Y0.21930
X1.31384 Y0.21530
X1.32184 Y0.20730
X1.32384 Y0.20330
X1.32484 Y0.19630
X1.32684 Y0.19430
X1.32784 Y0.18430
X1.32584 Y0.17430
X1.32384 Y0.17230
X1.32384 Y0.16730
X1.31684 Y0.15930
X1.31684 Y0.15630
X1.31484 Y0.15430
X1.31484 Y0.15130
X1.31784 Y0.14830
X1.56384 Y0.14830
X1.56584 Y0.15030
X1.56384 Y0.15930
X1.56084 Y0.16130
X1.56084 Y0.16330
X1.55884 Y0.16430
X1.55484 Y0.17130
X1.55284 Y0.18930
X1.55584 Y0.20230
X1.55384 Y0.20830
X1.41384 Y0.34830
X1.30084 Y0.34930
X1.29384 Y0.34830
X1.29284 Y0.34630
X1.28684 Y0.34430
G04 P0 ( dwell for no time -- G64 should not smooth over this point )
G00 Z0.19685 ( retract )

G00 X1.25784 Y0.41530 ( rapid move to begin. )
F0.98425
G01 Z-0.01969
G04 P0 ( dwell for no time -- G64 should not smooth over this point )
F1.96850
X1.25784 Y0.41530
X1.25184 Y0.40730
X1.24984 Y0.39930
X1.24984 Y0.37230
X1.25184 Y0.36330
X1.25484 Y0.36030
X1.25484 Y0.35830
X1.25884 Y0.35530
X1.25884 Y0.35330
X1.13184 Y0.22730
X1.13184 Y0.22530
X1.12884 Y0.22530
X1.12684 Y0.22730
X1.09084 Y0.22530
X1.07684 Y0.21530
X1.07684 Y0.21330
X1.07184 Y0.20730
X1.06984 Y0.19930
X1.06984 Y0.17230
X1.07184 Y0.16330
X1.07484 Y0.16030
X1.07484 Y0.15830
X1.07884 Y0.15530
X1.07884 Y0.15330
X1.10084 Y0.14930
X1.11984 Y0.14930
X1.13584 Y0.15130
X1.13784 Y0.16030
X1.14284 Y0.16530
X1.14784 Y0.18030
X1.14784 Y0.19130
X1.14584 Y0.19530
X1.14584 Y0.20330
X1.14784 Y0.20830
X1.24284 Y0.30330
X1.25684 Y0.30730
X1.25984 Y0.31330
X1.26984 Y0.32030
X1.26984 Y0.32530
X1.27284 Y0.33330
X1.28384 Y0.34430
X1.29284 Y0.34630
X1.29384 Y0.34830
X1.30084 Y0.34930
X1.41384 Y0.34830
X1.55384 Y0.20830
X1.55584 Y0.20230
X1.55284 Y0.18930
X1.55484 Y0.17130
X1.55884 Y0.16430
X1.56084 Y0.16330
X1.56084 Y0.16130
X1.56384 Y0.15930
X1.56584 Y0.15130
X1.58084 Y0.14930
X1.59984 Y0.14930
X1.61884 Y0.15230
X1.62484 Y0.15630
X1.62484 Y0.15830
X1.62884 Y0.16230
X1.63084 Y0.17230
X1.63084 Y0.19930
X1.62684 Y0.21230
X1.61784 Y0.22130
X1.60984 Y0.22530
X1.57784 Y0.22730
X1.57084 Y0.22530
X1.42284 Y0.37330
X1.33384 Y0.37430
X1.33084 Y0.37530
X1.32984 Y0.40430
X1.32684 Y0.41230
X1.32384 Y0.41530
X1.30484 Y0.42030
X1.27584 Y0.42030
X1.26084 Y0.41730
X1.25784 Y0.41530
G04 P0 ( dwell for no time -- G64 should not smooth over this point )
G00 Z0.19685 ( retract )

G00 X1.17384 Y0.52230 ( rapid move to begin. )
F0.98425
G01 Z-0.01969
G04 P0 ( dwell for no time -- G64 should not smooth over this point )
F1.96850
X1.17384 Y0.52230
X1.16984 Y0.51830
X1.16784 Y0.51130
X1.16784 Y0.48030
X1.16984 Y0.47330
X1.17584 Y0.46730
X1.17584 Y0.46530
X1.18684 Y0.46230
X1.22384 Y0.46230
X1.23584 Y0.46530
X1.23584 Y0.46730
X1.24084 Y0.47230
X1.24284 Y0.48030
X1.24284 Y0.51130
X1.24084 Y0.51930
X1.23084 Y0.52930
X1.22884 Y0.52930
X1.22684 Y0.53230
X1.22184 Y0.53330
X1.18884 Y0.53330
X1.17984 Y0.52930
X1.17384 Y0.52230
G04 P0 ( dwell for no time -- G64 should not smooth over this point )
G00 Z0.19685 ( retract )

G00 X1.17884 Y0.61230 ( rapid move to begin. )
F0.98425
G01 Z-0.01969
G04 P0 ( dwell for no time -- G64 should not smooth over this point )
F1.96850
X1.17884 Y0.61230
X1.16784 Y0.60130
X1.16784 Y0.57030
X1.17184 Y0.56030
X1.17584 Y0.55730
X1.17584 Y0.55530
X1.17884 Y0.55230
X1.18284 Y0.55130
X1.18384 Y0.54930
X1.18884 Y0.54830
X1.22684 Y0.54930
X1.23884 Y0.55930
X1.24184 Y0.56530
X1.24184 Y0.57030
X1.24484 Y0.57130
X1.46784 Y0.57130
X1.55584 Y0.48230
X1.56784 Y0.48030
X1.56784 Y0.46530
X1.57184 Y0.46130
X1.63984 Y0.46130
X1.64384 Y0.46530
X1.64384 Y0.53230
X1.56784 Y0.53330
X1.56784 Y0.51930
X1.56384 Y0.51930
X1.56384 Y0.51630
X1.56184 Y0.51630
X1.48084 Y0.59830
X1.47784 Y0.59830
X1.47584 Y0.60030
X1.24484 Y0.60030
X1.24184 Y0.60130
X1.24084 Y0.60930
X1.22684 Y0.62230
X1.22184 Y0.62330
X1.18884 Y0.62330
X1.17884 Y0.61230
G04 P0 ( dwell for no time -- G64 should not smooth over this point )
G00 Z0.19685 ( retract )

G00 X1.07784 Y0.53030 ( rapid move to begin. )
F0.98425
G01 Z-0.01969
G04 P0 ( dwell for no time -- G64 should not smooth over this point )
F1.96850
X1.07784 Y0.53030
X1.07284 Y0.52430
X1.06984 Y0.51430
X1.06984 Y0.48730
X1.07284 Y0.47630
X1.08284 Y0.46530
X1.09284 Y0.46330
X1.12784 Y0.46330
X1.13784 Y0.46530
X1.14484 Y0.47130
X1.14484 Y0.47330
X1.14884 Y0.47730
X1.15084 Y0.48730
X1.15084 Y0.51430
X1.14684 Y0.52730
X1.13784 Y0.53630
X1.13584 Y0.53630
X1.13284 Y0.53930
X1.12384 Y0.54130
X1.09684 Y0.54130
X1.08684 Y0.53830
X1.07784 Y0.53030
G04 P0 ( dwell for no time -- G64 should not smooth over this point )
G00 Z0.19685 ( retract )

G00 X1.07084 Y0.41530 ( rapid move to begin. )
F0.98425
G01 Z-0.01969
G04 P0 ( dwell for no time -- G64 should not smooth over this point )
F1.96850
X1.07084 Y0.41530
X1.06984 Y0.34530
X1.15084 Y0.34530
X1.15084 Y0.41530
X1.14584 Y0.42030
X1.07484 Y0.42030
X1.07084 Y0.41530
G04 P0 ( dwell for no time -- G64 should not smooth over this point )
G00 Z0.19685 ( retract )

G00 X1.07784 Y0.31530 ( rapid move to begin. )
F0.98425
G01 Z-0.01969
G04 P0 ( dwell for no time -- G64 should not smooth over this point )
F1.96850
X1.07784 Y0.31530
X1.07284 Y0.30930
X1.06984 Y0.29930
X1.06984 Y0.27230
X1.07284 Y0.26130
X1.08384 Y0.24930
X1.09684 Y0.24530
X1.12384 Y0.24530
X1.13684 Y0.24930
X1.14484 Y0.25630
X1.14484 Y0.25830
X1.14884 Y0.26230
X1.15084 Y0.27230
X1.15084 Y0.29930
X1.14684 Y0.31230
X1.13784 Y0.32130
X1.13584 Y0.32130
X1.13284 Y0.32430
X1.12384 Y0.32630
X1.09684 Y0.32630
X1.08684 Y0.32330
X1.07784 Y0.31530
G04 P0 ( dwell for no time -- G64 should not smooth over this point )
G00 Z0.19685 ( retract )

G00 X0.77784 Y0.53030 ( rapid move to begin. )
F0.98425
G01 Z-0.01969
G04 P0 ( dwell for no time -- G64 should not smooth over this point )
F1.96850
X0.77784 Y0.53030
X0.77284 Y0.52430
X0.76984 Y0.51430
X0.76984 Y0.48730
X0.77184 Y0.47830
X0.77684 Y0.47230
X0.77684 Y0.47030
X0.79184 Y0.46630
X0.81884 Y0.46530
X0.83384 Y0.46730
X0.84484 Y0.47130
X0.84484 Y0.47330
X0.84884 Y0.47730
X0.85084 Y0.48730
X0.85084 Y0.51430
X0.84684 Y0.52730
X0.83784 Y0.53630
X0.83584 Y0.53630
X0.83284 Y0.53930
X0.82384 Y0.54130
X0.79684 Y0.54130
X0.78684 Y0.53830
X0.77784 Y0.53030
G04 P0 ( dwell for no time -- G64 should not smooth over this point )
G00 Z0.19685 ( retract )

G00 X0.77784 Y0.63030 ( rapid move to begin. )
F0.98425
G01 Z-0.01969
G04 P0 ( dwell for no time -- G64 should not smooth over this point )
F1.96850
X0.77784 Y0.63030
X0.77284 Y0.62430
X0.76984 Y0.61430
X0.76984 Y0.58730
X0.77284 Y0.57630
X0.78384 Y0.56430
X0.79084 Y0.56130
X0.82984 Y0.56130
X0.83984 Y0.56630
X0.84484 Y0.57130
X0.84484 Y0.57330
X0.84884 Y0.57730
X0.85084 Y0.58730
X0.85084 Y0.61430
X0.84684 Y0.62730
X0.83784 Y0.63630
X0.83584 Y0.63630
X0.83284 Y0.63930
X0.82384 Y0.64130
X0.79684 Y0.64130
X0.78684 Y0.63830
X0.77784 Y0.63030
G04 P0 ( dwell for no time -- G64 should not smooth over this point )
G00 Z0.19685 ( retract )

G00 X0.79084 Y0.73030 ( rapid move to begin. )
F0.98425
G01 Z-0.01969
G04 P0 ( dwell for no time -- G64 should not smooth over this point )
F1.96850
X0.79084 Y0.73030
X0.78084 Y0.72630
X0.77984 Y0.71930
X0.77684 Y0.71730
X0.77584 Y0.71130
X0.77384 Y0.70930
X0.77384 Y0.69230
X0.77584 Y0.69030
X0.77684 Y0.68330
X0.77984 Y0.68030
X0.77984 Y0.67830
X0.78884 Y0.66930
X0.79584 Y0.66630
X0.79984 Y0.66630
X0.80184 Y0.66430
X0.80884 Y0.66330
X0.81884 Y0.66430
X0.83484 Y0.67130
X0.84384 Y0.68230
X0.84384 Y0.68730
X0.84584 Y0.68930
X0.84784 Y0.69930
X0.84684 Y0.70930
X0.84484 Y0.71130
X0.84184 Y0.72230
X0.83284 Y0.73130
X0.82884 Y0.73330
X0.82584 Y0.73930
X0.79484 Y0.73930
X0.79084 Y0.73030
G04 P0 ( dwell for no time -- G64 should not smooth over this point )
G00 Z0.19685 ( retract )

G00 X0.77684 Y0.73830 ( rapid move to begin. )
F0.98425
G01 Z-0.01969
G04 P0 ( dwell for no time -- G64 should not smooth over this point )
F1.96850
X0.77684 Y0.73830
X0.77484 Y0.73130
X0.77784 Y0.73030
X0.78084 Y0.72630
X0.78284 Y0.72630
X0.79084 Y0.73030
X0.79484 Y0.73730
X0.79484 Y0.74030
X0.79184 Y0.74330
X0.78384 Y0.74330
X0.77784 Y0.74130
X0.77684 Y0.73830
G04 P0 ( dwell for no time -- G64 should not smooth over this point )
G00 Z0.19685 ( retract )

G00 X0.84284 Y0.77730 ( rapid move to begin. )
F0.98425
G01 Z-0.01969
G04 P0 ( dwell for no time -- G64 should not smooth over this point )
F1.96850
X0.84284 Y0.77730
X0.84184 Y0.77130
X0.84584 Y0.77130
X0.85284 Y0.77430
X0.85084 Y0.77830
X0.84284 Y0.77730
G04 P0 ( dwell for no time -- G64 should not smooth over this point )
G00 Z0.19685 ( retract )

G00 X0.78884 Y0.83030 ( rapid move to begin. )
F0.98425
G01 Z-0.01969
G04 P0 ( dwell for no time -- G64 should not smooth over this point )
F1.96850
X0.78884 Y0.83030
X0.78184 Y0.82530
X0.77384 Y0.80930
X0.77384 Y0.79230
X0.77584 Y0.79030
X0.77684 Y0.78330
X0.77984 Y0.78030
X0.77984 Y0.77830
X0.78384 Y0.77530
X0.78584 Y0.76830
X0.79484 Y0.76530
X0.82584 Y0.76530
X0.83584 Y0.76730
X0.83984 Y0.77230
X0.84184 Y0.77230
X0.84384 Y0.78730
X0.84584 Y0.78930
X0.84784 Y0.79930
X0.84684 Y0.80930
X0.84484 Y0.81130
X0.84184 Y0.82230
X0.82984 Y0.83330
X0.82084 Y0.83530
X0.81884 Y0.83730
X0.80184 Y0.83730
X0.79984 Y0.83530
X0.79184 Y0.83330
X0.78884 Y0.83030
G04 P0 ( dwell for no time -- G64 should not smooth over this point )
G00 Z0.19685 ( retract )

G00 X0.87384 Y0.93030 ( rapid move to begin. )
F0.98425
G01 Z-0.01969
G04 P0 ( dwell for no time -- G64 should not smooth over this point )
F1.96850
X0.87384 Y0.93030
X0.87284 Y0.87430
X0.87484 Y0.86530
X0.88184 Y0.86330
X0.93384 Y0.86330
X0.94484 Y0.86830
X0.94484 Y0.91730
X0.94784 Y0.92330
X0.94784 Y0.92930
X0.94584 Y0.93230
X0.94484 Y0.93930
X0.87584 Y0.93930
X0.87384 Y0.93030
G04 P0 ( dwell for no time -- G64 should not smooth over this point )
G00 Z0.19685 ( retract )

G00 X0.95184 Y0.93930 ( rapid move to begin. )
F0.98425
G01 Z-0.01969
G04 P0 ( dwell for no time -- G64 should not smooth over this point )
F1.96850
X0.95184 Y0.93930
X0.94484 Y0.93930
X0.94784 Y0.92430
X0.95984 Y0.92730
X0.96784 Y0.93530
X0.96784 Y0.93930
X0.96484 Y0.94030
X0.95184 Y0.93930
G04 P0 ( dwell for no time -- G64 should not smooth over this point )
G00 Z0.19685 ( retract )

G00 X0.97784 Y0.93930 ( rapid move to begin. )
F0.98425
G01 Z-0.01969
G04 P0 ( dwell for no time -- G64 should not smooth over this point )
F1.96850
X0.97784 Y0.93930
X0.96784 Y0.93930
X0.96784 Y0.93530
X0.95984 Y0.92730
X0.94784 Y0.92430
X0.94584 Y0.92130
X0.94484 Y0.86830
X0.94284 Y0.86630
X0.93384 Y0.86430
X0.93384 Y0.85930
X0.93084 Y0.85130
X0.85484 Y0.77530
X0.84584 Y0.77130
X0.83984 Y0.77230
X0.83584 Y0.76730
X0.82584 Y0.76530
X0.79484 Y0.76530
X0.78684 Y0.76730
X0.78384 Y0.76330
X0.77284 Y0.76230
X0.60384 Y0.59230
X0.60184 Y0.59130
X0.57784 Y0.59230
X0.57584 Y0.59030
X0.57084 Y0.59030
X0.56984 Y0.58830
X0.56784 Y0.58830
X0.55784 Y0.57830
X0.55584 Y0.57030
X0.55384 Y0.56830
X0.55384 Y0.55230
X0.55584 Y0.55130
X0.55584 Y0.54730
X0.55884 Y0.54130
X0.56284 Y0.53830
X0.56284 Y0.53630
X0.57684 Y0.52930
X0.59384 Y0.52930
X0.60684 Y0.53530
X0.61384 Y0.54430
X0.61384 Y0.54730
X0.61684 Y0.55230
X0.61584 Y0.57730
X0.76684 Y0.72730
X0.76784 Y0.73030
X0.77484 Y0.73230
X0.77784 Y0.74130
X0.78384 Y0.74330
X0.79184 Y0.74330
X0.79484 Y0.73930
X0.82584 Y0.73930
X0.82984 Y0.74430
X0.84984 Y0.74430
X0.85384 Y0.74630
X0.96284 Y0.85530
X0.96484 Y0.85930
X0.96484 Y0.88430
X0.96884 Y0.88830
X0.97084 Y0.88830
X0.97084 Y0.89930
X0.97384 Y0.90830
X0.97584 Y0.90930
X0.97784 Y0.91630
X0.98084 Y0.91830
X0.98284 Y0.92330
X0.99984 Y0.93630
X0.99984 Y0.93930
X0.99284 Y0.94030
X0.97784 Y0.93930
G04 P0 ( dwell for no time -- G64 should not smooth over this point )
G00 Z0.19685 ( retract )

G00 X0.99284 Y0.93030 ( rapid move to begin. )
F0.98425
G01 Z-0.01969
G04 P0 ( dwell for no time -- G64 should not smooth over this point )
F1.96850
X0.99284 Y0.93030
X0.98784 Y0.92830
X0.98284 Y0.92330
X0.98084 Y0.91830
X0.97784 Y0.91630
X0.97784 Y0.91330
X0.97384 Y0.90830
X0.97084 Y0.89930
X0.97084 Y0.88830
X0.97684 Y0.88530
X0.97984 Y0.87830
X0.98884 Y0.86930
X0.99884 Y0.86630
X1.00084 Y0.86330
X1.00184 Y0.69530
X1.07484 Y0.62230
X1.07684 Y0.61430
X1.07584 Y0.61030
X1.07384 Y0.60930
X1.07384 Y0.59230
X1.07584 Y0.59030
X1.07684 Y0.58330
X1.07984 Y0.58030
X1.07984 Y0.57830
X1.08884 Y0.56930
X1.09584 Y0.56630
X1.12784 Y0.56730
X1.13184 Y0.57230
X1.13584 Y0.57330
X1.13884 Y0.57930
X1.14384 Y0.58330
X1.14384 Y0.58730
X1.14684 Y0.59230
X1.14684 Y0.60930
X1.14484 Y0.61130
X1.14184 Y0.62230
X1.12984 Y0.63330
X1.12084 Y0.63530
X1.11884 Y0.63730
X1.10184 Y0.63730
X1.10084 Y0.63530
X1.09184 Y0.63530
X1.08684 Y0.63730
X1.02084 Y0.70430
X1.01984 Y0.86330
X1.02184 Y0.86630
X1.03184 Y0.86930
X1.03984 Y0.87630
X1.03984 Y0.87830
X1.04384 Y0.88230
X1.04784 Y0.90230
X1.04384 Y0.91830
X1.03784 Y0.92430
X1.03284 Y0.93930
X0.99984 Y0.93930
X0.99984 Y0.93630
X0.99284 Y0.93030
G04 P0 ( dwell for no time -- G64 should not smooth over this point )
G00 Z0.19685 ( retract )

G00 X1.06984 Y0.83030 ( rapid move to begin. )
F0.98425
G01 Z-0.01969
G04 P0 ( dwell for no time -- G64 should not smooth over this point )
F1.96850
X1.06984 Y0.83030
X1.06984 Y0.76030
X1.15084 Y0.76030
X1.14984 Y0.84130
X1.07084 Y0.84130
X1.06984 Y0.83030
G04 P0 ( dwell for no time -- G64 should not smooth over this point )
G00 Z0.19685 ( retract )

G00 X1.07784 Y0.73030 ( rapid move to begin. )
F0.98425
G01 Z-0.01969
G04 P0 ( dwell for no time -- G64 should not smooth over this point )
F1.96850
X1.07784 Y0.73030
X1.07284 Y0.72430
X1.06984 Y0.71430
X1.06984 Y0.68730
X1.07284 Y0.67630
X1.08384 Y0.66430
X1.09684 Y0.66030
X1.12384 Y0.66030
X1.13684 Y0.66430
X1.14484 Y0.67130
X1.14684 Y0.67630
X1.14884 Y0.67730
X1.15084 Y0.68730
X1.15084 Y0.71430
X1.14684 Y0.72730
X1.13784 Y0.73630
X1.13584 Y0.73630
X1.13284 Y0.73930
X1.12384 Y0.74130
X1.09684 Y0.74130
X1.08684 Y0.73830
X1.07784 Y0.73030
G04 P0 ( dwell for no time -- G64 should not smooth over this point )
G00 Z0.19685 ( retract )

G00 X1.17284 Y0.82730 ( rapid move to begin. )
F0.98425
G01 Z-0.01969
G04 P0 ( dwell for no time -- G64 should not smooth over this point )
F1.96850
X1.17284 Y0.82730
X1.17284 Y0.76230
X1.24884 Y0.76330
X1.24784 Y0.83830
X1.17284 Y0.83830
X1.17284 Y0.82730
G04 P0 ( dwell for no time -- G64 should not smooth over this point )
G00 Z0.19685 ( retract )

G00 X1.17584 Y0.92730 ( rapid move to begin. )
F0.98425
G01 Z-0.01969
G04 P0 ( dwell for no time -- G64 should not smooth over this point )
F1.96850
X1.17584 Y0.92730
X1.17584 Y0.87530
X1.17784 Y0.86730
X1.18684 Y0.86530
X1.23384 Y0.86530
X1.24384 Y0.86830
X1.24584 Y0.87730
X1.24584 Y0.93530
X1.24284 Y0.93830
X1.17884 Y0.93830
X1.17584 Y0.93530
X1.17584 Y0.92730
G04 P0 ( dwell for no time -- G64 should not smooth over this point )
G00 Z0.19685 ( retract )

G00 X1.32284 Y0.93930 ( rapid move to begin. )
F0.98425
G01 Z-0.01969
G04 P0 ( dwell for no time -- G64 should not smooth over this point )
F1.96850
X1.32284 Y0.93930
X1.31684 Y0.93930
X1.31684 Y0.93730
X1.32084 Y0.93530
X1.62484 Y0.63130
X1.62784 Y0.61930
X1.63684 Y0.61730
X1.63984 Y0.60730
X1.65184 Y0.60430
X1.70184 Y0.55330
X1.70884 Y0.55130
X1.71184 Y0.54730
X1.72184 Y0.54730
X1.72484 Y0.55130
X1.78484 Y0.55130
X1.78884 Y0.54130
X1.79284 Y0.53830
X1.79284 Y0.53630
X1.80684 Y0.52930
X1.82384 Y0.52930
X1.82984 Y0.53130
X1.83084 Y0.53330
X1.83684 Y0.53530
X1.83984 Y0.53830
X1.84684 Y0.55230
X1.84684 Y0.56930
X1.84384 Y0.57430
X1.84384 Y0.57730
X1.83984 Y0.58230
X1.83484 Y0.58730
X1.83084 Y0.58830
X1.82984 Y0.59030
X1.82484 Y0.59030
X1.82384 Y0.59230
X1.80784 Y0.59230
X1.80584 Y0.59030
X1.80084 Y0.59030
X1.78784 Y0.57830
X1.78484 Y0.57030
X1.71284 Y0.57130
X1.34784 Y0.93630
X1.34784 Y0.93930
X1.33884 Y0.94030
X1.32284 Y0.93930
G04 P0 ( dwell for no time -- G64 should not smooth over this point )
G00 Z0.19685 ( retract )

G00 X1.35184 Y0.93930 ( rapid move to begin. )
F0.98425
G01 Z-0.01969
G04 P0 ( dwell for no time -- G64 should not smooth over this point )
F1.96850
X1.35184 Y0.93930
X1.34784 Y0.93930
X1.34784 Y0.93630
X1.71284 Y0.57130
X1.78484 Y0.57030
X1.78784 Y0.57830
X1.80084 Y0.59030
X1.80584 Y0.59030
X1.80784 Y0.59230
X1.82384 Y0.59230
X1.82484 Y0.59030
X1.82984 Y0.59030
X1.83084 Y0.58830
X1.83584 Y0.58630
X1.84384 Y0.57730
X1.84384 Y0.57430
X1.84684 Y0.56930
X1.84684 Y0.55230
X1.83984 Y0.53830
X1.83684 Y0.53530
X1.83084 Y0.53330
X1.82984 Y0.53130
X1.82384 Y0.52930
X1.80684 Y0.52930
X1.79284 Y0.53630
X1.79284 Y0.53830
X1.78884 Y0.54130
X1.78484 Y0.55130
X1.72484 Y0.55130
X1.72184 Y0.54730
X1.71184 Y0.54730
X1.70884 Y0.55130
X1.70184 Y0.55330
X1.65184 Y0.60430
X1.64284 Y0.60730
X1.64084 Y0.60730
X1.64084 Y0.56230
X1.63784 Y0.55230
X1.62884 Y0.55030
X1.58584 Y0.55030
X1.57484 Y0.55430
X1.57084 Y0.56530
X1.57084 Y0.61130
X1.57284 Y0.61430
X1.57284 Y0.61830
X1.57684 Y0.61830
X1.57984 Y0.62030
X1.62784 Y0.62030
X1.62484 Y0.63130
X1.32084 Y0.93530
X1.31884 Y0.93530
X1.31684 Y0.93930
X1.24284 Y0.93930
X1.24284 Y0.93730
X1.24584 Y0.93530
X1.24584 Y0.87730
X1.24384 Y0.86830
X1.23384 Y0.86530
X1.18684 Y0.86530
X1.17784 Y0.86730
X1.17584 Y0.87530
X1.17584 Y0.93530
X1.17884 Y0.93730
X1.17884 Y0.93930
X1.03284 Y0.93930
X1.03784 Y0.92430
X1.04384 Y0.91830
X1.04484 Y0.91130
X1.04684 Y0.90930
X1.04784 Y0.89930
X1.04584 Y0.88930
X1.04384 Y0.88730
X1.04384 Y0.88230
X1.04184 Y0.88130
X1.03984 Y0.87630
X1.03184 Y0.86930
X1.02184 Y0.86630
X1.01984 Y0.86330
X1.01984 Y0.70730
X1.02184 Y0.70230
X1.08684 Y0.63730
X1.09184 Y0.63530
X1.10084 Y0.63530
X1.10184 Y0.63730
X1.11884 Y0.63730
X1.12084 Y0.63530
X1.12984 Y0.63330
X1.14184 Y0.62230
X1.14484 Y0.61130
X1.14684 Y0.60930
X1.14684 Y0.59230
X1.14384 Y0.58730
X1.14384 Y0.58330
X1.13884 Y0.57930
X1.13584 Y0.57330
X1.13184 Y0.57230
X1.12784 Y0.56730
X1.12484 Y0.56630
X1.09584 Y0.56630
X1.08884 Y0.56930
X1.07784 Y0.58130
X1.07584 Y0.59030
X1.07384 Y0.59230
X1.07384 Y0.60930
X1.07584 Y0.61030
X1.07684 Y0.61430
X1.07484 Y0.62230
X1.00284 Y0.69330
X1.00084 Y0.69930
X1.00084 Y0.86330
X0.99884 Y0.86630
X0.98884 Y0.86930
X0.97984 Y0.87830
X0.97584 Y0.88630
X0.97384 Y0.88630
X0.97284 Y0.88830
X0.96884 Y0.88830
X0.96484 Y0.88430
X0.96484 Y0.85930
X0.96284 Y0.85530
X0.85384 Y0.74630
X0.84984 Y0.74430
X0.82984 Y0.74430
X0.82584 Y0.74030
X0.82884 Y0.73330
X0.83284 Y0.73130
X0.84184 Y0.72230
X0.84484 Y0.71130
X0.84684 Y0.70930
X0.84784 Y0.70230
X0.84384 Y0.68230
X0.83484 Y0.67130
X0.82784 Y0.66730
X0.81184 Y0.66330
X0.80184 Y0.66430
X0.79984 Y0.66630
X0.79584 Y0.66630
X0.78884 Y0.66930
X0.77784 Y0.68130
X0.77584 Y0.69030
X0.77384 Y0.69230
X0.77384 Y0.70930
X0.77584 Y0.71130
X0.77684 Y0.71730
X0.77984 Y0.71930
X0.78084 Y0.72730
X0.77484 Y0.73230
X0.76784 Y0.73030
X0.76684 Y0.72730
X0.61584 Y0.57730
X0.61684 Y0.55230
X0.60984 Y0.53830
X0.60684 Y0.53530
X0.60084 Y0.53330
X0.59984 Y0.53130
X0.59384 Y0.52930
X0.57684 Y0.52930
X0.57084 Y0.53130
X0.56984 Y0.53330
X0.56284 Y0.53630
X0.56284 Y0.53830
X0.55884 Y0.54130
X0.55584 Y0.54730
X0.55584 Y0.55130
X0.55384 Y0.55230
X0.55384 Y0.56830
X0.55584 Y0.57030
X0.55784 Y0.57830
X0.57084 Y0.59030
X0.57584 Y0.59030
X0.57784 Y0.59230
X0.59384 Y0.59130
X0.60384 Y0.59230
X0.77284 Y0.76230
X0.78384 Y0.76330
X0.78684 Y0.76630
X0.78384 Y0.77530
X0.77784 Y0.78130
X0.77584 Y0.79030
X0.77384 Y0.79230
X0.77384 Y0.80930
X0.77584 Y0.81130
X0.77784 Y0.81930
X0.78584 Y0.82930
X0.80184 Y0.83730
X0.81884 Y0.83730
X0.82084 Y0.83530
X0.82784 Y0.83430
X0.83084 Y0.83130
X0.83284 Y0.83130
X0.84184 Y0.82230
X0.84484 Y0.81130
X0.84684 Y0.80930
X0.84784 Y0.79930
X0.84584 Y0.78930
X0.84384 Y0.78730
X0.84284 Y0.77830
X0.85084 Y0.77830
X0.85284 Y0.77530
X0.85484 Y0.77530
X0.93184 Y0.85330
X0.93384 Y0.86330
X0.88184 Y0.86330
X0.87484 Y0.86530
X0.87284 Y0.87430
X0.87284 Y0.92630
X0.87584 Y0.93930
X0.75884 Y0.94030
X0.75584 Y0.93730
X0.75584 Y0.76230
X0.73884 Y0.74530
X0.23284 Y0.74430
X0.13884 Y0.74530
X0.13584 Y0.74230
X0.13584 Y0.03430
X0.13884 Y0.03130
X2.24684 Y0.03130
X2.24984 Y0.03430
X2.24984 Y0.74230
X2.24684 Y0.74530
X2.20284 Y0.74430
X1.66684 Y0.74530
X1.64484 Y0.76730
X1.64384 Y0.78130
X1.63884 Y0.78030
X1.63184 Y0.77230
X1.62784 Y0.77130
X1.62684 Y0.76930
X1.62284 Y0.76930
X1.62084 Y0.76730
X1.60784 Y0.76630
X1.60084 Y0.76730
X1.59884 Y0.76930
X1.59384 Y0.76930
X1.59284 Y0.77130
X1.58884 Y0.77230
X1.57884 Y0.78530
X1.57884 Y0.78930
X1.57684 Y0.79230
X1.57684 Y0.80830
X1.57884 Y0.81130
X1.57884 Y0.81630
X1.58384 Y0.82330
X1.59484 Y0.83230
X1.60284 Y0.83430
X1.61884 Y0.83430
X1.62184 Y0.83230
X1.62684 Y0.83230
X1.63884 Y0.82030
X1.64384 Y0.81930
X1.64484 Y0.82630
X1.64384 Y0.88130
X1.63884 Y0.88030
X1.63184 Y0.87230
X1.62784 Y0.87130
X1.62684 Y0.86930
X1.62284 Y0.86930
X1.62084 Y0.86730
X1.60784 Y0.86630
X1.60084 Y0.86730
X1.59884 Y0.86930
X1.59384 Y0.86930
X1.59284 Y0.87130
X1.58884 Y0.87230
X1.57884 Y0.88530
X1.57884 Y0.88930
X1.57684 Y0.89230
X1.57684 Y0.90830
X1.57884 Y0.91130
X1.57884 Y0.91630
X1.58984 Y0.92930
X1.59384 Y0.93030
X1.59484 Y0.93230
X1.59884 Y0.93230
X1.60284 Y0.93930
X1.59284 Y0.94030
X1.35184 Y0.93930
G04 P0 ( dwell for no time -- G64 should not smooth over this point )
G00 Z0.19685 ( retract )

G00 X1.58884 Y0.92730 ( rapid move to begin. )
F0.98425
G01 Z-0.01969
G04 P0 ( dwell for no time -- G64 should not smooth over this point )
F1.96850
X1.58884 Y0.92730
X1.57984 Y0.91830
X1.57884 Y0.91130
X1.57684 Y0.90830
X1.57684 Y0.89230
X1.57884 Y0.88930
X1.57884 Y0.88530
X1.58884 Y0.87230
X1.59284 Y0.87130
X1.59384 Y0.86930
X1.59884 Y0.86930
X1.60084 Y0.86730
X1.60784 Y0.86630
X1.62084 Y0.86730
X1.63184 Y0.87230
X1.63884 Y0.88030
X1.64384 Y0.88130
X1.64384 Y0.91930
X1.63884 Y0.92030
X1.62684 Y0.93230
X1.62284 Y0.93230
X1.62284 Y0.93430
X1.61884 Y0.93830
X1.60284 Y0.93830
X1.59884 Y0.93430
X1.59884 Y0.93230
X1.59484 Y0.93230
X1.58884 Y0.92730
G04 P0 ( dwell for no time -- G64 should not smooth over this point )
G00 Z0.19685 ( retract )

G00 X1.62884 Y0.93930 ( rapid move to begin. )
F0.98425
G01 Z-0.01969
G04 P0 ( dwell for no time -- G64 should not smooth over this point )
F1.96850
X1.62884 Y0.93930
X1.61884 Y0.93930
X1.61884 Y0.93730
X1.62284 Y0.93430
X1.62284 Y0.93230
X1.62684 Y0.93230
X1.62884 Y0.92930
X1.63084 Y0.92930
X1.63884 Y0.92030
X1.64384 Y0.91930
X1.64484 Y0.93730
X1.64184 Y0.94030
X1.62884 Y0.93930
G04 P0 ( dwell for no time -- G64 should not smooth over this point )
G00 Z0.19685 ( retract )

G00 X1.58884 Y0.82730 ( rapid move to begin. )
F0.98425
G01 Z-0.01969
G04 P0 ( dwell for no time -- G64 should not smooth over this point )
F1.96850
X1.58884 Y0.82730
X1.57984 Y0.81830
X1.57884 Y0.81130
X1.57684 Y0.80830
X1.57684 Y0.79230
X1.57884 Y0.78930
X1.57884 Y0.78530
X1.58884 Y0.77230
X1.59284 Y0.77130
X1.59384 Y0.76930
X1.59884 Y0.76930
X1.60084 Y0.76730
X1.60784 Y0.76630
X1.62084 Y0.76730
X1.63184 Y0.77230
X1.63884 Y0.78030
X1.64384 Y0.78130
X1.64384 Y0.81930
X1.63884 Y0.82030
X1.62684 Y0.83230
X1.62184 Y0.83230
X1.61884 Y0.83430
X1.60284 Y0.83430
X1.59484 Y0.83230
X1.58884 Y0.82730
G04 P0 ( dwell for no time -- G64 should not smooth over this point )
G00 Z0.19685 ( retract )

G00 X1.57184 Y0.61230 ( rapid move to begin. )
F0.98425
G01 Z-0.01969
G04 P0 ( dwell for no time -- G64 should not smooth over this point )
F1.96850
X1.57184 Y0.61230
X1.57084 Y0.56530
X1.57484 Y0.55430
X1.58584 Y0.55030
X1.62884 Y0.55030
X1.63884 Y0.55330
X1.64084 Y0.56230
X1.64084 Y0.60730
X1.63684 Y0.61730
X1.62784 Y0.62030
X1.57984 Y0.62030
X1.57684 Y0.61830
X1.57284 Y0.61830
X1.57184 Y0.61230
G04 P0 ( dwell for no time -- G64 should not smooth over this point )
G00 Z0.19685 ( retract )

G00 X1.55084 Y0.41530 ( rapid move to begin. )
F0.98425
G01 Z-0.01969
G04 P0 ( dwell for no time -- G64 should not smooth over this point )
F1.96850
X1.55084 Y0.41530
X1.54984 Y0.34530
X1.63084 Y0.34530
X1.63084 Y0.41530
X1.62584 Y0.42030
X1.55484 Y0.42030
X1.55084 Y0.41530
G04 P0 ( dwell for no time -- G64 should not smooth over this point )
G00 Z0.19685 ( retract )

G00 X1.55784 Y0.31530 ( rapid move to begin. )
F0.98425
G01 Z-0.01969
G04 P0 ( dwell for no time -- G64 should not smooth over this point )
F1.96850
X1.55784 Y0.31530
X1.55184 Y0.30730
X1.54984 Y0.29930
X1.54984 Y0.27230
X1.55284 Y0.26130
X1.56384 Y0.24930
X1.57684 Y0.24530
X1.60384 Y0.24530
X1.61684 Y0.24930
X1.62484 Y0.25630
X1.62484 Y0.25830
X1.62884 Y0.26230
X1.63084 Y0.27230
X1.63084 Y0.29930
X1.62684 Y0.31230
X1.61784 Y0.32130
X1.61584 Y0.32130
X1.61284 Y0.32430
X1.60384 Y0.32630
X1.57684 Y0.32630
X1.56684 Y0.32330
X1.55784 Y0.31530
G04 P0 ( dwell for no time -- G64 should not smooth over this point )
G00 Z0.19685 ( retract )

G00 X1.69184 Y0.33730 ( rapid move to begin. )
F0.98425
G01 Z-0.01969
G04 P0 ( dwell for no time -- G64 should not smooth over this point )
F1.96850
X1.69184 Y0.33730
X1.68284 Y0.32830
X1.67884 Y0.31830
X1.67984 Y0.29830
X1.68184 Y0.29730
X1.68284 Y0.29330
X1.68484 Y0.29230
X1.68584 Y0.28830
X1.68984 Y0.28530
X1.68984 Y0.28330
X1.69984 Y0.27630
X1.71284 Y0.27330
X1.72784 Y0.27530
X1.73784 Y0.28030
X1.74784 Y0.29130
X1.75284 Y0.30830
X1.75084 Y0.32330
X1.74584 Y0.33230
X1.73784 Y0.34030
X1.72384 Y0.34730
X1.70384 Y0.34630
X1.69484 Y0.34130
X1.69184 Y0.33730
G04 P0 ( dwell for no time -- G64 should not smooth over this point )
G00 Z0.19685 ( retract )

G00 X1.69584 Y0.44530 ( rapid move to begin. )
F0.98425
G01 Z-0.01969
G04 P0 ( dwell for no time -- G64 should not smooth over this point )
F1.96850
X1.69584 Y0.44530
X1.69484 Y0.44030
X1.70584 Y0.44030
X1.70984 Y0.44730
X1.70684 Y0.45030
X1.69984 Y0.45030
X1.69684 Y0.44930
X1.69584 Y0.44530
G04 P0 ( dwell for no time -- G64 should not smooth over this point )
G00 Z0.19685 ( retract )

G00 X1.79184 Y0.48730 ( rapid move to begin. )
F0.98425
G01 Z-0.01969
G04 P0 ( dwell for no time -- G64 should not smooth over this point )
F1.96850
X1.79184 Y0.48730
X1.78484 Y0.48130
X1.78184 Y0.47530
X1.69984 Y0.47630
X1.69084 Y0.47530
X1.68684 Y0.47330
X1.67884 Y0.46530
X1.64384 Y0.46630
X1.63984 Y0.46130
X1.57184 Y0.46130
X1.56784 Y0.46630
X1.23184 Y0.46530
X1.22384 Y0.46230
X1.18684 Y0.46230
X1.17884 Y0.46530
X1.13984 Y0.46630
X1.12784 Y0.46330
X1.09284 Y0.46330
X1.08684 Y0.46530
X0.86484 Y0.46530
X0.86284 Y0.46830
X0.85884 Y0.47030
X0.84084 Y0.47030
X0.82884 Y0.46630
X0.80184 Y0.46530
X0.78684 Y0.46730
X0.77984 Y0.47030
X0.62084 Y0.47030
X0.61784 Y0.48030
X0.60784 Y0.49030
X0.59384 Y0.49730
X0.57784 Y0.49730
X0.56484 Y0.49130
X0.55284 Y0.47830
X0.54884 Y0.46830
X0.54884 Y0.45230
X0.55584 Y0.43830
X0.55984 Y0.43530
X0.55984 Y0.43330
X0.56284 Y0.43030
X0.56984 Y0.42630
X0.58284 Y0.42330
X0.59384 Y0.42430
X0.60484 Y0.42830
X0.61584 Y0.43830
X0.61684 Y0.44130
X0.66384 Y0.44130
X0.66584 Y0.44330
X0.67284 Y0.44430
X0.84584 Y0.44330
X0.85284 Y0.44030
X1.69184 Y0.44030
X1.69484 Y0.44130
X1.69684 Y0.44930
X1.69984 Y0.45030
X1.70684 Y0.45030
X1.70984 Y0.44630
X1.78184 Y0.44630
X1.78584 Y0.43830
X1.78984 Y0.43530
X1.78984 Y0.43330
X1.79284 Y0.43030
X1.79984 Y0.42630
X1.81284 Y0.42330
X1.82784 Y0.42530
X1.83784 Y0.43030
X1.84784 Y0.44130
X1.85184 Y0.45230
X1.85284 Y0.46330
X1.84784 Y0.48030
X1.83784 Y0.49030
X1.82384 Y0.49730
X1.80384 Y0.49630
X1.79484 Y0.49130
X1.79184 Y0.48730
G04 P0 ( dwell for no time -- G64 should not smooth over this point )
G00 Z0.19685 ( retract )

G00 X1.79184 Y0.38730 ( rapid move to begin. )
F0.98425
G01 Z-0.01969
G04 P0 ( dwell for no time -- G64 should not smooth over this point )
F1.96850
X1.79184 Y0.38730
X1.78484 Y0.38130
X1.77884 Y0.36830
X1.77984 Y0.34830
X1.78184 Y0.34730
X1.78284 Y0.34330
X1.78484 Y0.34230
X1.78584 Y0.33830
X1.78984 Y0.33530
X1.78984 Y0.33330
X1.79984 Y0.32630
X1.81284 Y0.32330
X1.82784 Y0.32530
X1.83784 Y0.33030
X1.84784 Y0.34130
X1.85184 Y0.35230
X1.85284 Y0.36330
X1.84784 Y0.38030
X1.83784 Y0.39030
X1.82384 Y0.39730
X1.80384 Y0.39630
X1.79484 Y0.39130
X1.79184 Y0.38730
G04 P0 ( dwell for no time -- G64 should not smooth over this point )
G00 Z0.19685 ( retract )

G00 X1.79184 Y0.28730 ( rapid move to begin. )
F0.98425
G01 Z-0.01969
G04 P0 ( dwell for no time -- G64 should not smooth over this point )
F1.96850
X1.79184 Y0.28730
X1.78484 Y0.28130
X1.77884 Y0.26830
X1.77984 Y0.24830
X1.78184 Y0.24730
X1.78284 Y0.24330
X1.78484 Y0.24230
X1.78584 Y0.23830
X1.78984 Y0.23530
X1.78984 Y0.23330
X1.79984 Y0.22630
X1.81284 Y0.22330
X1.82784 Y0.22530
X1.83784 Y0.23030
X1.84784 Y0.24130
X1.85184 Y0.25230
X1.85284 Y0.26330
X1.84784 Y0.28030
X1.83784 Y0.29030
X1.82384 Y0.29730
X1.80384 Y0.29630
X1.79484 Y0.29130
X1.79184 Y0.28730
G04 P0 ( dwell for no time -- G64 should not smooth over this point )
G00 Z0.19685 ( retract )

G00 X1.55784 Y0.11530 ( rapid move to begin. )
F0.98425
G01 Z-0.01969
G04 P0 ( dwell for no time -- G64 should not smooth over this point )
F1.96850
X1.55784 Y0.11530
X1.55184 Y0.10730
X1.54984 Y0.09930
X1.54984 Y0.07230
X1.55284 Y0.06130
X1.56384 Y0.04930
X1.57684 Y0.04530
X1.60384 Y0.04530
X1.61684 Y0.04930
X1.62484 Y0.05630
X1.62484 Y0.05830
X1.62884 Y0.06230
X1.63084 Y0.07230
X1.63084 Y0.09930
X1.62684 Y0.11230
X1.61784 Y0.12130
X1.60884 Y0.12430
X1.57184 Y0.12430
X1.56684 Y0.12330
X1.55784 Y0.11530

G04 P0 ( dwell for no time -- G64 should not smooth over this point )
G00 Z0.197 ( retract )

M5 ( Spindle off. )
M9 ( Coolant off. )
M2 ( Program end. )

