( pcb2gcode 1.2.2 )
( Software-independent Gcode )
      
G94 ( Inches per minute feed rate. )
G20 ( Units == INCHES. )

G90 ( Absolute coordinates. )
S10000 ( RPM spindle speed. )
G64 P0.00200 ( set maximum deviation from commanded toolpath )
F1.96850 ( Feedrate. )

F1.96850 ( Feedrate. )
M3 ( Spindle on clockwise. )
G04 P0 ( dwell for no time -- G64 should not smooth over this point )
G00 Z0.19685 ( retract )

G00 X0.56184 Y0.28730 ( rapid move to begin. )
F0.98425
G01 Z-0.01969
G04 P0 ( dwell for no time -- G64 should not smooth over this point )
F1.96850
X0.56184 Y0.28730
X0.56084 Y0.28730
X0.56084 Y0.28630
X0.55984 Y0.28630
X0.55984 Y0.28530
X0.55884 Y0.28530
X0.55884 Y0.28430
X0.55784 Y0.28430
X0.55784 Y0.28330
X0.55684 Y0.28330
X0.55684 Y0.28230
X0.55584 Y0.28230
X0.55584 Y0.28130
X0.55484 Y0.28130
X0.55484 Y0.27930
X0.55384 Y0.27930
X0.55384 Y0.27830
X0.55284 Y0.27830
X0.55284 Y0.27630
X0.55184 Y0.27630
X0.55184 Y0.27430
X0.55084 Y0.27430
X0.55084 Y0.27230
X0.54984 Y0.27230
X0.54984 Y0.26830
X0.54884 Y0.26830
X0.54884 Y0.25230
X0.54984 Y0.25230
X0.54984 Y0.24830
X0.55084 Y0.24830
X0.55084 Y0.24730
X0.55184 Y0.24730
X0.55184 Y0.24530
X0.55284 Y0.24530
X0.55284 Y0.24330
X0.55384 Y0.24330
X0.55384 Y0.24230
X0.55484 Y0.24230
X0.55484 Y0.24030
X0.55584 Y0.24030
X0.55584 Y0.23830
X0.55684 Y0.23830
X0.55684 Y0.23730
X0.55784 Y0.23730
X0.55784 Y0.23630
X0.55884 Y0.23630
X0.55884 Y0.23530
X0.55984 Y0.23530
X0.55984 Y0.23330
X0.56084 Y0.23330
X0.56084 Y0.23230
X0.56184 Y0.23230
X0.56184 Y0.23130
X0.56284 Y0.23130
X0.56284 Y0.23030
X0.56484 Y0.23030
X0.56484 Y0.22930
X0.56584 Y0.22930
X0.56584 Y0.22830
X0.56784 Y0.22830
X0.56784 Y0.22730
X0.56984 Y0.22730
X0.56984 Y0.22630
X0.57284 Y0.22630
X0.57284 Y0.22530
X0.57684 Y0.22530
X0.57684 Y0.22430
X0.58284 Y0.22430
X0.58284 Y0.22330
X0.58784 Y0.22330
X0.58784 Y0.22430
X0.59384 Y0.22430
X0.59384 Y0.22530
X0.59784 Y0.22530
X0.59784 Y0.22630
X0.60084 Y0.22630
X0.60084 Y0.22730
X0.60284 Y0.22730
X0.60284 Y0.22830
X0.60484 Y0.22830
X0.60484 Y0.22930
X0.60584 Y0.22930
X0.60584 Y0.23030
X0.60784 Y0.23030
X0.60784 Y0.23130
X0.60884 Y0.23130
X0.60884 Y0.23230
X0.60984 Y0.23230
X0.60984 Y0.23330
X0.61084 Y0.23330
X0.61084 Y0.23430
X0.61184 Y0.23430
X0.61184 Y0.23530
X0.61284 Y0.23530
X0.61284 Y0.23630
X0.61384 Y0.23630
X0.61384 Y0.23730
X0.61484 Y0.23730
X0.61484 Y0.23830
X0.61584 Y0.23830
X0.61584 Y0.24030
X0.61684 Y0.24030
X0.61684 Y0.24130
X0.61784 Y0.24130
X0.61784 Y0.24330
X0.61884 Y0.24330
X0.61884 Y0.24530
X0.61984 Y0.24530
X0.61984 Y0.24830
X0.62084 Y0.24830
X0.62084 Y0.25230
X0.62184 Y0.25230
X0.62184 Y0.25830
X0.62284 Y0.25830
X0.62284 Y0.26330
X0.62184 Y0.26330
X0.62184 Y0.26930
X0.62084 Y0.26930
X0.62084 Y0.27330
X0.61984 Y0.27330
X0.61984 Y0.27630
X0.61884 Y0.27630
X0.61884 Y0.27830
X0.61784 Y0.27830
X0.61784 Y0.28030
X0.61684 Y0.28030
X0.61684 Y0.28130
X0.61584 Y0.28130
X0.61584 Y0.28230
X0.61484 Y0.28230
X0.61484 Y0.28330
X0.61384 Y0.28330
X0.61384 Y0.28430
X0.61284 Y0.28430
X0.61284 Y0.28530
X0.61184 Y0.28530
X0.61184 Y0.28630
X0.61084 Y0.28630
X0.61084 Y0.28730
X0.60984 Y0.28730
X0.60984 Y0.28830
X0.60884 Y0.28830
X0.60884 Y0.28930
X0.60784 Y0.28930
X0.60784 Y0.29030
X0.60584 Y0.29030
X0.60584 Y0.29130
X0.60384 Y0.29130
X0.60384 Y0.29230
X0.60284 Y0.29230
X0.60284 Y0.29330
X0.60084 Y0.29330
X0.60084 Y0.29430
X0.59884 Y0.29430
X0.59884 Y0.29530
X0.59784 Y0.29530
X0.59784 Y0.29630
X0.59384 Y0.29630
X0.59384 Y0.29730
X0.57784 Y0.29730
X0.57784 Y0.29630
X0.57384 Y0.29630
X0.57384 Y0.29530
X0.57184 Y0.29530
X0.57184 Y0.29430
X0.56984 Y0.29430
X0.56984 Y0.29330
X0.56784 Y0.29330
X0.56784 Y0.29230
X0.56684 Y0.29230
X0.56684 Y0.29130
X0.56484 Y0.29130
X0.56484 Y0.29030
X0.56384 Y0.29030
X0.56384 Y0.28930
X0.56284 Y0.28930
X0.56284 Y0.28830
X0.56184 Y0.28830
X0.56184 Y0.28730
G04 P0 ( dwell for no time -- G64 should not smooth over this point )
G00 Z0.19685 ( retract )

G00 X0.56184 Y0.38730 ( rapid move to begin. )
F0.98425
G01 Z-0.01969
G04 P0 ( dwell for no time -- G64 should not smooth over this point )
F1.96850
X0.56184 Y0.38730
X0.56084 Y0.38730
X0.56084 Y0.38630
X0.55984 Y0.38630
X0.55984 Y0.38530
X0.55884 Y0.38530
X0.55884 Y0.38430
X0.55784 Y0.38430
X0.55784 Y0.38330
X0.55684 Y0.38330
X0.55684 Y0.38230
X0.55584 Y0.38230
X0.55584 Y0.38130
X0.55484 Y0.38130
X0.55484 Y0.37930
X0.55384 Y0.37930
X0.55384 Y0.37830
X0.55284 Y0.37830
X0.55284 Y0.37630
X0.55184 Y0.37630
X0.55184 Y0.37430
X0.55084 Y0.37430
X0.55084 Y0.37230
X0.54984 Y0.37230
X0.54984 Y0.36830
X0.54884 Y0.36830
X0.54884 Y0.35230
X0.54984 Y0.35230
X0.54984 Y0.34830
X0.55084 Y0.34830
X0.55084 Y0.34730
X0.55184 Y0.34730
X0.55184 Y0.34530
X0.55284 Y0.34530
X0.55284 Y0.34330
X0.55384 Y0.34330
X0.55384 Y0.34230
X0.55484 Y0.34230
X0.55484 Y0.34030
X0.55584 Y0.34030
X0.55584 Y0.33830
X0.55684 Y0.33830
X0.55684 Y0.33730
X0.55784 Y0.33730
X0.55784 Y0.33630
X0.55884 Y0.33630
X0.55884 Y0.33530
X0.55984 Y0.33530
X0.55984 Y0.33330
X0.56084 Y0.33330
X0.56084 Y0.33230
X0.56184 Y0.33230
X0.56184 Y0.33130
X0.56284 Y0.33130
X0.56284 Y0.33030
X0.56484 Y0.33030
X0.56484 Y0.32930
X0.56584 Y0.32930
X0.56584 Y0.32830
X0.56784 Y0.32830
X0.56784 Y0.32730
X0.56984 Y0.32730
X0.56984 Y0.32630
X0.57284 Y0.32630
X0.57284 Y0.32530
X0.57684 Y0.32530
X0.57684 Y0.32430
X0.58284 Y0.32430
X0.58284 Y0.32330
X0.58784 Y0.32330
X0.58784 Y0.32430
X0.59384 Y0.32430
X0.59384 Y0.32530
X0.59784 Y0.32530
X0.59784 Y0.32630
X0.60084 Y0.32630
X0.60084 Y0.32730
X0.60284 Y0.32730
X0.60284 Y0.32830
X0.60484 Y0.32830
X0.60484 Y0.32930
X0.60584 Y0.32930
X0.60584 Y0.33030
X0.60784 Y0.33030
X0.60784 Y0.33130
X0.60884 Y0.33130
X0.60884 Y0.33230
X0.60984 Y0.33230
X0.60984 Y0.33330
X0.61084 Y0.33330
X0.61084 Y0.33430
X0.61184 Y0.33430
X0.61184 Y0.33530
X0.61284 Y0.33530
X0.61284 Y0.33630
X0.61384 Y0.33630
X0.61384 Y0.33730
X0.61484 Y0.33730
X0.61484 Y0.33830
X0.61584 Y0.33830
X0.61584 Y0.34030
X0.61684 Y0.34030
X0.61684 Y0.34130
X0.61784 Y0.34130
X0.61784 Y0.34330
X0.61884 Y0.34330
X0.61884 Y0.34530
X0.61984 Y0.34530
X0.61984 Y0.34630
X0.62984 Y0.34630
X0.62984 Y0.34530
X0.63084 Y0.34530
X0.63084 Y0.34430
X0.63184 Y0.34430
X0.63184 Y0.34330
X0.63284 Y0.34330
X0.63284 Y0.34230
X0.63384 Y0.34230
X0.63384 Y0.34130
X0.63484 Y0.34130
X0.63484 Y0.34030
X0.63584 Y0.34030
X0.63584 Y0.33830
X0.63684 Y0.33830
X0.63684 Y0.33730
X0.63784 Y0.33730
X0.63784 Y0.33630
X0.63884 Y0.33630
X0.63884 Y0.33530
X0.63984 Y0.33530
X0.63984 Y0.33430
X0.64084 Y0.33430
X0.64084 Y0.33330
X0.64184 Y0.33330
X0.64184 Y0.33230
X0.64284 Y0.33230
X0.64284 Y0.33130
X0.64384 Y0.33130
X0.64384 Y0.33030
X0.64484 Y0.33030
X0.64484 Y0.32930
X0.64584 Y0.32930
X0.64584 Y0.32830
X0.64684 Y0.32830
X0.64684 Y0.32730
X0.64784 Y0.32730
X0.64784 Y0.32630
X0.64884 Y0.32630
X0.64884 Y0.32530
X0.64984 Y0.32530
X0.64984 Y0.32430
X0.65084 Y0.32430
X0.65084 Y0.32230
X0.64984 Y0.32230
X0.64984 Y0.31830
X0.64884 Y0.31830
X0.64884 Y0.30230
X0.64984 Y0.30230
X0.64984 Y0.29830
X0.65084 Y0.29830
X0.65084 Y0.29730
X0.65184 Y0.29730
X0.65184 Y0.29530
X0.65284 Y0.29530
X0.65284 Y0.29330
X0.65384 Y0.29330
X0.65384 Y0.29230
X0.65484 Y0.29230
X0.65484 Y0.29030
X0.65584 Y0.29030
X0.65584 Y0.28830
X0.65684 Y0.28830
X0.65684 Y0.28730
X0.65784 Y0.28730
X0.65784 Y0.28630
X0.65884 Y0.28630
X0.65884 Y0.28530
X0.65984 Y0.28530
X0.65984 Y0.28330
X0.66084 Y0.28330
X0.66084 Y0.28230
X0.66184 Y0.28230
X0.66184 Y0.28130
X0.66284 Y0.28130
X0.66284 Y0.28030
X0.66484 Y0.28030
X0.66484 Y0.27930
X0.66584 Y0.27930
X0.66584 Y0.27830
X0.66784 Y0.27830
X0.66784 Y0.27730
X0.66984 Y0.27730
X0.66984 Y0.27630
X0.67284 Y0.27630
X0.67284 Y0.27530
X0.67684 Y0.27530
X0.67684 Y0.27430
X0.68284 Y0.27430
X0.68284 Y0.27330
X0.68784 Y0.27330
X0.68784 Y0.27430
X0.69384 Y0.27430
X0.69384 Y0.27530
X0.69784 Y0.27530
X0.69784 Y0.27630
X0.70084 Y0.27630
X0.70084 Y0.27730
X0.70284 Y0.27730
X0.70284 Y0.27830
X0.70484 Y0.27830
X0.70484 Y0.27930
X0.70584 Y0.27930
X0.70584 Y0.28030
X0.70784 Y0.28030
X0.70784 Y0.28130
X0.70884 Y0.28130
X0.70884 Y0.28230
X0.70984 Y0.28230
X0.70984 Y0.28330
X0.71084 Y0.28330
X0.71084 Y0.28430
X0.71184 Y0.28430
X0.71184 Y0.28530
X0.71284 Y0.28530
X0.71284 Y0.28630
X0.71384 Y0.28630
X0.71384 Y0.28730
X0.71484 Y0.28730
X0.71484 Y0.28830
X0.71584 Y0.28830
X0.71584 Y0.29030
X0.71684 Y0.29030
X0.71684 Y0.29130
X0.71784 Y0.29130
X0.71784 Y0.29330
X0.71884 Y0.29330
X0.71884 Y0.29530
X0.71984 Y0.29530
X0.71984 Y0.29830
X0.72084 Y0.29830
X0.72084 Y0.30230
X0.72184 Y0.30230
X0.72184 Y0.30830
X0.72284 Y0.30830
X0.72284 Y0.31330
X0.72184 Y0.31330
X0.72184 Y0.31930
X0.72084 Y0.31930
X0.72084 Y0.32330
X0.71984 Y0.32330
X0.71984 Y0.32630
X0.71884 Y0.32630
X0.71884 Y0.32830
X0.71784 Y0.32830
X0.71784 Y0.33030
X0.71684 Y0.33030
X0.71684 Y0.33130
X0.71584 Y0.33130
X0.71584 Y0.33230
X0.71484 Y0.33230
X0.71484 Y0.33330
X0.71384 Y0.33330
X0.71384 Y0.33430
X0.71284 Y0.33430
X0.71284 Y0.33530
X0.71184 Y0.33530
X0.71184 Y0.33630
X0.71084 Y0.33630
X0.71084 Y0.33730
X0.70984 Y0.33730
X0.70984 Y0.33830
X0.70884 Y0.33830
X0.70884 Y0.33930
X0.70784 Y0.33930
X0.70784 Y0.34030
X0.70584 Y0.34030
X0.70584 Y0.34130
X0.70384 Y0.34130
X0.70384 Y0.34230
X0.70284 Y0.34230
X0.70284 Y0.34330
X0.70084 Y0.34330
X0.70084 Y0.34430
X0.69884 Y0.34430
X0.69884 Y0.34530
X0.69784 Y0.34530
X0.69784 Y0.34630
X0.69384 Y0.34630
X0.69384 Y0.34730
X0.67784 Y0.34730
X0.67784 Y0.34630
X0.67384 Y0.34630
X0.67384 Y0.34530
X0.67084 Y0.34530
X0.67084 Y0.34630
X0.66984 Y0.34630
X0.66984 Y0.34730
X0.66884 Y0.34730
X0.66884 Y0.34830
X0.66784 Y0.34830
X0.66784 Y0.34930
X0.66684 Y0.34930
X0.66684 Y0.35030
X0.66584 Y0.35030
X0.66584 Y0.35130
X0.66484 Y0.35130
X0.66484 Y0.35230
X0.66384 Y0.35230
X0.66384 Y0.35330
X0.66284 Y0.35330
X0.66284 Y0.35430
X0.66184 Y0.35430
X0.66184 Y0.35530
X0.66084 Y0.35530
X0.66084 Y0.35630
X0.65984 Y0.35630
X0.65984 Y0.35730
X0.65884 Y0.35730
X0.65884 Y0.35830
X0.65784 Y0.35830
X0.65784 Y0.35930
X0.65684 Y0.35930
X0.65684 Y0.36030
X0.65584 Y0.36030
X0.65584 Y0.36130
X0.65484 Y0.36130
X0.65484 Y0.36230
X0.65384 Y0.36230
X0.65384 Y0.36330
X0.65284 Y0.36330
X0.65284 Y0.36430
X0.65184 Y0.36430
X0.65184 Y0.36530
X0.65084 Y0.36530
X0.65084 Y0.36630
X0.64984 Y0.36630
X0.64984 Y0.36730
X0.64884 Y0.36730
X0.64884 Y0.36830
X0.64784 Y0.36830
X0.64784 Y0.36930
X0.64684 Y0.36930
X0.64684 Y0.37030
X0.64484 Y0.37030
X0.64484 Y0.37130
X0.64384 Y0.37130
X0.64384 Y0.37230
X0.64284 Y0.37230
X0.64284 Y0.37330
X0.64084 Y0.37330
X0.64084 Y0.37430
X0.63884 Y0.37430
X0.63884 Y0.37530
X0.61984 Y0.37530
X0.61984 Y0.37630
X0.61884 Y0.37630
X0.61884 Y0.37830
X0.61784 Y0.37830
X0.61784 Y0.38030
X0.61684 Y0.38030
X0.61684 Y0.38130
X0.61584 Y0.38130
X0.61584 Y0.38230
X0.61484 Y0.38230
X0.61484 Y0.38330
X0.61384 Y0.38330
X0.61384 Y0.38430
X0.61284 Y0.38430
X0.61284 Y0.38530
X0.61184 Y0.38530
X0.61184 Y0.38630
X0.61084 Y0.38630
X0.61084 Y0.38730
X0.60984 Y0.38730
X0.60984 Y0.38830
X0.60884 Y0.38830
X0.60884 Y0.38930
X0.60784 Y0.38930
X0.60784 Y0.39030
X0.60584 Y0.39030
X0.60584 Y0.39130
X0.60384 Y0.39130
X0.60384 Y0.39230
X0.60284 Y0.39230
X0.60284 Y0.39330
X0.60084 Y0.39330
X0.60084 Y0.39430
X0.59884 Y0.39430
X0.59884 Y0.39530
X0.59784 Y0.39530
X0.59784 Y0.39630
X0.59384 Y0.39630
X0.59384 Y0.39730
X0.57784 Y0.39730
X0.57784 Y0.39630
X0.57384 Y0.39630
X0.57384 Y0.39530
X0.57184 Y0.39530
X0.57184 Y0.39430
X0.56984 Y0.39430
X0.56984 Y0.39330
X0.56784 Y0.39330
X0.56784 Y0.39230
X0.56684 Y0.39230
X0.56684 Y0.39130
X0.56484 Y0.39130
X0.56484 Y0.39030
X0.56384 Y0.39030
X0.56384 Y0.38930
X0.56284 Y0.38930
X0.56284 Y0.38830
X0.56184 Y0.38830
X0.56184 Y0.38730
G04 P0 ( dwell for no time -- G64 should not smooth over this point )
G00 Z0.19685 ( retract )

G00 X0.66184 Y0.43730 ( rapid move to begin. )
F0.98425
G01 Z-0.01969
G04 P0 ( dwell for no time -- G64 should not smooth over this point )
F1.96850
X0.66184 Y0.43730
X0.66084 Y0.43730
X0.66084 Y0.43630
X0.65984 Y0.43630
X0.65984 Y0.43530
X0.65884 Y0.43530
X0.65884 Y0.43430
X0.65784 Y0.43430
X0.65784 Y0.43330
X0.65684 Y0.43330
X0.65684 Y0.43230
X0.65584 Y0.43230
X0.65584 Y0.43130
X0.65484 Y0.43130
X0.65484 Y0.42930
X0.65384 Y0.42930
X0.65384 Y0.42830
X0.65284 Y0.42830
X0.65284 Y0.42630
X0.65184 Y0.42630
X0.65184 Y0.42430
X0.65084 Y0.42430
X0.65084 Y0.42230
X0.64984 Y0.42230
X0.64984 Y0.41830
X0.64884 Y0.41830
X0.64884 Y0.40230
X0.64984 Y0.40230
X0.64984 Y0.39830
X0.65084 Y0.39830
X0.65084 Y0.39730
X0.65184 Y0.39730
X0.65184 Y0.39530
X0.65284 Y0.39530
X0.65284 Y0.39330
X0.65384 Y0.39330
X0.65384 Y0.39230
X0.65484 Y0.39230
X0.65484 Y0.39030
X0.65584 Y0.39030
X0.65584 Y0.38830
X0.65684 Y0.38830
X0.65684 Y0.38730
X0.65784 Y0.38730
X0.65784 Y0.38630
X0.65884 Y0.38630
X0.65884 Y0.38530
X0.65984 Y0.38530
X0.65984 Y0.38330
X0.66084 Y0.38330
X0.66084 Y0.38230
X0.66184 Y0.38230
X0.66184 Y0.38130
X0.66284 Y0.38130
X0.66284 Y0.38030
X0.66484 Y0.38030
X0.66484 Y0.37930
X0.66584 Y0.37930
X0.66584 Y0.37830
X0.66784 Y0.37830
X0.66784 Y0.37730
X0.66984 Y0.37730
X0.66984 Y0.37630
X0.67284 Y0.37630
X0.67284 Y0.37530
X0.67684 Y0.37530
X0.67684 Y0.37430
X0.68284 Y0.37430
X0.68284 Y0.37330
X0.68784 Y0.37330
X0.68784 Y0.37430
X0.69384 Y0.37430
X0.69384 Y0.37530
X0.69784 Y0.37530
X0.69784 Y0.37630
X0.70084 Y0.37630
X0.70084 Y0.37730
X0.70284 Y0.37730
X0.70284 Y0.37830
X0.70484 Y0.37830
X0.70484 Y0.37930
X0.70584 Y0.37930
X0.70584 Y0.38030
X0.70784 Y0.38030
X0.70784 Y0.38130
X0.70884 Y0.38130
X0.70884 Y0.38230
X0.70984 Y0.38230
X0.70984 Y0.38330
X0.71084 Y0.38330
X0.71084 Y0.38430
X0.71184 Y0.38430
X0.71184 Y0.38530
X0.71284 Y0.38530
X0.71284 Y0.38630
X0.71384 Y0.38630
X0.71384 Y0.38730
X0.71484 Y0.38730
X0.71484 Y0.38830
X0.71584 Y0.38830
X0.71584 Y0.39030
X0.71684 Y0.39030
X0.71684 Y0.39130
X0.71784 Y0.39130
X0.71784 Y0.39330
X0.71884 Y0.39330
X0.71884 Y0.39530
X0.71984 Y0.39530
X0.71984 Y0.39830
X0.72084 Y0.39830
X0.72084 Y0.40230
X0.72184 Y0.40230
X0.72184 Y0.40830
X0.72284 Y0.40830
X0.72284 Y0.41630
X0.78084 Y0.41630
X0.78084 Y0.41730
X0.78584 Y0.41730
X0.78584 Y0.41830
X0.78984 Y0.41830
X0.78984 Y0.41930
X0.79584 Y0.41930
X0.79584 Y0.42030
X0.82484 Y0.42030
X0.82484 Y0.41930
X0.83084 Y0.41930
X0.83084 Y0.41830
X0.83484 Y0.41830
X0.83484 Y0.41730
X0.83984 Y0.41730
X0.83984 Y0.41630
X0.84184 Y0.41630
X0.84184 Y0.41530
X0.84384 Y0.41530
X0.84384 Y0.41630
X1.06584 Y0.41630
X1.06584 Y0.41530
X1.07084 Y0.41530
X1.07084 Y0.41630
X1.07184 Y0.41630
X1.07184 Y0.41730
X1.07284 Y0.41730
X1.07284 Y0.41830
X1.07384 Y0.41830
X1.07384 Y0.41930
X1.07484 Y0.41930
X1.07484 Y0.42030
X1.14584 Y0.42030
X1.14584 Y0.41930
X1.14684 Y0.41930
X1.14684 Y0.41830
X1.14784 Y0.41830
X1.14784 Y0.41730
X1.14884 Y0.41730
X1.14884 Y0.41630
X1.14984 Y0.41630
X1.14984 Y0.41530
X1.15484 Y0.41530
X1.15484 Y0.41630
X1.26084 Y0.41630
X1.26084 Y0.41730
X1.26584 Y0.41730
X1.26584 Y0.41830
X1.26984 Y0.41830
X1.26984 Y0.41930
X1.27584 Y0.41930
X1.27584 Y0.42030
X1.30484 Y0.42030
X1.30484 Y0.41930
X1.31084 Y0.41930
X1.31084 Y0.41830
X1.31484 Y0.41830
X1.31484 Y0.41730
X1.31984 Y0.41730
X1.31984 Y0.41630
X1.32184 Y0.41630
X1.32184 Y0.41530
X1.32384 Y0.41530
X1.32384 Y0.41630
X1.54584 Y0.41630
X1.54584 Y0.41530
X1.55084 Y0.41530
X1.55084 Y0.41630
X1.55184 Y0.41630
X1.55184 Y0.41730
X1.55284 Y0.41730
X1.55284 Y0.41830
X1.55384 Y0.41830
X1.55384 Y0.41930
X1.55484 Y0.41930
X1.55484 Y0.42030
X1.62584 Y0.42030
X1.62584 Y0.41930
X1.62684 Y0.41930
X1.62684 Y0.41830
X1.62784 Y0.41830
X1.62784 Y0.41730
X1.62884 Y0.41730
X1.62884 Y0.41630
X1.62984 Y0.41630
X1.62984 Y0.41530
X1.63484 Y0.41530
X1.63484 Y0.41630
X1.67884 Y0.41630
X1.67884 Y0.40230
X1.67984 Y0.40230
X1.67984 Y0.39830
X1.68084 Y0.39830
X1.68084 Y0.39730
X1.68184 Y0.39730
X1.68184 Y0.39530
X1.68284 Y0.39530
X1.68284 Y0.39330
X1.68384 Y0.39330
X1.68384 Y0.39230
X1.68484 Y0.39230
X1.68484 Y0.39030
X1.68584 Y0.39030
X1.68584 Y0.38830
X1.68684 Y0.38830
X1.68684 Y0.38730
X1.68784 Y0.38730
X1.68784 Y0.38630
X1.68884 Y0.38630
X1.68884 Y0.38530
X1.68984 Y0.38530
X1.68984 Y0.38330
X1.69084 Y0.38330
X1.69084 Y0.38230
X1.69184 Y0.38230
X1.69184 Y0.38130
X1.69284 Y0.38130
X1.69284 Y0.38030
X1.69484 Y0.38030
X1.69484 Y0.37930
X1.69584 Y0.37930
X1.69584 Y0.37830
X1.69784 Y0.37830
X1.69784 Y0.37730
X1.69984 Y0.37730
X1.69984 Y0.37630
X1.70284 Y0.37630
X1.70284 Y0.37530
X1.70684 Y0.37530
X1.70684 Y0.37430
X1.71284 Y0.37430
X1.71284 Y0.37330
X1.71784 Y0.37330
X1.71784 Y0.37430
X1.72384 Y0.37430
X1.72384 Y0.37530
X1.72784 Y0.37530
X1.72784 Y0.37630
X1.73084 Y0.37630
X1.73084 Y0.37730
X1.73284 Y0.37730
X1.73284 Y0.37830
X1.73484 Y0.37830
X1.73484 Y0.37930
X1.73584 Y0.37930
X1.73584 Y0.38030
X1.73784 Y0.38030
X1.73784 Y0.38130
X1.73884 Y0.38130
X1.73884 Y0.38230
X1.73984 Y0.38230
X1.73984 Y0.38330
X1.74084 Y0.38330
X1.74084 Y0.38430
X1.74184 Y0.38430
X1.74184 Y0.38530
X1.74284 Y0.38530
X1.74284 Y0.38630
X1.74384 Y0.38630
X1.74384 Y0.38730
X1.74484 Y0.38730
X1.74484 Y0.38830
X1.74584 Y0.38830
X1.74584 Y0.39030
X1.74684 Y0.39030
X1.74684 Y0.39130
X1.74784 Y0.39130
X1.74784 Y0.39330
X1.74884 Y0.39330
X1.74884 Y0.39530
X1.74984 Y0.39530
X1.74984 Y0.39830
X1.75084 Y0.39830
X1.75084 Y0.40230
X1.75184 Y0.40230
X1.75184 Y0.40830
X1.75284 Y0.40830
X1.75284 Y0.41330
X1.75184 Y0.41330
X1.75184 Y0.41930
X1.75084 Y0.41930
X1.75084 Y0.42330
X1.74984 Y0.42330
X1.74984 Y0.42630
X1.74884 Y0.42630
X1.74884 Y0.42830
X1.74784 Y0.42830
X1.74784 Y0.42930
X1.74684 Y0.42930
X1.74684 Y0.43030
X1.74584 Y0.43030
X1.74584 Y0.43230
X1.74484 Y0.43230
X1.74484 Y0.43330
X1.74384 Y0.43330
X1.74384 Y0.43430
X1.74284 Y0.43430
X1.74284 Y0.43530
X1.74184 Y0.43530
X1.74184 Y0.43630
X1.74084 Y0.43630
X1.74084 Y0.43730
X1.73984 Y0.43730
X1.73984 Y0.43830
X1.73884 Y0.43830
X1.73884 Y0.43930
X1.73784 Y0.43930
X1.73784 Y0.44030
X1.73584 Y0.44030
X1.73584 Y0.44130
X1.73384 Y0.44130
X1.73384 Y0.44230
X1.73284 Y0.44230
X1.73284 Y0.44330
X1.73084 Y0.44330
X1.73084 Y0.44430
X1.72984 Y0.44430
X1.72984 Y0.44630
X1.70984 Y0.44630
X1.70984 Y0.44530
X1.70884 Y0.44530
X1.70884 Y0.44430
X1.70784 Y0.44430
X1.70784 Y0.44330
X1.70684 Y0.44330
X1.70684 Y0.44230
X1.70584 Y0.44230
X1.70584 Y0.44030
X1.69484 Y0.44030
X1.69484 Y0.44130
X1.69184 Y0.44130
X1.69184 Y0.44030
X0.85284 Y0.44030
X0.85284 Y0.44130
X0.84884 Y0.44130
X0.84884 Y0.44230
X0.84584 Y0.44230
X0.84584 Y0.44330
X0.69784 Y0.44330
X0.69784 Y0.44430
X0.67284 Y0.44430
X0.67284 Y0.44330
X0.66584 Y0.44330
X0.66584 Y0.44230
X0.66384 Y0.44230
X0.66384 Y0.43930
X0.66284 Y0.43930
X0.66284 Y0.43830
X0.66184 Y0.43830
X0.66184 Y0.43730
G04 P0 ( dwell for no time -- G64 should not smooth over this point )
G00 Z0.19685 ( retract )

G00 X0.77784 Y0.41530 ( rapid move to begin. )
F0.98425
G01 Z-0.01969
G04 P0 ( dwell for no time -- G64 should not smooth over this point )
F1.96850
X0.77784 Y0.41530
X0.77784 Y0.41430
X0.77684 Y0.41430
X0.77684 Y0.41330
X0.77584 Y0.41330
X0.77584 Y0.41230
X0.77484 Y0.41230
X0.77484 Y0.41030
X0.77384 Y0.41030
X0.77384 Y0.40930
X0.77284 Y0.40930
X0.77284 Y0.40730
X0.77184 Y0.40730
X0.77184 Y0.40430
X0.77084 Y0.40430
X0.77084 Y0.39930
X0.76984 Y0.39930
X0.76984 Y0.37230
X0.77084 Y0.37230
X0.77084 Y0.36730
X0.77184 Y0.36730
X0.77184 Y0.36330
X0.77284 Y0.36330
X0.77284 Y0.36130
X0.77384 Y0.36130
X0.77384 Y0.36030
X0.77484 Y0.36030
X0.77484 Y0.35830
X0.77584 Y0.35830
X0.77584 Y0.35730
X0.77684 Y0.35730
X0.77684 Y0.35630
X0.77784 Y0.35630
X0.77784 Y0.35530
X0.77884 Y0.35530
X0.77884 Y0.35430
X0.77984 Y0.35430
X0.77984 Y0.35330
X0.78084 Y0.35330
X0.78084 Y0.35230
X0.78184 Y0.35230
X0.78184 Y0.35130
X0.78284 Y0.35130
X0.78284 Y0.35030
X0.78384 Y0.35030
X0.78384 Y0.34930
X0.78584 Y0.34930
X0.78584 Y0.34830
X0.78784 Y0.34830
X0.78784 Y0.34730
X0.79084 Y0.34730
X0.79084 Y0.34630
X0.79684 Y0.34630
X0.79684 Y0.34530
X0.82384 Y0.34530
X0.82384 Y0.34630
X0.82984 Y0.34630
X0.82984 Y0.34730
X0.83284 Y0.34730
X0.83284 Y0.34830
X0.83484 Y0.34830
X0.83484 Y0.34930
X0.83684 Y0.34930
X0.83684 Y0.35030
X0.83784 Y0.35030
X0.83784 Y0.35130
X0.83984 Y0.35130
X0.83984 Y0.35230
X0.84084 Y0.35230
X0.84084 Y0.35330
X0.84184 Y0.35330
X0.84184 Y0.35430
X0.84284 Y0.35430
X0.84284 Y0.35530
X0.84384 Y0.35530
X0.84384 Y0.35630
X0.84484 Y0.35630
X0.84484 Y0.35830
X0.84584 Y0.35830
X0.84584 Y0.35930
X0.84684 Y0.35930
X0.84684 Y0.36130
X0.84784 Y0.36130
X0.84784 Y0.36230
X0.84884 Y0.36230
X0.84884 Y0.36730
X0.84984 Y0.36730
X0.84984 Y0.37230
X0.85084 Y0.37230
X0.85084 Y0.39930
X0.84984 Y0.39930
X0.84984 Y0.40430
X0.84884 Y0.40430
X0.84884 Y0.40830
X0.84784 Y0.40830
X0.84784 Y0.41030
X0.84684 Y0.41030
X0.84684 Y0.41230
X0.84584 Y0.41230
X0.84584 Y0.41330
X0.84484 Y0.41330
X0.84484 Y0.41430
X0.84384 Y0.41430
X0.84384 Y0.41530
X0.84184 Y0.41530
X0.84184 Y0.41630
X0.83984 Y0.41630
X0.83984 Y0.41730
X0.83484 Y0.41730
X0.83484 Y0.41830
X0.83084 Y0.41830
X0.83084 Y0.41930
X0.82484 Y0.41930
X0.82484 Y0.42030
X0.79584 Y0.42030
X0.79584 Y0.41930
X0.78984 Y0.41930
X0.78984 Y0.41830
X0.78584 Y0.41830
X0.78584 Y0.41730
X0.78084 Y0.41730
X0.78084 Y0.41630
X0.77784 Y0.41630
X0.77784 Y0.41530
G04 P0 ( dwell for no time -- G64 should not smooth over this point )
G00 Z0.19685 ( retract )

G00 X0.77784 Y0.31530 ( rapid move to begin. )
F0.98425
G01 Z-0.01969
G04 P0 ( dwell for no time -- G64 should not smooth over this point )
F1.96850
X0.77784 Y0.31530
X0.77684 Y0.31530
X0.77684 Y0.31330
X0.77584 Y0.31330
X0.77584 Y0.31230
X0.77484 Y0.31230
X0.77484 Y0.31030
X0.77384 Y0.31030
X0.77384 Y0.30930
X0.77284 Y0.30930
X0.77284 Y0.30730
X0.77184 Y0.30730
X0.77184 Y0.30430
X0.77084 Y0.30430
X0.77084 Y0.29930
X0.76984 Y0.29930
X0.76984 Y0.27230
X0.77084 Y0.27230
X0.77084 Y0.26730
X0.77184 Y0.26730
X0.77184 Y0.26330
X0.77284 Y0.26330
X0.77284 Y0.26130
X0.77384 Y0.26130
X0.77384 Y0.26030
X0.77484 Y0.26030
X0.77484 Y0.25830
X0.77584 Y0.25830
X0.77584 Y0.25730
X0.77684 Y0.25730
X0.77684 Y0.25630
X0.77784 Y0.25630
X0.77784 Y0.25530
X0.77884 Y0.25530
X0.77884 Y0.25430
X0.77984 Y0.25430
X0.77984 Y0.25330
X0.78084 Y0.25330
X0.78084 Y0.25230
X0.78184 Y0.25230
X0.78184 Y0.25130
X0.78284 Y0.25130
X0.78284 Y0.25030
X0.78384 Y0.25030
X0.78384 Y0.24930
X0.78584 Y0.24930
X0.78584 Y0.24830
X0.78784 Y0.24830
X0.78784 Y0.24730
X0.79084 Y0.24730
X0.79084 Y0.24630
X0.79484 Y0.24630
X0.79484 Y0.24330
X0.79584 Y0.24330
X0.79584 Y0.22730
X0.79484 Y0.22730
X0.79484 Y0.22530
X0.79084 Y0.22530
X0.79084 Y0.22430
X0.78884 Y0.22430
X0.78884 Y0.22330
X0.78684 Y0.22330
X0.78684 Y0.22230
X0.78584 Y0.22230
X0.78584 Y0.22130
X0.78384 Y0.22130
X0.78384 Y0.22030
X0.78284 Y0.22030
X0.78284 Y0.21930
X0.78084 Y0.21930
X0.78084 Y0.21830
X0.77984 Y0.21830
X0.77984 Y0.21730
X0.77884 Y0.21730
X0.77884 Y0.21630
X0.77784 Y0.21630
X0.77784 Y0.21530
X0.77684 Y0.21530
X0.77684 Y0.21330
X0.77584 Y0.21330
X0.77584 Y0.21230
X0.77484 Y0.21230
X0.77484 Y0.21030
X0.77384 Y0.21030
X0.77384 Y0.20930
X0.77284 Y0.20930
X0.77284 Y0.20730
X0.77184 Y0.20730
X0.77184 Y0.20430
X0.77084 Y0.20430
X0.77084 Y0.19930
X0.76984 Y0.19930
X0.76984 Y0.17230
X0.77084 Y0.17230
X0.77084 Y0.16730
X0.77184 Y0.16730
X0.77184 Y0.16330
X0.77284 Y0.16330
X0.77284 Y0.16130
X0.77384 Y0.16130
X0.77384 Y0.16030
X0.77484 Y0.16030
X0.77484 Y0.15830
X0.77584 Y0.15830
X0.77584 Y0.15730
X0.77684 Y0.15730
X0.77684 Y0.15630
X0.77784 Y0.15630
X0.77784 Y0.15530
X0.77884 Y0.15530
X0.77884 Y0.15430
X0.77984 Y0.15430
X0.77984 Y0.15330
X0.78084 Y0.15330
X0.78084 Y0.15230
X0.78184 Y0.15230
X0.78184 Y0.15130
X0.78284 Y0.15130
X0.78284 Y0.15030
X0.78384 Y0.15030
X0.78384 Y0.14930
X0.78584 Y0.14930
X0.78584 Y0.14830
X0.78784 Y0.14830
X0.78784 Y0.14730
X0.79084 Y0.14730
X0.79084 Y0.14630
X0.79684 Y0.14630
X0.79684 Y0.14530
X0.82284 Y0.14530
X0.82284 Y0.14430
X0.82384 Y0.14430
X0.82384 Y0.14330
X0.82584 Y0.14330
X0.82584 Y0.14430
X0.82884 Y0.14430
X0.82884 Y0.14530
X0.83084 Y0.14530
X0.83084 Y0.14430
X0.83184 Y0.14430
X0.83184 Y0.14330
X0.83284 Y0.14330
X0.83284 Y0.14230
X0.83384 Y0.14230
X0.83384 Y0.14130
X0.83484 Y0.14130
X0.83484 Y0.14030
X0.83584 Y0.14030
X0.83584 Y0.13930
X0.83684 Y0.13930
X0.83684 Y0.13830
X0.83784 Y0.13830
X0.83784 Y0.13730
X0.83884 Y0.13730
X0.83884 Y0.13630
X0.83984 Y0.13630
X0.83984 Y0.13530
X0.84084 Y0.13530
X0.84084 Y0.13430
X0.84184 Y0.13430
X0.84184 Y0.13330
X0.84284 Y0.13330
X0.84284 Y0.13230
X0.84384 Y0.13230
X0.84384 Y0.13130
X0.84484 Y0.13130
X0.84484 Y0.13030
X0.84584 Y0.13030
X0.84584 Y0.12930
X0.84684 Y0.12930
X0.84684 Y0.12830
X0.84784 Y0.12830
X0.84784 Y0.12730
X0.84884 Y0.12730
X0.84884 Y0.12630
X0.84984 Y0.12630
X0.84984 Y0.12530
X0.85384 Y0.12530
X0.85384 Y0.12430
X1.08684 Y0.12430
X1.08684 Y0.12330
X1.09184 Y0.12330
X1.09184 Y0.12430
X1.12884 Y0.12430
X1.12884 Y0.12330
X1.13484 Y0.12330
X1.13484 Y0.12430
X1.26684 Y0.12430
X1.26684 Y0.12330
X1.27184 Y0.12330
X1.27184 Y0.12430
X1.30884 Y0.12430
X1.30884 Y0.12330
X1.31484 Y0.12330
X1.31484 Y0.12430
X1.56684 Y0.12430
X1.56684 Y0.12330
X1.57184 Y0.12330
X1.57184 Y0.12430
X1.60884 Y0.12430
X1.60884 Y0.12330
X1.61484 Y0.12330
X1.61484 Y0.12430
X1.64684 Y0.12430
X1.64684 Y0.12530
X1.65084 Y0.12530
X1.65084 Y0.12630
X1.65184 Y0.12630
X1.65184 Y0.12730
X1.65284 Y0.12730
X1.65284 Y0.12830
X1.65384 Y0.12830
X1.65384 Y0.12930
X1.65484 Y0.12930
X1.65484 Y0.13030
X1.65584 Y0.13030
X1.65584 Y0.13130
X1.65684 Y0.13130
X1.65684 Y0.13230
X1.65784 Y0.13230
X1.65784 Y0.13330
X1.65884 Y0.13330
X1.65884 Y0.13430
X1.65984 Y0.13430
X1.65984 Y0.13530
X1.66084 Y0.13530
X1.66084 Y0.13630
X1.66184 Y0.13630
X1.66184 Y0.13730
X1.66284 Y0.13730
X1.66284 Y0.13830
X1.66384 Y0.13830
X1.66384 Y0.13930
X1.66484 Y0.13930
X1.66484 Y0.14030
X1.66584 Y0.14030
X1.66584 Y0.14130
X1.66684 Y0.14130
X1.66684 Y0.14230
X1.66784 Y0.14230
X1.66784 Y0.14330
X1.66884 Y0.14330
X1.66884 Y0.14430
X1.66984 Y0.14430
X1.66984 Y0.14530
X1.67084 Y0.14530
X1.67084 Y0.14630
X1.67184 Y0.14630
X1.67184 Y0.14730
X1.67284 Y0.14730
X1.67284 Y0.14830
X1.67384 Y0.14830
X1.67384 Y0.14930
X1.67484 Y0.14930
X1.67484 Y0.15030
X1.67584 Y0.15030
X1.67584 Y0.15130
X1.67684 Y0.15130
X1.67684 Y0.15230
X1.67784 Y0.15230
X1.67784 Y0.15330
X1.67884 Y0.15330
X1.67884 Y0.15430
X1.67984 Y0.15430
X1.67984 Y0.15530
X1.68084 Y0.15530
X1.68084 Y0.15630
X1.68184 Y0.15630
X1.68184 Y0.15730
X1.68284 Y0.15730
X1.68284 Y0.15830
X1.68384 Y0.15830
X1.68384 Y0.15930
X1.68584 Y0.15930
X1.68584 Y0.16030
X1.68684 Y0.16030
X1.68684 Y0.16130
X1.68784 Y0.16130
X1.68784 Y0.16230
X1.68884 Y0.16230
X1.68884 Y0.16330
X1.68984 Y0.16330
X1.68984 Y0.16430
X1.69084 Y0.16430
X1.69084 Y0.16530
X1.69184 Y0.16530
X1.69184 Y0.16630
X1.69284 Y0.16630
X1.69284 Y0.16730
X1.69384 Y0.16730
X1.69384 Y0.16830
X1.69484 Y0.16830
X1.69484 Y0.16930
X1.69584 Y0.16930
X1.69584 Y0.17030
X1.69684 Y0.17030
X1.69684 Y0.17130
X1.69784 Y0.17130
X1.69784 Y0.17230
X1.69884 Y0.17230
X1.69884 Y0.17330
X1.69984 Y0.17330
X1.69984 Y0.17430
X1.70084 Y0.17430
X1.70084 Y0.17530
X1.70184 Y0.17530
X1.70184 Y0.17630
X1.70384 Y0.17630
X1.70384 Y0.17530
X1.70684 Y0.17530
X1.70684 Y0.17430
X1.71284 Y0.17430
X1.71284 Y0.17330
X1.71784 Y0.17330
X1.71784 Y0.17430
X1.72384 Y0.17430
X1.72384 Y0.17530
X1.72784 Y0.17530
X1.72784 Y0.17630
X1.73084 Y0.17630
X1.73084 Y0.17730
X1.73284 Y0.17730
X1.73284 Y0.17830
X1.73484 Y0.17830
X1.73484 Y0.17930
X1.73584 Y0.17930
X1.73584 Y0.18030
X1.73784 Y0.18030
X1.73784 Y0.18130
X1.73884 Y0.18130
X1.73884 Y0.18230
X1.73984 Y0.18230
X1.73984 Y0.18330
X1.74084 Y0.18330
X1.74084 Y0.18430
X1.74184 Y0.18430
X1.74184 Y0.18530
X1.74284 Y0.18530
X1.74284 Y0.18630
X1.74384 Y0.18630
X1.74384 Y0.18730
X1.74484 Y0.18730
X1.74484 Y0.18830
X1.74584 Y0.18830
X1.74584 Y0.19030
X1.74684 Y0.19030
X1.74684 Y0.19130
X1.74784 Y0.19130
X1.74784 Y0.19330
X1.74884 Y0.19330
X1.74884 Y0.19530
X1.74984 Y0.19530
X1.74984 Y0.19830
X1.75084 Y0.19830
X1.75084 Y0.20230
X1.75184 Y0.20230
X1.75184 Y0.20830
X1.75284 Y0.20830
X1.75284 Y0.21330
X1.75184 Y0.21330
X1.75184 Y0.21930
X1.75084 Y0.21930
X1.75084 Y0.22330
X1.74984 Y0.22330
X1.74984 Y0.22630
X1.74884 Y0.22630
X1.74884 Y0.22830
X1.74784 Y0.22830
X1.74784 Y0.22930
X1.74684 Y0.22930
X1.74684 Y0.23030
X1.74584 Y0.23030
X1.74584 Y0.23230
X1.74484 Y0.23230
X1.74484 Y0.23330
X1.74384 Y0.23330
X1.74384 Y0.23430
X1.74284 Y0.23430
X1.74284 Y0.23530
X1.74184 Y0.23530
X1.74184 Y0.23630
X1.74084 Y0.23630
X1.74084 Y0.23730
X1.73984 Y0.23730
X1.73984 Y0.23830
X1.73884 Y0.23830
X1.73884 Y0.23930
X1.73784 Y0.23930
X1.73784 Y0.24030
X1.73584 Y0.24030
X1.73584 Y0.24130
X1.73384 Y0.24130
X1.73384 Y0.24230
X1.73284 Y0.24230
X1.73284 Y0.24330
X1.73084 Y0.24330
X1.73084 Y0.24430
X1.72884 Y0.24430
X1.72884 Y0.24530
X1.72784 Y0.24530
X1.72784 Y0.24630
X1.72384 Y0.24630
X1.72384 Y0.24730
X1.70784 Y0.24730
X1.70784 Y0.24630
X1.70384 Y0.24630
X1.70384 Y0.24530
X1.70184 Y0.24530
X1.70184 Y0.24430
X1.69984 Y0.24430
X1.69984 Y0.24330
X1.69784 Y0.24330
X1.69784 Y0.24230
X1.69684 Y0.24230
X1.69684 Y0.24130
X1.69484 Y0.24130
X1.69484 Y0.24030
X1.69384 Y0.24030
X1.69384 Y0.23930
X1.69284 Y0.23930
X1.69284 Y0.23830
X1.69184 Y0.23830
X1.69184 Y0.23730
X1.69084 Y0.23730
X1.69084 Y0.23630
X1.68984 Y0.23630
X1.68984 Y0.23530
X1.68884 Y0.23530
X1.68884 Y0.23430
X1.68784 Y0.23430
X1.68784 Y0.23330
X1.68684 Y0.23330
X1.68684 Y0.23230
X1.68584 Y0.23230
X1.68584 Y0.23030
X1.68484 Y0.23030
X1.68484 Y0.22930
X1.68384 Y0.22930
X1.68384 Y0.22830
X1.68284 Y0.22830
X1.68284 Y0.22630
X1.68184 Y0.22630
X1.68184 Y0.22430
X1.68084 Y0.22430
X1.68084 Y0.22230
X1.67984 Y0.22230
X1.67984 Y0.21830
X1.67884 Y0.21830
X1.67884 Y0.20230
X1.67984 Y0.20230
X1.67984 Y0.19830
X1.68084 Y0.19830
X1.68084 Y0.19530
X1.67984 Y0.19530
X1.67984 Y0.19430
X1.67884 Y0.19430
X1.67884 Y0.19330
X1.67784 Y0.19330
X1.67784 Y0.19230
X1.67684 Y0.19230
X1.67684 Y0.19130
X1.67584 Y0.19130
X1.67584 Y0.19030
X1.67484 Y0.19030
X1.67484 Y0.18930
X1.67384 Y0.18930
X1.67384 Y0.18830
X1.67284 Y0.18830
X1.67284 Y0.18730
X1.67184 Y0.18730
X1.67184 Y0.18630
X1.67084 Y0.18630
X1.67084 Y0.18530
X1.66984 Y0.18530
X1.66984 Y0.18430
X1.66884 Y0.18430
X1.66884 Y0.18330
X1.66784 Y0.18330
X1.66784 Y0.18230
X1.66684 Y0.18230
X1.66684 Y0.18130
X1.66584 Y0.18130
X1.66584 Y0.18030
X1.66484 Y0.18030
X1.66484 Y0.17930
X1.66384 Y0.17930
X1.66384 Y0.17830
X1.66284 Y0.17830
X1.66284 Y0.17730
X1.66184 Y0.17730
X1.66184 Y0.17630
X1.66084 Y0.17630
X1.66084 Y0.17530
X1.65984 Y0.17530
X1.65984 Y0.17430
X1.65884 Y0.17430
X1.65884 Y0.17330
X1.65784 Y0.17330
X1.65784 Y0.17230
X1.65684 Y0.17230
X1.65684 Y0.17130
X1.65584 Y0.17130
X1.65584 Y0.17030
X1.65484 Y0.17030
X1.65484 Y0.16930
X1.65384 Y0.16930
X1.65384 Y0.16830
X1.65284 Y0.16830
X1.65284 Y0.16730
X1.65184 Y0.16730
X1.65184 Y0.16630
X1.65084 Y0.16630
X1.65084 Y0.16530
X1.64984 Y0.16530
X1.64984 Y0.16430
X1.64884 Y0.16430
X1.64884 Y0.16330
X1.64784 Y0.16330
X1.64784 Y0.16230
X1.64684 Y0.16230
X1.64684 Y0.16130
X1.64584 Y0.16130
X1.64584 Y0.16030
X1.64484 Y0.16030
X1.64484 Y0.15930
X1.64384 Y0.15930
X1.64384 Y0.15830
X1.64284 Y0.15830
X1.64284 Y0.15730
X1.64184 Y0.15730
X1.64184 Y0.15630
X1.64084 Y0.15630
X1.64084 Y0.15530
X1.63984 Y0.15530
X1.63984 Y0.15430
X1.63884 Y0.15430
X1.63884 Y0.15330
X1.61884 Y0.15330
X1.61884 Y0.15230
X1.61484 Y0.15230
X1.61484 Y0.15130
X1.60984 Y0.15130
X1.60984 Y0.15030
X1.59984 Y0.15030
X1.59984 Y0.14930
X1.58084 Y0.14930
X1.58084 Y0.15030
X1.57084 Y0.15030
X1.57084 Y0.15130
X1.56584 Y0.15130
X1.56584 Y0.15030
X1.56484 Y0.15030
X1.56484 Y0.14930
X1.56384 Y0.14930
X1.56384 Y0.14830
X1.31784 Y0.14830
X1.31784 Y0.14930
X1.31684 Y0.14930
X1.31684 Y0.15030
X1.31584 Y0.15030
X1.31584 Y0.15130
X1.31484 Y0.15130
X1.31484 Y0.15230
X1.31184 Y0.15230
X1.31184 Y0.15130
X1.30584 Y0.15130
X1.30584 Y0.15030
X1.27484 Y0.15030
X1.27484 Y0.15130
X1.26884 Y0.15130
X1.26884 Y0.15230
X1.26684 Y0.15230
X1.26684 Y0.15130
X1.26584 Y0.15130
X1.26584 Y0.15030
X1.26484 Y0.15030
X1.26484 Y0.14930
X1.26384 Y0.14930
X1.26384 Y0.14830
X1.13784 Y0.14830
X1.13784 Y0.14930
X1.13684 Y0.14930
X1.13684 Y0.15030
X1.13584 Y0.15030
X1.13584 Y0.15130
X1.12984 Y0.15130
X1.12984 Y0.15030
X1.11984 Y0.15030
X1.11984 Y0.14930
X1.10084 Y0.14930
X1.10084 Y0.15030
X1.09084 Y0.15030
X1.09084 Y0.15130
X1.08584 Y0.15130
X1.08584 Y0.15230
X1.08184 Y0.15230
X1.08184 Y0.15330
X0.86184 Y0.15330
X0.86184 Y0.15430
X0.86084 Y0.15430
X0.86084 Y0.15530
X0.85984 Y0.15530
X0.85984 Y0.15630
X0.85884 Y0.15630
X0.85884 Y0.15730
X0.85784 Y0.15730
X0.85784 Y0.15830
X0.85684 Y0.15830
X0.85684 Y0.15930
X0.85584 Y0.15930
X0.85584 Y0.16030
X0.85484 Y0.16030
X0.85484 Y0.16130
X0.85384 Y0.16130
X0.85384 Y0.16230
X0.85284 Y0.16230
X0.85284 Y0.16330
X0.85184 Y0.16330
X0.85184 Y0.16430
X0.85084 Y0.16430
X0.85084 Y0.16730
X0.85184 Y0.16730
X0.85184 Y0.17030
X0.85284 Y0.17030
X0.85284 Y0.17230
X0.85184 Y0.17230
X0.85184 Y0.17330
X0.85084 Y0.17330
X0.85084 Y0.19930
X0.84984 Y0.19930
X0.84984 Y0.20430
X0.84884 Y0.20430
X0.84884 Y0.20830
X0.84784 Y0.20830
X0.84784 Y0.21030
X0.84684 Y0.21030
X0.84684 Y0.21230
X0.84584 Y0.21230
X0.84584 Y0.21330
X0.84484 Y0.21330
X0.84484 Y0.21430
X0.84384 Y0.21430
X0.84384 Y0.21530
X0.84284 Y0.21530
X0.84284 Y0.21630
X0.84184 Y0.21630
X0.84184 Y0.21730
X0.84084 Y0.21730
X0.84084 Y0.21830
X0.83984 Y0.21830
X0.83984 Y0.21930
X0.83884 Y0.21930
X0.83884 Y0.22030
X0.83784 Y0.22030
X0.83784 Y0.22130
X0.83584 Y0.22130
X0.83584 Y0.22230
X0.83484 Y0.22230
X0.83484 Y0.22330
X0.83284 Y0.22330
X0.83284 Y0.22430
X0.82984 Y0.22430
X0.82984 Y0.22530
X0.82584 Y0.22530
X0.82584 Y0.22730
X0.82484 Y0.22730
X0.82484 Y0.24330
X0.82584 Y0.24330
X0.82584 Y0.24630
X0.82984 Y0.24630
X0.82984 Y0.24730
X0.83284 Y0.24730
X0.83284 Y0.24830
X0.83484 Y0.24830
X0.83484 Y0.24930
X0.83684 Y0.24930
X0.83684 Y0.25030
X0.83784 Y0.25030
X0.83784 Y0.25130
X0.83984 Y0.25130
X0.83984 Y0.25230
X0.84084 Y0.25230
X0.84084 Y0.25330
X0.84184 Y0.25330
X0.84184 Y0.25430
X0.84284 Y0.25430
X0.84284 Y0.25530
X0.84384 Y0.25530
X0.84384 Y0.25630
X0.84484 Y0.25630
X0.84484 Y0.25830
X0.84584 Y0.25830
X0.84584 Y0.25930
X0.84684 Y0.25930
X0.84684 Y0.26130
X0.84784 Y0.26130
X0.84784 Y0.26230
X0.84884 Y0.26230
X0.84884 Y0.26730
X0.84984 Y0.26730
X0.84984 Y0.27230
X0.85084 Y0.27230
X0.85084 Y0.29930
X0.84984 Y0.29930
X0.84984 Y0.30430
X0.84884 Y0.30430
X0.84884 Y0.30830
X0.84784 Y0.30830
X0.84784 Y0.31030
X0.84684 Y0.31030
X0.84684 Y0.31230
X0.84584 Y0.31230
X0.84584 Y0.31330
X0.84484 Y0.31330
X0.84484 Y0.31430
X0.84384 Y0.31430
X0.84384 Y0.31530
X0.84284 Y0.31530
X0.84284 Y0.31630
X0.84184 Y0.31630
X0.84184 Y0.31730
X0.84084 Y0.31730
X0.84084 Y0.31830
X0.83984 Y0.31830
X0.83984 Y0.31930
X0.83884 Y0.31930
X0.83884 Y0.32030
X0.83784 Y0.32030
X0.83784 Y0.32130
X0.83584 Y0.32130
X0.83584 Y0.32230
X0.83484 Y0.32230
X0.83484 Y0.32330
X0.83284 Y0.32330
X0.83284 Y0.32430
X0.82984 Y0.32430
X0.82984 Y0.32530
X0.82384 Y0.32530
X0.82384 Y0.32630
X0.79684 Y0.32630
X0.79684 Y0.32530
X0.79084 Y0.32530
X0.79084 Y0.32430
X0.78884 Y0.32430
X0.78884 Y0.32330
X0.78684 Y0.32330
X0.78684 Y0.32230
X0.78584 Y0.32230
X0.78584 Y0.32130
X0.78384 Y0.32130
X0.78384 Y0.32030
X0.78284 Y0.32030
X0.78284 Y0.31930
X0.78084 Y0.31930
X0.78084 Y0.31830
X0.77984 Y0.31830
X0.77984 Y0.31730
X0.77884 Y0.31730
X0.77884 Y0.31630
X0.77784 Y0.31630
X0.77784 Y0.31530
G04 P0 ( dwell for no time -- G64 should not smooth over this point )
G00 Z0.19685 ( retract )

G00 X0.66184 Y0.23730 ( rapid move to begin. )
F0.98425
G01 Z-0.01969
G04 P0 ( dwell for no time -- G64 should not smooth over this point )
F1.96850
X0.66184 Y0.23730
X0.66084 Y0.23730
X0.66084 Y0.23630
X0.65984 Y0.23630
X0.65984 Y0.23530
X0.65884 Y0.23530
X0.65884 Y0.23430
X0.65784 Y0.23430
X0.65784 Y0.23330
X0.65684 Y0.23330
X0.65684 Y0.23230
X0.65584 Y0.23230
X0.65584 Y0.23130
X0.65484 Y0.23130
X0.65484 Y0.22930
X0.65384 Y0.22930
X0.65384 Y0.22830
X0.65284 Y0.22830
X0.65284 Y0.22630
X0.65184 Y0.22630
X0.65184 Y0.22430
X0.65084 Y0.22430
X0.65084 Y0.22230
X0.64984 Y0.22230
X0.64984 Y0.21830
X0.64884 Y0.21830
X0.64884 Y0.20230
X0.64984 Y0.20230
X0.64984 Y0.19830
X0.65084 Y0.19830
X0.65084 Y0.19730
X0.65184 Y0.19730
X0.65184 Y0.19530
X0.65284 Y0.19530
X0.65284 Y0.19330
X0.65384 Y0.19330
X0.65384 Y0.19230
X0.65484 Y0.19230
X0.65484 Y0.19030
X0.65584 Y0.19030
X0.65584 Y0.18830
X0.65684 Y0.18830
X0.65684 Y0.18730
X0.65784 Y0.18730
X0.65784 Y0.18630
X0.65884 Y0.18630
X0.65884 Y0.18530
X0.65984 Y0.18530
X0.65984 Y0.18330
X0.66084 Y0.18330
X0.66084 Y0.18230
X0.66184 Y0.18230
X0.66184 Y0.18130
X0.66284 Y0.18130
X0.66284 Y0.18030
X0.66484 Y0.18030
X0.66484 Y0.17930
X0.66584 Y0.17930
X0.66584 Y0.17830
X0.66784 Y0.17830
X0.66784 Y0.17730
X0.66984 Y0.17730
X0.66984 Y0.17630
X0.67284 Y0.17630
X0.67284 Y0.17530
X0.67684 Y0.17530
X0.67684 Y0.17430
X0.68284 Y0.17430
X0.68284 Y0.17330
X0.68784 Y0.17330
X0.68784 Y0.17430
X0.69384 Y0.17430
X0.69384 Y0.17530
X0.69784 Y0.17530
X0.69784 Y0.17630
X0.70084 Y0.17630
X0.70084 Y0.17730
X0.70284 Y0.17730
X0.70284 Y0.17830
X0.70484 Y0.17830
X0.70484 Y0.17930
X0.70584 Y0.17930
X0.70584 Y0.18030
X0.70784 Y0.18030
X0.70784 Y0.18130
X0.70884 Y0.18130
X0.70884 Y0.18230
X0.70984 Y0.18230
X0.70984 Y0.18330
X0.71084 Y0.18330
X0.71084 Y0.18430
X0.71184 Y0.18430
X0.71184 Y0.18530
X0.71284 Y0.18530
X0.71284 Y0.18630
X0.71384 Y0.18630
X0.71384 Y0.18730
X0.71484 Y0.18730
X0.71484 Y0.18830
X0.71584 Y0.18830
X0.71584 Y0.19030
X0.71684 Y0.19030
X0.71684 Y0.19130
X0.71784 Y0.19130
X0.71784 Y0.19330
X0.71884 Y0.19330
X0.71884 Y0.19530
X0.71984 Y0.19530
X0.71984 Y0.19830
X0.72084 Y0.19830
X0.72084 Y0.20230
X0.72184 Y0.20230
X0.72184 Y0.20830
X0.72284 Y0.20830
X0.72284 Y0.21330
X0.72184 Y0.21330
X0.72184 Y0.21930
X0.72084 Y0.21930
X0.72084 Y0.22330
X0.71984 Y0.22330
X0.71984 Y0.22630
X0.71884 Y0.22630
X0.71884 Y0.22830
X0.71784 Y0.22830
X0.71784 Y0.23030
X0.71684 Y0.23030
X0.71684 Y0.23130
X0.71584 Y0.23130
X0.71584 Y0.23230
X0.71484 Y0.23230
X0.71484 Y0.23330
X0.71384 Y0.23330
X0.71384 Y0.23430
X0.71284 Y0.23430
X0.71284 Y0.23530
X0.71184 Y0.23530
X0.71184 Y0.23630
X0.71084 Y0.23630
X0.71084 Y0.23730
X0.70984 Y0.23730
X0.70984 Y0.23830
X0.70884 Y0.23830
X0.70884 Y0.23930
X0.70784 Y0.23930
X0.70784 Y0.24030
X0.70584 Y0.24030
X0.70584 Y0.24130
X0.70384 Y0.24130
X0.70384 Y0.24230
X0.70284 Y0.24230
X0.70284 Y0.24330
X0.70084 Y0.24330
X0.70084 Y0.24430
X0.69884 Y0.24430
X0.69884 Y0.24530
X0.69784 Y0.24530
X0.69784 Y0.24630
X0.69384 Y0.24630
X0.69384 Y0.24730
X0.67784 Y0.24730
X0.67784 Y0.24630
X0.67384 Y0.24630
X0.67384 Y0.24530
X0.67184 Y0.24530
X0.67184 Y0.24430
X0.66984 Y0.24430
X0.66984 Y0.24330
X0.66784 Y0.24330
X0.66784 Y0.24230
X0.66684 Y0.24230
X0.66684 Y0.24130
X0.66484 Y0.24130
X0.66484 Y0.24030
X0.66384 Y0.24030
X0.66384 Y0.23930
X0.66284 Y0.23930
X0.66284 Y0.23830
X0.66184 Y0.23830
X0.66184 Y0.23730
G04 P0 ( dwell for no time -- G64 should not smooth over this point )
G00 Z0.19685 ( retract )

G00 X0.77784 Y0.11530 ( rapid move to begin. )
F0.98425
G01 Z-0.01969
G04 P0 ( dwell for no time -- G64 should not smooth over this point )
F1.96850
X0.77784 Y0.11530
X0.77684 Y0.11530
X0.77684 Y0.11330
X0.77584 Y0.11330
X0.77584 Y0.11230
X0.77484 Y0.11230
X0.77484 Y0.11030
X0.77384 Y0.11030
X0.77384 Y0.10930
X0.77284 Y0.10930
X0.77284 Y0.10730
X0.77184 Y0.10730
X0.77184 Y0.10430
X0.77084 Y0.10430
X0.77084 Y0.09930
X0.76984 Y0.09930
X0.76984 Y0.07230
X0.77084 Y0.07230
X0.77084 Y0.06730
X0.77184 Y0.06730
X0.77184 Y0.06330
X0.77284 Y0.06330
X0.77284 Y0.06130
X0.77384 Y0.06130
X0.77384 Y0.06030
X0.77484 Y0.06030
X0.77484 Y0.05830
X0.77584 Y0.05830
X0.77584 Y0.05730
X0.77684 Y0.05730
X0.77684 Y0.05630
X0.77784 Y0.05630
X0.77784 Y0.05530
X0.77884 Y0.05530
X0.77884 Y0.05430
X0.77984 Y0.05430
X0.77984 Y0.05330
X0.78084 Y0.05330
X0.78084 Y0.05230
X0.78184 Y0.05230
X0.78184 Y0.05130
X0.78284 Y0.05130
X0.78284 Y0.05030
X0.78384 Y0.05030
X0.78384 Y0.04930
X0.78584 Y0.04930
X0.78584 Y0.04830
X0.78784 Y0.04830
X0.78784 Y0.04730
X0.79084 Y0.04730
X0.79084 Y0.04630
X0.79684 Y0.04630
X0.79684 Y0.04530
X0.82384 Y0.04530
X0.82384 Y0.04630
X0.82984 Y0.04630
X0.82984 Y0.04730
X0.83284 Y0.04730
X0.83284 Y0.04830
X0.83484 Y0.04830
X0.83484 Y0.04930
X0.83684 Y0.04930
X0.83684 Y0.05030
X0.83784 Y0.05030
X0.83784 Y0.05130
X0.83984 Y0.05130
X0.83984 Y0.05230
X0.84084 Y0.05230
X0.84084 Y0.05330
X0.84184 Y0.05330
X0.84184 Y0.05430
X0.84284 Y0.05430
X0.84284 Y0.05530
X0.84384 Y0.05530
X0.84384 Y0.05630
X0.84484 Y0.05630
X0.84484 Y0.05830
X0.84584 Y0.05830
X0.84584 Y0.05930
X0.84684 Y0.05930
X0.84684 Y0.06130
X0.84784 Y0.06130
X0.84784 Y0.06230
X0.84884 Y0.06230
X0.84884 Y0.06730
X0.84984 Y0.06730
X0.84984 Y0.07230
X0.85084 Y0.07230
X0.85084 Y0.09930
X0.84984 Y0.09930
X0.84984 Y0.10430
X0.84884 Y0.10430
X0.84884 Y0.10830
X0.84784 Y0.10830
X0.84784 Y0.11030
X0.84684 Y0.11030
X0.84684 Y0.11230
X0.84584 Y0.11230
X0.84584 Y0.11330
X0.84484 Y0.11330
X0.84484 Y0.11430
X0.84384 Y0.11430
X0.84384 Y0.11530
X0.84284 Y0.11530
X0.84284 Y0.11630
X0.84184 Y0.11630
X0.84184 Y0.11730
X0.84084 Y0.11730
X0.84084 Y0.11830
X0.83984 Y0.11830
X0.83984 Y0.11930
X0.83884 Y0.11930
X0.83884 Y0.12030
X0.83784 Y0.12030
X0.83784 Y0.12130
X0.83584 Y0.12130
X0.83584 Y0.12230
X0.83484 Y0.12230
X0.83484 Y0.12330
X0.83284 Y0.12330
X0.83284 Y0.12430
X0.82984 Y0.12430
X0.82984 Y0.12530
X0.82384 Y0.12530
X0.82384 Y0.12630
X0.79684 Y0.12630
X0.79684 Y0.12530
X0.79084 Y0.12530
X0.79084 Y0.12430
X0.78884 Y0.12430
X0.78884 Y0.12330
X0.78684 Y0.12330
X0.78684 Y0.12230
X0.78584 Y0.12230
X0.78584 Y0.12130
X0.78384 Y0.12130
X0.78384 Y0.12030
X0.78284 Y0.12030
X0.78284 Y0.11930
X0.78084 Y0.11930
X0.78084 Y0.11830
X0.77984 Y0.11830
X0.77984 Y0.11730
X0.77884 Y0.11730
X0.77884 Y0.11630
X0.77784 Y0.11630
X0.77784 Y0.11530
G04 P0 ( dwell for no time -- G64 should not smooth over this point )
G00 Z0.19685 ( retract )

G00 X1.07784 Y0.11530 ( rapid move to begin. )
F0.98425
G01 Z-0.01969
G04 P0 ( dwell for no time -- G64 should not smooth over this point )
F1.96850
X1.07784 Y0.11530
X1.07684 Y0.11530
X1.07684 Y0.11330
X1.07584 Y0.11330
X1.07584 Y0.11230
X1.07484 Y0.11230
X1.07484 Y0.11030
X1.07384 Y0.11030
X1.07384 Y0.10930
X1.07284 Y0.10930
X1.07284 Y0.10730
X1.07184 Y0.10730
X1.07184 Y0.10430
X1.07084 Y0.10430
X1.07084 Y0.09930
X1.06984 Y0.09930
X1.06984 Y0.07230
X1.07084 Y0.07230
X1.07084 Y0.06730
X1.07184 Y0.06730
X1.07184 Y0.06330
X1.07284 Y0.06330
X1.07284 Y0.06130
X1.07384 Y0.06130
X1.07384 Y0.06030
X1.07484 Y0.06030
X1.07484 Y0.05830
X1.07584 Y0.05830
X1.07584 Y0.05730
X1.07684 Y0.05730
X1.07684 Y0.05630
X1.07784 Y0.05630
X1.07784 Y0.05530
X1.07884 Y0.05530
X1.07884 Y0.05430
X1.07984 Y0.05430
X1.07984 Y0.05330
X1.08084 Y0.05330
X1.08084 Y0.05230
X1.08184 Y0.05230
X1.08184 Y0.05130
X1.08284 Y0.05130
X1.08284 Y0.05030
X1.08384 Y0.05030
X1.08384 Y0.04930
X1.08584 Y0.04930
X1.08584 Y0.04830
X1.08784 Y0.04830
X1.08784 Y0.04730
X1.09084 Y0.04730
X1.09084 Y0.04630
X1.09684 Y0.04630
X1.09684 Y0.04530
X1.12384 Y0.04530
X1.12384 Y0.04630
X1.12984 Y0.04630
X1.12984 Y0.04730
X1.13284 Y0.04730
X1.13284 Y0.04830
X1.13484 Y0.04830
X1.13484 Y0.04930
X1.13684 Y0.04930
X1.13684 Y0.05030
X1.13784 Y0.05030
X1.13784 Y0.05130
X1.13984 Y0.05130
X1.13984 Y0.05230
X1.14084 Y0.05230
X1.14084 Y0.05330
X1.14184 Y0.05330
X1.14184 Y0.05430
X1.14284 Y0.05430
X1.14284 Y0.05530
X1.14384 Y0.05530
X1.14384 Y0.05630
X1.14484 Y0.05630
X1.14484 Y0.05830
X1.14584 Y0.05830
X1.14584 Y0.05930
X1.14684 Y0.05930
X1.14684 Y0.06130
X1.14784 Y0.06130
X1.14784 Y0.06230
X1.14884 Y0.06230
X1.14884 Y0.06730
X1.14984 Y0.06730
X1.14984 Y0.07230
X1.15084 Y0.07230
X1.15084 Y0.09930
X1.14984 Y0.09930
X1.14984 Y0.10430
X1.14884 Y0.10430
X1.14884 Y0.10830
X1.14784 Y0.10830
X1.14784 Y0.11030
X1.14684 Y0.11030
X1.14684 Y0.11230
X1.14584 Y0.11230
X1.14584 Y0.11330
X1.14484 Y0.11330
X1.14484 Y0.11430
X1.14384 Y0.11430
X1.14384 Y0.11530
X1.14284 Y0.11530
X1.14284 Y0.11630
X1.14184 Y0.11630
X1.14184 Y0.11730
X1.14084 Y0.11730
X1.14084 Y0.11830
X1.13984 Y0.11830
X1.13984 Y0.11930
X1.13884 Y0.11930
X1.13884 Y0.12030
X1.13784 Y0.12030
X1.13784 Y0.12130
X1.13584 Y0.12130
X1.13584 Y0.12230
X1.13484 Y0.12230
X1.13484 Y0.12330
X1.12884 Y0.12330
X1.12884 Y0.12430
X1.09184 Y0.12430
X1.09184 Y0.12330
X1.08684 Y0.12330
X1.08684 Y0.12230
X1.08584 Y0.12230
X1.08584 Y0.12130
X1.08384 Y0.12130
X1.08384 Y0.12030
X1.08284 Y0.12030
X1.08284 Y0.11930
X1.08084 Y0.11930
X1.08084 Y0.11830
X1.07984 Y0.11830
X1.07984 Y0.11730
X1.07884 Y0.11730
X1.07884 Y0.11630
X1.07784 Y0.11630
X1.07784 Y0.11530
G04 P0 ( dwell for no time -- G64 should not smooth over this point )
G00 Z0.19685 ( retract )

G00 X1.25784 Y0.11530 ( rapid move to begin. )
F0.98425
G01 Z-0.01969
G04 P0 ( dwell for no time -- G64 should not smooth over this point )
F1.96850
X1.25784 Y0.11530
X1.25684 Y0.11530
X1.25684 Y0.11330
X1.25584 Y0.11330
X1.25584 Y0.11230
X1.25484 Y0.11230
X1.25484 Y0.11030
X1.25384 Y0.11030
X1.25384 Y0.10930
X1.25284 Y0.10930
X1.25284 Y0.10730
X1.25184 Y0.10730
X1.25184 Y0.10430
X1.25084 Y0.10430
X1.25084 Y0.09930
X1.24984 Y0.09930
X1.24984 Y0.07230
X1.25084 Y0.07230
X1.25084 Y0.06730
X1.25184 Y0.06730
X1.25184 Y0.06330
X1.25284 Y0.06330
X1.25284 Y0.06130
X1.25384 Y0.06130
X1.25384 Y0.06030
X1.25484 Y0.06030
X1.25484 Y0.05830
X1.25584 Y0.05830
X1.25584 Y0.05730
X1.25684 Y0.05730
X1.25684 Y0.05630
X1.25784 Y0.05630
X1.25784 Y0.05530
X1.25884 Y0.05530
X1.25884 Y0.05430
X1.25984 Y0.05430
X1.25984 Y0.05330
X1.26084 Y0.05330
X1.26084 Y0.05230
X1.26184 Y0.05230
X1.26184 Y0.05130
X1.26284 Y0.05130
X1.26284 Y0.05030
X1.26384 Y0.05030
X1.26384 Y0.04930
X1.26584 Y0.04930
X1.26584 Y0.04830
X1.26784 Y0.04830
X1.26784 Y0.04730
X1.27084 Y0.04730
X1.27084 Y0.04630
X1.27684 Y0.04630
X1.27684 Y0.04530
X1.30384 Y0.04530
X1.30384 Y0.04630
X1.30984 Y0.04630
X1.30984 Y0.04730
X1.31284 Y0.04730
X1.31284 Y0.04830
X1.31484 Y0.04830
X1.31484 Y0.04930
X1.31684 Y0.04930
X1.31684 Y0.05030
X1.31784 Y0.05030
X1.31784 Y0.05130
X1.31984 Y0.05130
X1.31984 Y0.05230
X1.32084 Y0.05230
X1.32084 Y0.05330
X1.32184 Y0.05330
X1.32184 Y0.05430
X1.32284 Y0.05430
X1.32284 Y0.05530
X1.32384 Y0.05530
X1.32384 Y0.05630
X1.32484 Y0.05630
X1.32484 Y0.05830
X1.32584 Y0.05830
X1.32584 Y0.05930
X1.32684 Y0.05930
X1.32684 Y0.06130
X1.32784 Y0.06130
X1.32784 Y0.06230
X1.32884 Y0.06230
X1.32884 Y0.06730
X1.32984 Y0.06730
X1.32984 Y0.07230
X1.33084 Y0.07230
X1.33084 Y0.09930
X1.32984 Y0.09930
X1.32984 Y0.10430
X1.32884 Y0.10430
X1.32884 Y0.10830
X1.32784 Y0.10830
X1.32784 Y0.11030
X1.32684 Y0.11030
X1.32684 Y0.11230
X1.32584 Y0.11230
X1.32584 Y0.11330
X1.32484 Y0.11330
X1.32484 Y0.11430
X1.32384 Y0.11430
X1.32384 Y0.11530
X1.32284 Y0.11530
X1.32284 Y0.11630
X1.32184 Y0.11630
X1.32184 Y0.11730
X1.32084 Y0.11730
X1.32084 Y0.11830
X1.31984 Y0.11830
X1.31984 Y0.11930
X1.31884 Y0.11930
X1.31884 Y0.12030
X1.31784 Y0.12030
X1.31784 Y0.12130
X1.31584 Y0.12130
X1.31584 Y0.12230
X1.31484 Y0.12230
X1.31484 Y0.12330
X1.30884 Y0.12330
X1.30884 Y0.12430
X1.27184 Y0.12430
X1.27184 Y0.12330
X1.26684 Y0.12330
X1.26684 Y0.12230
X1.26584 Y0.12230
X1.26584 Y0.12130
X1.26384 Y0.12130
X1.26384 Y0.12030
X1.26284 Y0.12030
X1.26284 Y0.11930
X1.26084 Y0.11930
X1.26084 Y0.11830
X1.25984 Y0.11830
X1.25984 Y0.11730
X1.25884 Y0.11730
X1.25884 Y0.11630
X1.25784 Y0.11630
X1.25784 Y0.11530
G04 P0 ( dwell for no time -- G64 should not smooth over this point )
G00 Z0.19685 ( retract )

G00 X1.26884 Y0.21530 ( rapid move to begin. )
F0.98425
G01 Z-0.01969
G04 P0 ( dwell for no time -- G64 should not smooth over this point )
F1.96850
X1.26884 Y0.21530
X1.26784 Y0.21530
X1.26784 Y0.21430
X1.26584 Y0.21430
X1.26584 Y0.21330
X1.26484 Y0.21330
X1.26484 Y0.21230
X1.26384 Y0.21230
X1.26384 Y0.21130
X1.26284 Y0.21130
X1.26284 Y0.21030
X1.26184 Y0.21030
X1.26184 Y0.20830
X1.26084 Y0.20830
X1.26084 Y0.20730
X1.25984 Y0.20730
X1.25984 Y0.20530
X1.25884 Y0.20530
X1.25884 Y0.20430
X1.25784 Y0.20430
X1.25784 Y0.20230
X1.25684 Y0.20230
X1.25684 Y0.19930
X1.25584 Y0.19930
X1.25584 Y0.19630
X1.25484 Y0.19630
X1.25484 Y0.19430
X1.25384 Y0.19430
X1.25384 Y0.17730
X1.25484 Y0.17730
X1.25484 Y0.17530
X1.25584 Y0.17530
X1.25584 Y0.17230
X1.25684 Y0.17230
X1.25684 Y0.16830
X1.25784 Y0.16830
X1.25784 Y0.16630
X1.25884 Y0.16630
X1.25884 Y0.16530
X1.25984 Y0.16530
X1.25984 Y0.16330
X1.26084 Y0.16330
X1.26084 Y0.16230
X1.26184 Y0.16230
X1.26184 Y0.16130
X1.26284 Y0.16130
X1.26284 Y0.16030
X1.26384 Y0.16030
X1.26384 Y0.15730
X1.26484 Y0.15730
X1.26484 Y0.15530
X1.26584 Y0.15530
X1.26584 Y0.15330
X1.26684 Y0.15330
X1.26684 Y0.15230
X1.26884 Y0.15230
X1.26884 Y0.15130
X1.27484 Y0.15130
X1.27484 Y0.15030
X1.30584 Y0.15030
X1.30584 Y0.15130
X1.31184 Y0.15130
X1.31184 Y0.15230
X1.31484 Y0.15230
X1.31484 Y0.15430
X1.31584 Y0.15430
X1.31584 Y0.15630
X1.31684 Y0.15630
X1.31684 Y0.15930
X1.31784 Y0.15930
X1.31784 Y0.16030
X1.31884 Y0.16030
X1.31884 Y0.16130
X1.31984 Y0.16130
X1.31984 Y0.16330
X1.32084 Y0.16330
X1.32084 Y0.16430
X1.32184 Y0.16430
X1.32184 Y0.16630
X1.32284 Y0.16630
X1.32284 Y0.16730
X1.32384 Y0.16730
X1.32384 Y0.17230
X1.32484 Y0.17230
X1.32484 Y0.17430
X1.32584 Y0.17430
X1.32584 Y0.17730
X1.32684 Y0.17730
X1.32684 Y0.18430
X1.32784 Y0.18430
X1.32784 Y0.18730
X1.32684 Y0.18730
X1.32684 Y0.19430
X1.32584 Y0.19430
X1.32584 Y0.19630
X1.32484 Y0.19630
X1.32484 Y0.19930
X1.32384 Y0.19930
X1.32384 Y0.20330
X1.32284 Y0.20330
X1.32284 Y0.20530
X1.32184 Y0.20530
X1.32184 Y0.20730
X1.32084 Y0.20730
X1.32084 Y0.20830
X1.31984 Y0.20830
X1.31984 Y0.20930
X1.31884 Y0.20930
X1.31884 Y0.21030
X1.31784 Y0.21030
X1.31784 Y0.21130
X1.31684 Y0.21130
X1.31684 Y0.21230
X1.31584 Y0.21230
X1.31584 Y0.21330
X1.31484 Y0.21330
X1.31484 Y0.21430
X1.31384 Y0.21430
X1.31384 Y0.21530
X1.31284 Y0.21530
X1.31284 Y0.21630
X1.31084 Y0.21630
X1.31084 Y0.21730
X1.30984 Y0.21730
X1.30984 Y0.21830
X1.30784 Y0.21830
X1.30784 Y0.21930
X1.30484 Y0.21930
X1.30484 Y0.22030
X1.30084 Y0.22030
X1.30084 Y0.22130
X1.29884 Y0.22130
X1.29884 Y0.22230
X1.28184 Y0.22230
X1.28184 Y0.22130
X1.27984 Y0.22130
X1.27984 Y0.22030
X1.27584 Y0.22030
X1.27584 Y0.21930
X1.27384 Y0.21930
X1.27384 Y0.21830
X1.27184 Y0.21830
X1.27184 Y0.21730
X1.27084 Y0.21730
X1.27084 Y0.21630
X1.26884 Y0.21630
X1.26884 Y0.21530
G04 P0 ( dwell for no time -- G64 should not smooth over this point )
G00 Z0.19685 ( retract )

G00 X1.26284 Y0.31530 ( rapid move to begin. )
F0.98425
G01 Z-0.01969
G04 P0 ( dwell for no time -- G64 should not smooth over this point )
F1.96850
X1.26284 Y0.31530
X1.26184 Y0.31530
X1.26184 Y0.31430
X1.26084 Y0.31430
X1.26084 Y0.31330
X1.25984 Y0.31330
X1.25984 Y0.31230
X1.25884 Y0.31230
X1.25884 Y0.31030
X1.25784 Y0.31030
X1.25784 Y0.30930
X1.25684 Y0.30930
X1.25684 Y0.30730
X1.25584 Y0.30730
X1.25584 Y0.30630
X1.25484 Y0.30630
X1.25484 Y0.29530
X1.25384 Y0.29530
X1.25384 Y0.27730
X1.25484 Y0.27730
X1.25484 Y0.27530
X1.25584 Y0.27530
X1.25584 Y0.27230
X1.25684 Y0.27230
X1.25684 Y0.26830
X1.25784 Y0.26830
X1.25784 Y0.26630
X1.25884 Y0.26630
X1.25884 Y0.26530
X1.25984 Y0.26530
X1.25984 Y0.26330
X1.26084 Y0.26330
X1.26084 Y0.26230
X1.26184 Y0.26230
X1.26184 Y0.26130
X1.26284 Y0.26130
X1.26284 Y0.26030
X1.26384 Y0.26030
X1.26384 Y0.25930
X1.26484 Y0.25930
X1.26484 Y0.25830
X1.26584 Y0.25830
X1.26584 Y0.25730
X1.26684 Y0.25730
X1.26684 Y0.25630
X1.26784 Y0.25630
X1.26784 Y0.25530
X1.26884 Y0.25530
X1.26884 Y0.25430
X1.27084 Y0.25430
X1.27084 Y0.25330
X1.27284 Y0.25330
X1.27284 Y0.25230
X1.27584 Y0.25230
X1.27584 Y0.25130
X1.27984 Y0.25130
X1.27984 Y0.25030
X1.28184 Y0.25030
X1.28184 Y0.24930
X1.28884 Y0.24930
X1.28884 Y0.24830
X1.29184 Y0.24830
X1.29184 Y0.24930
X1.29884 Y0.24930
X1.29884 Y0.25030
X1.30184 Y0.25030
X1.30184 Y0.25130
X1.30484 Y0.25130
X1.30484 Y0.25230
X1.30784 Y0.25230
X1.30784 Y0.25330
X1.30984 Y0.25330
X1.30984 Y0.25430
X1.31184 Y0.25430
X1.31184 Y0.25530
X1.31284 Y0.25530
X1.31284 Y0.25630
X1.31484 Y0.25630
X1.31484 Y0.25730
X1.31584 Y0.25730
X1.31584 Y0.25830
X1.31684 Y0.25830
X1.31684 Y0.25930
X1.31784 Y0.25930
X1.31784 Y0.26030
X1.31884 Y0.26030
X1.31884 Y0.26130
X1.31984 Y0.26130
X1.31984 Y0.26330
X1.32084 Y0.26330
X1.32084 Y0.26430
X1.32184 Y0.26430
X1.32184 Y0.26630
X1.32284 Y0.26630
X1.32284 Y0.26730
X1.32384 Y0.26730
X1.32384 Y0.27230
X1.32484 Y0.27230
X1.32484 Y0.27430
X1.32584 Y0.27430
X1.32584 Y0.27730
X1.32684 Y0.27730
X1.32684 Y0.28430
X1.32784 Y0.28430
X1.32784 Y0.28730
X1.32684 Y0.28730
X1.32684 Y0.29430
X1.32584 Y0.29430
X1.32584 Y0.29630
X1.32484 Y0.29630
X1.32484 Y0.29930
X1.32384 Y0.29930
X1.32384 Y0.30330
X1.32284 Y0.30330
X1.32284 Y0.30530
X1.32184 Y0.30530
X1.32184 Y0.30730
X1.32084 Y0.30730
X1.32084 Y0.30830
X1.31984 Y0.30830
X1.31984 Y0.30930
X1.31884 Y0.30930
X1.31884 Y0.31030
X1.31784 Y0.31030
X1.31784 Y0.31130
X1.31684 Y0.31130
X1.31684 Y0.31230
X1.31584 Y0.31230
X1.31584 Y0.31330
X1.31484 Y0.31330
X1.31484 Y0.31430
X1.31384 Y0.31430
X1.31384 Y0.31530
X1.31284 Y0.31530
X1.31284 Y0.31630
X1.31084 Y0.31630
X1.31084 Y0.31730
X1.30984 Y0.31730
X1.30984 Y0.31830
X1.30784 Y0.31830
X1.30784 Y0.31930
X1.30484 Y0.31930
X1.30484 Y0.32030
X1.30084 Y0.32030
X1.30084 Y0.32130
X1.29884 Y0.32130
X1.29884 Y0.32230
X1.28084 Y0.32230
X1.28084 Y0.32130
X1.26984 Y0.32130
X1.26984 Y0.32030
X1.26884 Y0.32030
X1.26884 Y0.31930
X1.26784 Y0.31930
X1.26784 Y0.31830
X1.26584 Y0.31830
X1.26584 Y0.31730
X1.26384 Y0.31730
X1.26384 Y0.31630
X1.26284 Y0.31630
X1.26284 Y0.31530
G04 P0 ( dwell for no time -- G64 should not smooth over this point )
G00 Z0.19685 ( retract )

G00 X1.28684 Y0.34430 ( rapid move to begin. )
F0.98425
G01 Z-0.01969
G04 P0 ( dwell for no time -- G64 should not smooth over this point )
F1.96850
X1.28684 Y0.34430
X1.28384 Y0.34430
X1.28384 Y0.34330
X1.28284 Y0.34330
X1.28284 Y0.34230
X1.28184 Y0.34230
X1.28184 Y0.34130
X1.28084 Y0.34130
X1.28084 Y0.34030
X1.27984 Y0.34030
X1.27984 Y0.33930
X1.27884 Y0.33930
X1.27884 Y0.33830
X1.27784 Y0.33830
X1.27784 Y0.33730
X1.27684 Y0.33730
X1.27684 Y0.33630
X1.27584 Y0.33630
X1.27584 Y0.33530
X1.27484 Y0.33530
X1.27484 Y0.33430
X1.27384 Y0.33430
X1.27384 Y0.33330
X1.27284 Y0.33330
X1.27284 Y0.33130
X1.27184 Y0.33130
X1.27184 Y0.32830
X1.27084 Y0.32830
X1.27084 Y0.32530
X1.26984 Y0.32530
X1.26984 Y0.32130
X1.28084 Y0.32130
X1.28084 Y0.32230
X1.29884 Y0.32230
X1.29884 Y0.32130
X1.30084 Y0.32130
X1.30084 Y0.32030
X1.30484 Y0.32030
X1.30484 Y0.31930
X1.30784 Y0.31930
X1.30784 Y0.31830
X1.30984 Y0.31830
X1.30984 Y0.31730
X1.31084 Y0.31730
X1.31084 Y0.31630
X1.31284 Y0.31630
X1.31284 Y0.31530
X1.31384 Y0.31530
X1.31384 Y0.31430
X1.31484 Y0.31430
X1.31484 Y0.31330
X1.31584 Y0.31330
X1.31584 Y0.31230
X1.31684 Y0.31230
X1.31684 Y0.31130
X1.31784 Y0.31130
X1.31784 Y0.31030
X1.31884 Y0.31030
X1.31884 Y0.30930
X1.31984 Y0.30930
X1.31984 Y0.30830
X1.32084 Y0.30830
X1.32084 Y0.30730
X1.32184 Y0.30730
X1.32184 Y0.30530
X1.32284 Y0.30530
X1.32284 Y0.30330
X1.32384 Y0.30330
X1.32384 Y0.29930
X1.32484 Y0.29930
X1.32484 Y0.29630
X1.32584 Y0.29630
X1.32584 Y0.29430
X1.32684 Y0.29430
X1.32684 Y0.28730
X1.32784 Y0.28730
X1.32784 Y0.28430
X1.32684 Y0.28430
X1.32684 Y0.27730
X1.32584 Y0.27730
X1.32584 Y0.27430
X1.32484 Y0.27430
X1.32484 Y0.27230
X1.32384 Y0.27230
X1.32384 Y0.26730
X1.32284 Y0.26730
X1.32284 Y0.26630
X1.32184 Y0.26630
X1.32184 Y0.26430
X1.32084 Y0.26430
X1.32084 Y0.26330
X1.31984 Y0.26330
X1.31984 Y0.26130
X1.31884 Y0.26130
X1.31884 Y0.26030
X1.31784 Y0.26030
X1.31784 Y0.25930
X1.31684 Y0.25930
X1.31684 Y0.25830
X1.31584 Y0.25830
X1.31584 Y0.25730
X1.31484 Y0.25730
X1.31484 Y0.25630
X1.31284 Y0.25630
X1.31284 Y0.25530
X1.31184 Y0.25530
X1.31184 Y0.25430
X1.30984 Y0.25430
X1.30984 Y0.25330
X1.30784 Y0.25330
X1.30784 Y0.25230
X1.30484 Y0.25230
X1.30484 Y0.25130
X1.30184 Y0.25130
X1.30184 Y0.25030
X1.29884 Y0.25030
X1.29884 Y0.24930
X1.29184 Y0.24930
X1.29184 Y0.24830
X1.28884 Y0.24830
X1.28884 Y0.24930
X1.28184 Y0.24930
X1.28184 Y0.25030
X1.27984 Y0.25030
X1.27984 Y0.25130
X1.27584 Y0.25130
X1.27584 Y0.25230
X1.27284 Y0.25230
X1.27284 Y0.25330
X1.27084 Y0.25330
X1.27084 Y0.25430
X1.26884 Y0.25430
X1.26884 Y0.25530
X1.26784 Y0.25530
X1.26784 Y0.25630
X1.26684 Y0.25630
X1.26684 Y0.25730
X1.26584 Y0.25730
X1.26584 Y0.25830
X1.26484 Y0.25830
X1.26484 Y0.25930
X1.26384 Y0.25930
X1.26384 Y0.26030
X1.26284 Y0.26030
X1.26284 Y0.26130
X1.26184 Y0.26130
X1.26184 Y0.26230
X1.26084 Y0.26230
X1.26084 Y0.26330
X1.25984 Y0.26330
X1.25984 Y0.26530
X1.25884 Y0.26530
X1.25884 Y0.26630
X1.25784 Y0.26630
X1.25784 Y0.26830
X1.25684 Y0.26830
X1.25684 Y0.27230
X1.25584 Y0.27230
X1.25584 Y0.27530
X1.25484 Y0.27530
X1.25484 Y0.27730
X1.25384 Y0.27730
X1.25384 Y0.29530
X1.25484 Y0.29530
X1.25484 Y0.30630
X1.25084 Y0.30630
X1.25084 Y0.30530
X1.24784 Y0.30530
X1.24784 Y0.30430
X1.24484 Y0.30430
X1.24484 Y0.30330
X1.24284 Y0.30330
X1.24284 Y0.30230
X1.24184 Y0.30230
X1.24184 Y0.30130
X1.24084 Y0.30130
X1.24084 Y0.30030
X1.23984 Y0.30030
X1.23984 Y0.29930
X1.23884 Y0.29930
X1.23884 Y0.29830
X1.23784 Y0.29830
X1.23784 Y0.29730
X1.23684 Y0.29730
X1.23684 Y0.29630
X1.23584 Y0.29630
X1.23584 Y0.29530
X1.23484 Y0.29530
X1.23484 Y0.29430
X1.23384 Y0.29430
X1.23384 Y0.29330
X1.23284 Y0.29330
X1.23284 Y0.29230
X1.23184 Y0.29230
X1.23184 Y0.29130
X1.23084 Y0.29130
X1.23084 Y0.29030
X1.22984 Y0.29030
X1.22984 Y0.28930
X1.22884 Y0.28930
X1.22884 Y0.28830
X1.22784 Y0.28830
X1.22784 Y0.28730
X1.22684 Y0.28730
X1.22684 Y0.28630
X1.22584 Y0.28630
X1.22584 Y0.28530
X1.22484 Y0.28530
X1.22484 Y0.28430
X1.22384 Y0.28430
X1.22384 Y0.28330
X1.22284 Y0.28330
X1.22284 Y0.28230
X1.22184 Y0.28230
X1.22184 Y0.28130
X1.22084 Y0.28130
X1.22084 Y0.28030
X1.21984 Y0.28030
X1.21984 Y0.27930
X1.21884 Y0.27930
X1.21884 Y0.27830
X1.21784 Y0.27830
X1.21784 Y0.27730
X1.21684 Y0.27730
X1.21684 Y0.27630
X1.21584 Y0.27630
X1.21584 Y0.27530
X1.21484 Y0.27530
X1.21484 Y0.27430
X1.21384 Y0.27430
X1.21384 Y0.27330
X1.21284 Y0.27330
X1.21284 Y0.27230
X1.21184 Y0.27230
X1.21184 Y0.27130
X1.21084 Y0.27130
X1.21084 Y0.27030
X1.20984 Y0.27030
X1.20984 Y0.26930
X1.20884 Y0.26930
X1.20884 Y0.26830
X1.20784 Y0.26830
X1.20784 Y0.26730
X1.20684 Y0.26730
X1.20684 Y0.26630
X1.20584 Y0.26630
X1.20584 Y0.26530
X1.20484 Y0.26530
X1.20484 Y0.26430
X1.20384 Y0.26430
X1.20384 Y0.26330
X1.20284 Y0.26330
X1.20284 Y0.26230
X1.20184 Y0.26230
X1.20184 Y0.26130
X1.20084 Y0.26130
X1.20084 Y0.26030
X1.19984 Y0.26030
X1.19984 Y0.25930
X1.19884 Y0.25930
X1.19884 Y0.25830
X1.19784 Y0.25830
X1.19784 Y0.25730
X1.19684 Y0.25730
X1.19684 Y0.25630
X1.19584 Y0.25630
X1.19584 Y0.25530
X1.19484 Y0.25530
X1.19484 Y0.25430
X1.19384 Y0.25430
X1.19384 Y0.25330
X1.19284 Y0.25330
X1.19284 Y0.25230
X1.19184 Y0.25230
X1.19184 Y0.25130
X1.19084 Y0.25130
X1.19084 Y0.25030
X1.18984 Y0.25030
X1.18984 Y0.24930
X1.18884 Y0.24930
X1.18884 Y0.24830
X1.18784 Y0.24830
X1.18784 Y0.24730
X1.18684 Y0.24730
X1.18684 Y0.24630
X1.18584 Y0.24630
X1.18584 Y0.24530
X1.18484 Y0.24530
X1.18484 Y0.24430
X1.18384 Y0.24430
X1.18384 Y0.24330
X1.18284 Y0.24330
X1.18284 Y0.24230
X1.18184 Y0.24230
X1.18184 Y0.24130
X1.18084 Y0.24130
X1.18084 Y0.24030
X1.17984 Y0.24030
X1.17984 Y0.23930
X1.17884 Y0.23930
X1.17884 Y0.23830
X1.17784 Y0.23830
X1.17784 Y0.23730
X1.17684 Y0.23730
X1.17684 Y0.23630
X1.17584 Y0.23630
X1.17584 Y0.23530
X1.17484 Y0.23530
X1.17484 Y0.23430
X1.17384 Y0.23430
X1.17384 Y0.23330
X1.17284 Y0.23330
X1.17284 Y0.23230
X1.17184 Y0.23230
X1.17184 Y0.23130
X1.17084 Y0.23130
X1.17084 Y0.23030
X1.16984 Y0.23030
X1.16984 Y0.22930
X1.16884 Y0.22930
X1.16884 Y0.22830
X1.16784 Y0.22830
X1.16784 Y0.22730
X1.16684 Y0.22730
X1.16684 Y0.22630
X1.16584 Y0.22630
X1.16584 Y0.22530
X1.16484 Y0.22530
X1.16484 Y0.22430
X1.16384 Y0.22430
X1.16384 Y0.22330
X1.16284 Y0.22330
X1.16284 Y0.22230
X1.16184 Y0.22230
X1.16184 Y0.22130
X1.16084 Y0.22130
X1.16084 Y0.22030
X1.15984 Y0.22030
X1.15984 Y0.21930
X1.15884 Y0.21930
X1.15884 Y0.21830
X1.15784 Y0.21830
X1.15784 Y0.21730
X1.15684 Y0.21730
X1.15684 Y0.21630
X1.15584 Y0.21630
X1.15584 Y0.21530
X1.15484 Y0.21530
X1.15484 Y0.21430
X1.15384 Y0.21430
X1.15384 Y0.21330
X1.15284 Y0.21330
X1.15284 Y0.21230
X1.15184 Y0.21230
X1.15184 Y0.21130
X1.15084 Y0.21130
X1.15084 Y0.21030
X1.14984 Y0.21030
X1.14984 Y0.20930
X1.14884 Y0.20930
X1.14884 Y0.20830
X1.14784 Y0.20830
X1.14784 Y0.20630
X1.14684 Y0.20630
X1.14684 Y0.20330
X1.14584 Y0.20330
X1.14584 Y0.19530
X1.14684 Y0.19530
X1.14684 Y0.19130
X1.14784 Y0.19130
X1.14784 Y0.18030
X1.14684 Y0.18030
X1.14684 Y0.17630
X1.14584 Y0.17630
X1.14584 Y0.17130
X1.14484 Y0.17130
X1.14484 Y0.16930
X1.14384 Y0.16930
X1.14384 Y0.16730
X1.14284 Y0.16730
X1.14284 Y0.16530
X1.14184 Y0.16530
X1.14184 Y0.16330
X1.14084 Y0.16330
X1.14084 Y0.16230
X1.13984 Y0.16230
X1.13984 Y0.16130
X1.13884 Y0.16130
X1.13884 Y0.16030
X1.13784 Y0.16030
X1.13784 Y0.15630
X1.13684 Y0.15630
X1.13684 Y0.15430
X1.13584 Y0.15430
X1.13584 Y0.15030
X1.13684 Y0.15030
X1.13684 Y0.14930
X1.13784 Y0.14930
X1.13784 Y0.14830
X1.26384 Y0.14830
X1.26384 Y0.14930
X1.26484 Y0.14930
X1.26484 Y0.15030
X1.26584 Y0.15030
X1.26584 Y0.15130
X1.26684 Y0.15130
X1.26684 Y0.15330
X1.26584 Y0.15330
X1.26584 Y0.15530
X1.26484 Y0.15530
X1.26484 Y0.15730
X1.26384 Y0.15730
X1.26384 Y0.16030
X1.26284 Y0.16030
X1.26284 Y0.16130
X1.26184 Y0.16130
X1.26184 Y0.16230
X1.26084 Y0.16230
X1.26084 Y0.16330
X1.25984 Y0.16330
X1.25984 Y0.16530
X1.25884 Y0.16530
X1.25884 Y0.16630
X1.25784 Y0.16630
X1.25784 Y0.16830
X1.25684 Y0.16830
X1.25684 Y0.17230
X1.25584 Y0.17230
X1.25584 Y0.17530
X1.25484 Y0.17530
X1.25484 Y0.17730
X1.25384 Y0.17730
X1.25384 Y0.19430
X1.25484 Y0.19430
X1.25484 Y0.19630
X1.25584 Y0.19630
X1.25584 Y0.19930
X1.25684 Y0.19930
X1.25684 Y0.20230
X1.25784 Y0.20230
X1.25784 Y0.20430
X1.25884 Y0.20430
X1.25884 Y0.20530
X1.25984 Y0.20530
X1.25984 Y0.20730
X1.26084 Y0.20730
X1.26084 Y0.20830
X1.26184 Y0.20830
X1.26184 Y0.21030
X1.26284 Y0.21030
X1.26284 Y0.21130
X1.26384 Y0.21130
X1.26384 Y0.21230
X1.26484 Y0.21230
X1.26484 Y0.21330
X1.26584 Y0.21330
X1.26584 Y0.21430
X1.26784 Y0.21430
X1.26784 Y0.21530
X1.26884 Y0.21530
X1.26884 Y0.21630
X1.27084 Y0.21630
X1.27084 Y0.21730
X1.27184 Y0.21730
X1.27184 Y0.21830
X1.27384 Y0.21830
X1.27384 Y0.21930
X1.27584 Y0.21930
X1.27584 Y0.22030
X1.27984 Y0.22030
X1.27984 Y0.22130
X1.28184 Y0.22130
X1.28184 Y0.22230
X1.29884 Y0.22230
X1.29884 Y0.22130
X1.30084 Y0.22130
X1.30084 Y0.22030
X1.30484 Y0.22030
X1.30484 Y0.21930
X1.30784 Y0.21930
X1.30784 Y0.21830
X1.30984 Y0.21830
X1.30984 Y0.21730
X1.31084 Y0.21730
X1.31084 Y0.21630
X1.31284 Y0.21630
X1.31284 Y0.21530
X1.31384 Y0.21530
X1.31384 Y0.21430
X1.31484 Y0.21430
X1.31484 Y0.21330
X1.31584 Y0.21330
X1.31584 Y0.21230
X1.31684 Y0.21230
X1.31684 Y0.21130
X1.31784 Y0.21130
X1.31784 Y0.21030
X1.31884 Y0.21030
X1.31884 Y0.20930
X1.31984 Y0.20930
X1.31984 Y0.20830
X1.32084 Y0.20830
X1.32084 Y0.20730
X1.32184 Y0.20730
X1.32184 Y0.20530
X1.32284 Y0.20530
X1.32284 Y0.20330
X1.32384 Y0.20330
X1.32384 Y0.19930
X1.32484 Y0.19930
X1.32484 Y0.19630
X1.32584 Y0.19630
X1.32584 Y0.19430
X1.32684 Y0.19430
X1.32684 Y0.18730
X1.32784 Y0.18730
X1.32784 Y0.18430
X1.32684 Y0.18430
X1.32684 Y0.17730
X1.32584 Y0.17730
X1.32584 Y0.17430
X1.32484 Y0.17430
X1.32484 Y0.17230
X1.32384 Y0.17230
X1.32384 Y0.16730
X1.32284 Y0.16730
X1.32284 Y0.16630
X1.32184 Y0.16630
X1.32184 Y0.16430
X1.32084 Y0.16430
X1.32084 Y0.16330
X1.31984 Y0.16330
X1.31984 Y0.16130
X1.31884 Y0.16130
X1.31884 Y0.16030
X1.31784 Y0.16030
X1.31784 Y0.15930
X1.31684 Y0.15930
X1.31684 Y0.15630
X1.31584 Y0.15630
X1.31584 Y0.15430
X1.31484 Y0.15430
X1.31484 Y0.15130
X1.31584 Y0.15130
X1.31584 Y0.15030
X1.31684 Y0.15030
X1.31684 Y0.14930
X1.31784 Y0.14930
X1.31784 Y0.14830
X1.56384 Y0.14830
X1.56384 Y0.14930
X1.56484 Y0.14930
X1.56484 Y0.15030
X1.56584 Y0.15030
X1.56584 Y0.15430
X1.56484 Y0.15430
X1.56484 Y0.15630
X1.56384 Y0.15630
X1.56384 Y0.15930
X1.56284 Y0.15930
X1.56284 Y0.16030
X1.56184 Y0.16030
X1.56184 Y0.16130
X1.56084 Y0.16130
X1.56084 Y0.16330
X1.55984 Y0.16330
X1.55984 Y0.16430
X1.55884 Y0.16430
X1.55884 Y0.16630
X1.55784 Y0.16630
X1.55784 Y0.16730
X1.55684 Y0.16730
X1.55684 Y0.16930
X1.55584 Y0.16930
X1.55584 Y0.17130
X1.55484 Y0.17130
X1.55484 Y0.17630
X1.55384 Y0.17630
X1.55384 Y0.18230
X1.55284 Y0.18230
X1.55284 Y0.18930
X1.55384 Y0.18930
X1.55384 Y0.19530
X1.55484 Y0.19530
X1.55484 Y0.19830
X1.55584 Y0.19830
X1.55584 Y0.20230
X1.55484 Y0.20230
X1.55484 Y0.20530
X1.55384 Y0.20530
X1.55384 Y0.20830
X1.55284 Y0.20830
X1.55284 Y0.20930
X1.55184 Y0.20930
X1.55184 Y0.21030
X1.55084 Y0.21030
X1.55084 Y0.21130
X1.54984 Y0.21130
X1.54984 Y0.21230
X1.54884 Y0.21230
X1.54884 Y0.21330
X1.54784 Y0.21330
X1.54784 Y0.21430
X1.54684 Y0.21430
X1.54684 Y0.21530
X1.54584 Y0.21530
X1.54584 Y0.21630
X1.54484 Y0.21630
X1.54484 Y0.21730
X1.54384 Y0.21730
X1.54384 Y0.21830
X1.54284 Y0.21830
X1.54284 Y0.21930
X1.54184 Y0.21930
X1.54184 Y0.22030
X1.54084 Y0.22030
X1.54084 Y0.22130
X1.53984 Y0.22130
X1.53984 Y0.22230
X1.53884 Y0.22230
X1.53884 Y0.22330
X1.53784 Y0.22330
X1.53784 Y0.22430
X1.53684 Y0.22430
X1.53684 Y0.22530
X1.53584 Y0.22530
X1.53584 Y0.22630
X1.53484 Y0.22630
X1.53484 Y0.22730
X1.53384 Y0.22730
X1.53384 Y0.22830
X1.53284 Y0.22830
X1.53284 Y0.22930
X1.53184 Y0.22930
X1.53184 Y0.23030
X1.53084 Y0.23030
X1.53084 Y0.23130
X1.52984 Y0.23130
X1.52984 Y0.23230
X1.52884 Y0.23230
X1.52884 Y0.23330
X1.52784 Y0.23330
X1.52784 Y0.23430
X1.52684 Y0.23430
X1.52684 Y0.23530
X1.52584 Y0.23530
X1.52584 Y0.23630
X1.52484 Y0.23630
X1.52484 Y0.23730
X1.52384 Y0.23730
X1.52384 Y0.23830
X1.52284 Y0.23830
X1.52284 Y0.23930
X1.52184 Y0.23930
X1.52184 Y0.24030
X1.52084 Y0.24030
X1.52084 Y0.24130
X1.51984 Y0.24130
X1.51984 Y0.24230
X1.51884 Y0.24230
X1.51884 Y0.24330
X1.51784 Y0.24330
X1.51784 Y0.24430
X1.51684 Y0.24430
X1.51684 Y0.24530
X1.51584 Y0.24530
X1.51584 Y0.24630
X1.51484 Y0.24630
X1.51484 Y0.24730
X1.51384 Y0.24730
X1.51384 Y0.24830
X1.51284 Y0.24830
X1.51284 Y0.24930
X1.51184 Y0.24930
X1.51184 Y0.25030
X1.51084 Y0.25030
X1.51084 Y0.25130
X1.50984 Y0.25130
X1.50984 Y0.25230
X1.50884 Y0.25230
X1.50884 Y0.25330
X1.50784 Y0.25330
X1.50784 Y0.25430
X1.50684 Y0.25430
X1.50684 Y0.25530
X1.50584 Y0.25530
X1.50584 Y0.25630
X1.50484 Y0.25630
X1.50484 Y0.25730
X1.50384 Y0.25730
X1.50384 Y0.25830
X1.50284 Y0.25830
X1.50284 Y0.25930
X1.50184 Y0.25930
X1.50184 Y0.26030
X1.50084 Y0.26030
X1.50084 Y0.26130
X1.49984 Y0.26130
X1.49984 Y0.26230
X1.49884 Y0.26230
X1.49884 Y0.26330
X1.49784 Y0.26330
X1.49784 Y0.26430
X1.49684 Y0.26430
X1.49684 Y0.26530
X1.49584 Y0.26530
X1.49584 Y0.26630
X1.49484 Y0.26630
X1.49484 Y0.26730
X1.49384 Y0.26730
X1.49384 Y0.26830
X1.49284 Y0.26830
X1.49284 Y0.26930
X1.49184 Y0.26930
X1.49184 Y0.27030
X1.49084 Y0.27030
X1.49084 Y0.27130
X1.48984 Y0.27130
X1.48984 Y0.27230
X1.48884 Y0.27230
X1.48884 Y0.27330
X1.48784 Y0.27330
X1.48784 Y0.27430
X1.48684 Y0.27430
X1.48684 Y0.27530
X1.48584 Y0.27530
X1.48584 Y0.27630
X1.48484 Y0.27630
X1.48484 Y0.27730
X1.48384 Y0.27730
X1.48384 Y0.27830
X1.48284 Y0.27830
X1.48284 Y0.27930
X1.48184 Y0.27930
X1.48184 Y0.28030
X1.48084 Y0.28030
X1.48084 Y0.28130
X1.47984 Y0.28130
X1.47984 Y0.28230
X1.47884 Y0.28230
X1.47884 Y0.28330
X1.47784 Y0.28330
X1.47784 Y0.28430
X1.47684 Y0.28430
X1.47684 Y0.28530
X1.47584 Y0.28530
X1.47584 Y0.28630
X1.47484 Y0.28630
X1.47484 Y0.28730
X1.47384 Y0.28730
X1.47384 Y0.28830
X1.47284 Y0.28830
X1.47284 Y0.28930
X1.47184 Y0.28930
X1.47184 Y0.29030
X1.47084 Y0.29030
X1.47084 Y0.29130
X1.46984 Y0.29130
X1.46984 Y0.29230
X1.46884 Y0.29230
X1.46884 Y0.29330
X1.46784 Y0.29330
X1.46784 Y0.29430
X1.46684 Y0.29430
X1.46684 Y0.29530
X1.46584 Y0.29530
X1.46584 Y0.29630
X1.46484 Y0.29630
X1.46484 Y0.29730
X1.46384 Y0.29730
X1.46384 Y0.29830
X1.46284 Y0.29830
X1.46284 Y0.29930
X1.46184 Y0.29930
X1.46184 Y0.30030
X1.46084 Y0.30030
X1.46084 Y0.30130
X1.45984 Y0.30130
X1.45984 Y0.30230
X1.45884 Y0.30230
X1.45884 Y0.30330
X1.45784 Y0.30330
X1.45784 Y0.30430
X1.45684 Y0.30430
X1.45684 Y0.30530
X1.45584 Y0.30530
X1.45584 Y0.30630
X1.45484 Y0.30630
X1.45484 Y0.30730
X1.45384 Y0.30730
X1.45384 Y0.30830
X1.45284 Y0.30830
X1.45284 Y0.30930
X1.45184 Y0.30930
X1.45184 Y0.31030
X1.45084 Y0.31030
X1.45084 Y0.31130
X1.44984 Y0.31130
X1.44984 Y0.31230
X1.44884 Y0.31230
X1.44884 Y0.31330
X1.44784 Y0.31330
X1.44784 Y0.31430
X1.44684 Y0.31430
X1.44684 Y0.31530
X1.44584 Y0.31530
X1.44584 Y0.31630
X1.44484 Y0.31630
X1.44484 Y0.31730
X1.44384 Y0.31730
X1.44384 Y0.31830
X1.44284 Y0.31830
X1.44284 Y0.31930
X1.44184 Y0.31930
X1.44184 Y0.32030
X1.44084 Y0.32030
X1.44084 Y0.32130
X1.43984 Y0.32130
X1.43984 Y0.32230
X1.43884 Y0.32230
X1.43884 Y0.32330
X1.43784 Y0.32330
X1.43784 Y0.32430
X1.43684 Y0.32430
X1.43684 Y0.32530
X1.43584 Y0.32530
X1.43584 Y0.32630
X1.43484 Y0.32630
X1.43484 Y0.32730
X1.43384 Y0.32730
X1.43384 Y0.32830
X1.43284 Y0.32830
X1.43284 Y0.32930
X1.43184 Y0.32930
X1.43184 Y0.33030
X1.43084 Y0.33030
X1.43084 Y0.33130
X1.42984 Y0.33130
X1.42984 Y0.33230
X1.42884 Y0.33230
X1.42884 Y0.33330
X1.42784 Y0.33330
X1.42784 Y0.33430
X1.42684 Y0.33430
X1.42684 Y0.33530
X1.42584 Y0.33530
X1.42584 Y0.33630
X1.42484 Y0.33630
X1.42484 Y0.33730
X1.42384 Y0.33730
X1.42384 Y0.33830
X1.42284 Y0.33830
X1.42284 Y0.33930
X1.42184 Y0.33930
X1.42184 Y0.34030
X1.42084 Y0.34030
X1.42084 Y0.34130
X1.41984 Y0.34130
X1.41984 Y0.34230
X1.41884 Y0.34230
X1.41884 Y0.34330
X1.41784 Y0.34330
X1.41784 Y0.34430
X1.41684 Y0.34430
X1.41684 Y0.34530
X1.41584 Y0.34530
X1.41584 Y0.34630
X1.41484 Y0.34630
X1.41484 Y0.34730
X1.41384 Y0.34730
X1.41384 Y0.34830
X1.41084 Y0.34830
X1.41084 Y0.34930
X1.30084 Y0.34930
X1.30084 Y0.34830
X1.29384 Y0.34830
X1.29384 Y0.34730
X1.29284 Y0.34730
X1.29284 Y0.34630
X1.28984 Y0.34630
X1.28984 Y0.34530
X1.28684 Y0.34530
X1.28684 Y0.34430
G04 P0 ( dwell for no time -- G64 should not smooth over this point )
G00 Z0.19685 ( retract )

G00 X1.25784 Y0.41530 ( rapid move to begin. )
F0.98425
G01 Z-0.01969
G04 P0 ( dwell for no time -- G64 should not smooth over this point )
F1.96850
X1.25784 Y0.41530
X1.25784 Y0.41430
X1.25684 Y0.41430
X1.25684 Y0.41330
X1.25584 Y0.41330
X1.25584 Y0.41230
X1.25484 Y0.41230
X1.25484 Y0.41030
X1.25384 Y0.41030
X1.25384 Y0.40930
X1.25284 Y0.40930
X1.25284 Y0.40730
X1.25184 Y0.40730
X1.25184 Y0.40430
X1.25084 Y0.40430
X1.25084 Y0.39930
X1.24984 Y0.39930
X1.24984 Y0.37230
X1.25084 Y0.37230
X1.25084 Y0.36730
X1.25184 Y0.36730
X1.25184 Y0.36330
X1.25284 Y0.36330
X1.25284 Y0.36130
X1.25384 Y0.36130
X1.25384 Y0.36030
X1.25484 Y0.36030
X1.25484 Y0.35830
X1.25584 Y0.35830
X1.25584 Y0.35730
X1.25684 Y0.35730
X1.25684 Y0.35630
X1.25784 Y0.35630
X1.25784 Y0.35530
X1.25884 Y0.35530
X1.25884 Y0.35330
X1.25784 Y0.35330
X1.25784 Y0.35230
X1.25684 Y0.35230
X1.25684 Y0.35130
X1.25584 Y0.35130
X1.25584 Y0.35030
X1.25484 Y0.35030
X1.25484 Y0.34930
X1.25384 Y0.34930
X1.25384 Y0.34830
X1.25284 Y0.34830
X1.25284 Y0.34730
X1.25184 Y0.34730
X1.25184 Y0.34630
X1.25084 Y0.34630
X1.25084 Y0.34530
X1.24984 Y0.34530
X1.24984 Y0.34430
X1.24884 Y0.34430
X1.24884 Y0.34330
X1.24784 Y0.34330
X1.24784 Y0.34230
X1.24684 Y0.34230
X1.24684 Y0.34130
X1.24584 Y0.34130
X1.24584 Y0.34030
X1.24484 Y0.34030
X1.24484 Y0.33930
X1.24384 Y0.33930
X1.24384 Y0.33830
X1.24284 Y0.33830
X1.24284 Y0.33730
X1.24184 Y0.33730
X1.24184 Y0.33630
X1.24084 Y0.33630
X1.24084 Y0.33530
X1.23984 Y0.33530
X1.23984 Y0.33430
X1.23884 Y0.33430
X1.23884 Y0.33330
X1.23784 Y0.33330
X1.23784 Y0.33230
X1.23684 Y0.33230
X1.23684 Y0.33130
X1.23584 Y0.33130
X1.23584 Y0.33030
X1.23484 Y0.33030
X1.23484 Y0.32930
X1.23384 Y0.32930
X1.23384 Y0.32830
X1.23284 Y0.32830
X1.23284 Y0.32730
X1.23184 Y0.32730
X1.23184 Y0.32630
X1.23084 Y0.32630
X1.23084 Y0.32530
X1.22984 Y0.32530
X1.22984 Y0.32430
X1.22884 Y0.32430
X1.22884 Y0.32330
X1.22784 Y0.32330
X1.22784 Y0.32230
X1.22684 Y0.32230
X1.22684 Y0.32130
X1.22584 Y0.32130
X1.22584 Y0.32030
X1.22484 Y0.32030
X1.22484 Y0.31930
X1.22384 Y0.31930
X1.22384 Y0.31830
X1.22284 Y0.31830
X1.22284 Y0.31730
X1.22184 Y0.31730
X1.22184 Y0.31630
X1.22084 Y0.31630
X1.22084 Y0.31530
X1.21984 Y0.31530
X1.21984 Y0.31430
X1.21884 Y0.31430
X1.21884 Y0.31330
X1.21784 Y0.31330
X1.21784 Y0.31230
X1.21684 Y0.31230
X1.21684 Y0.31130
X1.21584 Y0.31130
X1.21584 Y0.31030
X1.21484 Y0.31030
X1.21484 Y0.30930
X1.21384 Y0.30930
X1.21384 Y0.30830
X1.21284 Y0.30830
X1.21284 Y0.30730
X1.21184 Y0.30730
X1.21184 Y0.30630
X1.21084 Y0.30630
X1.21084 Y0.30530
X1.20984 Y0.30530
X1.20984 Y0.30430
X1.20884 Y0.30430
X1.20884 Y0.30330
X1.20784 Y0.30330
X1.20784 Y0.30230
X1.20684 Y0.30230
X1.20684 Y0.30130
X1.20584 Y0.30130
X1.20584 Y0.30030
X1.20484 Y0.30030
X1.20484 Y0.29930
X1.20384 Y0.29930
X1.20384 Y0.29830
X1.20284 Y0.29830
X1.20284 Y0.29730
X1.20184 Y0.29730
X1.20184 Y0.29630
X1.20084 Y0.29630
X1.20084 Y0.29530
X1.19984 Y0.29530
X1.19984 Y0.29430
X1.19884 Y0.29430
X1.19884 Y0.29330
X1.19784 Y0.29330
X1.19784 Y0.29230
X1.19684 Y0.29230
X1.19684 Y0.29130
X1.19584 Y0.29130
X1.19584 Y0.29030
X1.19484 Y0.29030
X1.19484 Y0.28930
X1.19384 Y0.28930
X1.19384 Y0.28830
X1.19284 Y0.28830
X1.19284 Y0.28730
X1.19184 Y0.28730
X1.19184 Y0.28630
X1.19084 Y0.28630
X1.19084 Y0.28530
X1.18984 Y0.28530
X1.18984 Y0.28430
X1.18884 Y0.28430
X1.18884 Y0.28330
X1.18784 Y0.28330
X1.18784 Y0.28230
X1.18684 Y0.28230
X1.18684 Y0.28130
X1.18584 Y0.28130
X1.18584 Y0.28030
X1.18484 Y0.28030
X1.18484 Y0.27930
X1.18384 Y0.27930
X1.18384 Y0.27830
X1.18284 Y0.27830
X1.18284 Y0.27730
X1.18184 Y0.27730
X1.18184 Y0.27630
X1.18084 Y0.27630
X1.18084 Y0.27530
X1.17984 Y0.27530
X1.17984 Y0.27430
X1.17884 Y0.27430
X1.17884 Y0.27330
X1.17784 Y0.27330
X1.17784 Y0.27230
X1.17684 Y0.27230
X1.17684 Y0.27130
X1.17584 Y0.27130
X1.17584 Y0.27030
X1.17484 Y0.27030
X1.17484 Y0.26930
X1.17384 Y0.26930
X1.17384 Y0.26830
X1.17284 Y0.26830
X1.17284 Y0.26730
X1.17184 Y0.26730
X1.17184 Y0.26630
X1.17084 Y0.26630
X1.17084 Y0.26530
X1.16984 Y0.26530
X1.16984 Y0.26430
X1.16884 Y0.26430
X1.16884 Y0.26330
X1.16784 Y0.26330
X1.16784 Y0.26230
X1.16684 Y0.26230
X1.16684 Y0.26130
X1.16584 Y0.26130
X1.16584 Y0.26030
X1.16484 Y0.26030
X1.16484 Y0.25930
X1.16384 Y0.25930
X1.16384 Y0.25830
X1.16284 Y0.25830
X1.16284 Y0.25730
X1.16184 Y0.25730
X1.16184 Y0.25630
X1.16084 Y0.25630
X1.16084 Y0.25530
X1.15984 Y0.25530
X1.15984 Y0.25430
X1.15884 Y0.25430
X1.15884 Y0.25330
X1.15784 Y0.25330
X1.15784 Y0.25230
X1.15684 Y0.25230
X1.15684 Y0.25130
X1.15584 Y0.25130
X1.15584 Y0.25030
X1.15484 Y0.25030
X1.15484 Y0.24930
X1.15384 Y0.24930
X1.15384 Y0.24830
X1.15284 Y0.24830
X1.15284 Y0.24730
X1.15184 Y0.24730
X1.15184 Y0.24630
X1.15084 Y0.24630
X1.15084 Y0.24530
X1.14984 Y0.24530
X1.14984 Y0.24430
X1.14884 Y0.24430
X1.14884 Y0.24330
X1.14784 Y0.24330
X1.14784 Y0.24230
X1.14684 Y0.24230
X1.14684 Y0.24130
X1.14584 Y0.24130
X1.14584 Y0.24030
X1.14484 Y0.24030
X1.14484 Y0.23930
X1.14384 Y0.23930
X1.14384 Y0.23830
X1.14284 Y0.23830
X1.14284 Y0.23730
X1.14184 Y0.23730
X1.14184 Y0.23630
X1.14084 Y0.23630
X1.14084 Y0.23530
X1.13984 Y0.23530
X1.13984 Y0.23430
X1.13884 Y0.23430
X1.13884 Y0.23330
X1.13784 Y0.23330
X1.13784 Y0.23230
X1.13684 Y0.23230
X1.13684 Y0.23130
X1.13584 Y0.23130
X1.13584 Y0.23030
X1.13484 Y0.23030
X1.13484 Y0.22930
X1.13384 Y0.22930
X1.13384 Y0.22830
X1.13284 Y0.22830
X1.13284 Y0.22730
X1.13184 Y0.22730
X1.13184 Y0.22530
X1.12884 Y0.22530
X1.12884 Y0.22630
X1.12684 Y0.22630
X1.12684 Y0.22730
X1.12384 Y0.22730
X1.12384 Y0.22630
X1.09684 Y0.22630
X1.09684 Y0.22530
X1.09084 Y0.22530
X1.09084 Y0.22430
X1.08884 Y0.22430
X1.08884 Y0.22330
X1.08684 Y0.22330
X1.08684 Y0.22230
X1.08584 Y0.22230
X1.08584 Y0.22130
X1.08384 Y0.22130
X1.08384 Y0.22030
X1.08284 Y0.22030
X1.08284 Y0.21930
X1.08084 Y0.21930
X1.08084 Y0.21830
X1.07984 Y0.21830
X1.07984 Y0.21730
X1.07884 Y0.21730
X1.07884 Y0.21630
X1.07784 Y0.21630
X1.07784 Y0.21530
X1.07684 Y0.21530
X1.07684 Y0.21330
X1.07584 Y0.21330
X1.07584 Y0.21230
X1.07484 Y0.21230
X1.07484 Y0.21030
X1.07384 Y0.21030
X1.07384 Y0.20930
X1.07284 Y0.20930
X1.07284 Y0.20730
X1.07184 Y0.20730
X1.07184 Y0.20430
X1.07084 Y0.20430
X1.07084 Y0.19930
X1.06984 Y0.19930
X1.06984 Y0.17230
X1.07084 Y0.17230
X1.07084 Y0.16730
X1.07184 Y0.16730
X1.07184 Y0.16330
X1.07284 Y0.16330
X1.07284 Y0.16130
X1.07384 Y0.16130
X1.07384 Y0.16030
X1.07484 Y0.16030
X1.07484 Y0.15830
X1.07584 Y0.15830
X1.07584 Y0.15730
X1.07684 Y0.15730
X1.07684 Y0.15630
X1.07784 Y0.15630
X1.07784 Y0.15530
X1.07884 Y0.15530
X1.07884 Y0.15330
X1.08184 Y0.15330
X1.08184 Y0.15230
X1.08584 Y0.15230
X1.08584 Y0.15130
X1.09084 Y0.15130
X1.09084 Y0.15030
X1.10084 Y0.15030
X1.10084 Y0.14930
X1.11984 Y0.14930
X1.11984 Y0.15030
X1.12984 Y0.15030
X1.12984 Y0.15130
X1.13584 Y0.15130
X1.13584 Y0.15430
X1.13684 Y0.15430
X1.13684 Y0.15630
X1.13784 Y0.15630
X1.13784 Y0.16030
X1.13884 Y0.16030
X1.13884 Y0.16130
X1.13984 Y0.16130
X1.13984 Y0.16230
X1.14084 Y0.16230
X1.14084 Y0.16330
X1.14184 Y0.16330
X1.14184 Y0.16530
X1.14284 Y0.16530
X1.14284 Y0.16730
X1.14384 Y0.16730
X1.14384 Y0.16930
X1.14484 Y0.16930
X1.14484 Y0.17130
X1.14584 Y0.17130
X1.14584 Y0.17630
X1.14684 Y0.17630
X1.14684 Y0.18030
X1.14784 Y0.18030
X1.14784 Y0.19130
X1.14684 Y0.19130
X1.14684 Y0.19530
X1.14584 Y0.19530
X1.14584 Y0.20330
X1.14684 Y0.20330
X1.14684 Y0.20630
X1.14784 Y0.20630
X1.14784 Y0.20830
X1.14884 Y0.20830
X1.14884 Y0.20930
X1.14984 Y0.20930
X1.14984 Y0.21030
X1.15084 Y0.21030
X1.15084 Y0.21130
X1.15184 Y0.21130
X1.15184 Y0.21230
X1.15284 Y0.21230
X1.15284 Y0.21330
X1.15384 Y0.21330
X1.15384 Y0.21430
X1.15484 Y0.21430
X1.15484 Y0.21530
X1.15584 Y0.21530
X1.15584 Y0.21630
X1.15684 Y0.21630
X1.15684 Y0.21730
X1.15784 Y0.21730
X1.15784 Y0.21830
X1.15884 Y0.21830
X1.15884 Y0.21930
X1.15984 Y0.21930
X1.15984 Y0.22030
X1.16084 Y0.22030
X1.16084 Y0.22130
X1.16184 Y0.22130
X1.16184 Y0.22230
X1.16284 Y0.22230
X1.16284 Y0.22330
X1.16384 Y0.22330
X1.16384 Y0.22430
X1.16484 Y0.22430
X1.16484 Y0.22530
X1.16584 Y0.22530
X1.16584 Y0.22630
X1.16684 Y0.22630
X1.16684 Y0.22730
X1.16784 Y0.22730
X1.16784 Y0.22830
X1.16884 Y0.22830
X1.16884 Y0.22930
X1.16984 Y0.22930
X1.16984 Y0.23030
X1.17084 Y0.23030
X1.17084 Y0.23130
X1.17184 Y0.23130
X1.17184 Y0.23230
X1.17284 Y0.23230
X1.17284 Y0.23330
X1.17384 Y0.23330
X1.17384 Y0.23430
X1.17484 Y0.23430
X1.17484 Y0.23530
X1.17584 Y0.23530
X1.17584 Y0.23630
X1.17684 Y0.23630
X1.17684 Y0.23730
X1.17784 Y0.23730
X1.17784 Y0.23830
X1.17884 Y0.23830
X1.17884 Y0.23930
X1.17984 Y0.23930
X1.17984 Y0.24030
X1.18084 Y0.24030
X1.18084 Y0.24130
X1.18184 Y0.24130
X1.18184 Y0.24230
X1.18284 Y0.24230
X1.18284 Y0.24330
X1.18384 Y0.24330
X1.18384 Y0.24430
X1.18484 Y0.24430
X1.18484 Y0.24530
X1.18584 Y0.24530
X1.18584 Y0.24630
X1.18684 Y0.24630
X1.18684 Y0.24730
X1.18784 Y0.24730
X1.18784 Y0.24830
X1.18884 Y0.24830
X1.18884 Y0.24930
X1.18984 Y0.24930
X1.18984 Y0.25030
X1.19084 Y0.25030
X1.19084 Y0.25130
X1.19184 Y0.25130
X1.19184 Y0.25230
X1.19284 Y0.25230
X1.19284 Y0.25330
X1.19384 Y0.25330
X1.19384 Y0.25430
X1.19484 Y0.25430
X1.19484 Y0.25530
X1.19584 Y0.25530
X1.19584 Y0.25630
X1.19684 Y0.25630
X1.19684 Y0.25730
X1.19784 Y0.25730
X1.19784 Y0.25830
X1.19884 Y0.25830
X1.19884 Y0.25930
X1.19984 Y0.25930
X1.19984 Y0.26030
X1.20084 Y0.26030
X1.20084 Y0.26130
X1.20184 Y0.26130
X1.20184 Y0.26230
X1.20284 Y0.26230
X1.20284 Y0.26330
X1.20384 Y0.26330
X1.20384 Y0.26430
X1.20484 Y0.26430
X1.20484 Y0.26530
X1.20584 Y0.26530
X1.20584 Y0.26630
X1.20684 Y0.26630
X1.20684 Y0.26730
X1.20784 Y0.26730
X1.20784 Y0.26830
X1.20884 Y0.26830
X1.20884 Y0.26930
X1.20984 Y0.26930
X1.20984 Y0.27030
X1.21084 Y0.27030
X1.21084 Y0.27130
X1.21184 Y0.27130
X1.21184 Y0.27230
X1.21284 Y0.27230
X1.21284 Y0.27330
X1.21384 Y0.27330
X1.21384 Y0.27430
X1.21484 Y0.27430
X1.21484 Y0.27530
X1.21584 Y0.27530
X1.21584 Y0.27630
X1.21684 Y0.27630
X1.21684 Y0.27730
X1.21784 Y0.27730
X1.21784 Y0.27830
X1.21884 Y0.27830
X1.21884 Y0.27930
X1.21984 Y0.27930
X1.21984 Y0.28030
X1.22084 Y0.28030
X1.22084 Y0.28130
X1.22184 Y0.28130
X1.22184 Y0.28230
X1.22284 Y0.28230
X1.22284 Y0.28330
X1.22384 Y0.28330
X1.22384 Y0.28430
X1.22484 Y0.28430
X1.22484 Y0.28530
X1.22584 Y0.28530
X1.22584 Y0.28630
X1.22684 Y0.28630
X1.22684 Y0.28730
X1.22784 Y0.28730
X1.22784 Y0.28830
X1.22884 Y0.28830
X1.22884 Y0.28930
X1.22984 Y0.28930
X1.22984 Y0.29030
X1.23084 Y0.29030
X1.23084 Y0.29130
X1.23184 Y0.29130
X1.23184 Y0.29230
X1.23284 Y0.29230
X1.23284 Y0.29330
X1.23384 Y0.29330
X1.23384 Y0.29430
X1.23484 Y0.29430
X1.23484 Y0.29530
X1.23584 Y0.29530
X1.23584 Y0.29630
X1.23684 Y0.29630
X1.23684 Y0.29730
X1.23784 Y0.29730
X1.23784 Y0.29830
X1.23884 Y0.29830
X1.23884 Y0.29930
X1.23984 Y0.29930
X1.23984 Y0.30030
X1.24084 Y0.30030
X1.24084 Y0.30130
X1.24184 Y0.30130
X1.24184 Y0.30230
X1.24284 Y0.30230
X1.24284 Y0.30330
X1.24484 Y0.30330
X1.24484 Y0.30430
X1.24784 Y0.30430
X1.24784 Y0.30530
X1.25084 Y0.30530
X1.25084 Y0.30630
X1.25584 Y0.30630
X1.25584 Y0.30730
X1.25684 Y0.30730
X1.25684 Y0.30930
X1.25784 Y0.30930
X1.25784 Y0.31030
X1.25884 Y0.31030
X1.25884 Y0.31230
X1.25984 Y0.31230
X1.25984 Y0.31330
X1.26084 Y0.31330
X1.26084 Y0.31430
X1.26184 Y0.31430
X1.26184 Y0.31530
X1.26284 Y0.31530
X1.26284 Y0.31630
X1.26384 Y0.31630
X1.26384 Y0.31730
X1.26584 Y0.31730
X1.26584 Y0.31830
X1.26784 Y0.31830
X1.26784 Y0.31930
X1.26884 Y0.31930
X1.26884 Y0.32030
X1.26984 Y0.32030
X1.26984 Y0.32530
X1.27084 Y0.32530
X1.27084 Y0.32830
X1.27184 Y0.32830
X1.27184 Y0.33130
X1.27284 Y0.33130
X1.27284 Y0.33330
X1.27384 Y0.33330
X1.27384 Y0.33430
X1.27484 Y0.33430
X1.27484 Y0.33530
X1.27584 Y0.33530
X1.27584 Y0.33630
X1.27684 Y0.33630
X1.27684 Y0.33730
X1.27784 Y0.33730
X1.27784 Y0.33830
X1.27884 Y0.33830
X1.27884 Y0.33930
X1.27984 Y0.33930
X1.27984 Y0.34030
X1.28084 Y0.34030
X1.28084 Y0.34130
X1.28184 Y0.34130
X1.28184 Y0.34230
X1.28284 Y0.34230
X1.28284 Y0.34330
X1.28384 Y0.34330
X1.28384 Y0.34430
X1.28684 Y0.34430
X1.28684 Y0.34530
X1.28984 Y0.34530
X1.28984 Y0.34630
X1.29284 Y0.34630
X1.29284 Y0.34730
X1.29384 Y0.34730
X1.29384 Y0.34830
X1.30084 Y0.34830
X1.30084 Y0.34930
X1.41084 Y0.34930
X1.41084 Y0.34830
X1.41384 Y0.34830
X1.41384 Y0.34730
X1.41484 Y0.34730
X1.41484 Y0.34630
X1.41584 Y0.34630
X1.41584 Y0.34530
X1.41684 Y0.34530
X1.41684 Y0.34430
X1.41784 Y0.34430
X1.41784 Y0.34330
X1.41884 Y0.34330
X1.41884 Y0.34230
X1.41984 Y0.34230
X1.41984 Y0.34130
X1.42084 Y0.34130
X1.42084 Y0.34030
X1.42184 Y0.34030
X1.42184 Y0.33930
X1.42284 Y0.33930
X1.42284 Y0.33830
X1.42384 Y0.33830
X1.42384 Y0.33730
X1.42484 Y0.33730
X1.42484 Y0.33630
X1.42584 Y0.33630
X1.42584 Y0.33530
X1.42684 Y0.33530
X1.42684 Y0.33430
X1.42784 Y0.33430
X1.42784 Y0.33330
X1.42884 Y0.33330
X1.42884 Y0.33230
X1.42984 Y0.33230
X1.42984 Y0.33130
X1.43084 Y0.33130
X1.43084 Y0.33030
X1.43184 Y0.33030
X1.43184 Y0.32930
X1.43284 Y0.32930
X1.43284 Y0.32830
X1.43384 Y0.32830
X1.43384 Y0.32730
X1.43484 Y0.32730
X1.43484 Y0.32630
X1.43584 Y0.32630
X1.43584 Y0.32530
X1.43684 Y0.32530
X1.43684 Y0.32430
X1.43784 Y0.32430
X1.43784 Y0.32330
X1.43884 Y0.32330
X1.43884 Y0.32230
X1.43984 Y0.32230
X1.43984 Y0.32130
X1.44084 Y0.32130
X1.44084 Y0.32030
X1.44184 Y0.32030
X1.44184 Y0.31930
X1.44284 Y0.31930
X1.44284 Y0.31830
X1.44384 Y0.31830
X1.44384 Y0.31730
X1.44484 Y0.31730
X1.44484 Y0.31630
X1.44584 Y0.31630
X1.44584 Y0.31530
X1.44684 Y0.31530
X1.44684 Y0.31430
X1.44784 Y0.31430
X1.44784 Y0.31330
X1.44884 Y0.31330
X1.44884 Y0.31230
X1.44984 Y0.31230
X1.44984 Y0.31130
X1.45084 Y0.31130
X1.45084 Y0.31030
X1.45184 Y0.31030
X1.45184 Y0.30930
X1.45284 Y0.30930
X1.45284 Y0.30830
X1.45384 Y0.30830
X1.45384 Y0.30730
X1.45484 Y0.30730
X1.45484 Y0.30630
X1.45584 Y0.30630
X1.45584 Y0.30530
X1.45684 Y0.30530
X1.45684 Y0.30430
X1.45784 Y0.30430
X1.45784 Y0.30330
X1.45884 Y0.30330
X1.45884 Y0.30230
X1.45984 Y0.30230
X1.45984 Y0.30130
X1.46084 Y0.30130
X1.46084 Y0.30030
X1.46184 Y0.30030
X1.46184 Y0.29930
X1.46284 Y0.29930
X1.46284 Y0.29830
X1.46384 Y0.29830
X1.46384 Y0.29730
X1.46484 Y0.29730
X1.46484 Y0.29630
X1.46584 Y0.29630
X1.46584 Y0.29530
X1.46684 Y0.29530
X1.46684 Y0.29430
X1.46784 Y0.29430
X1.46784 Y0.29330
X1.46884 Y0.29330
X1.46884 Y0.29230
X1.46984 Y0.29230
X1.46984 Y0.29130
X1.47084 Y0.29130
X1.47084 Y0.29030
X1.47184 Y0.29030
X1.47184 Y0.28930
X1.47284 Y0.28930
X1.47284 Y0.28830
X1.47384 Y0.28830
X1.47384 Y0.28730
X1.47484 Y0.28730
X1.47484 Y0.28630
X1.47584 Y0.28630
X1.47584 Y0.28530
X1.47684 Y0.28530
X1.47684 Y0.28430
X1.47784 Y0.28430
X1.47784 Y0.28330
X1.47884 Y0.28330
X1.47884 Y0.28230
X1.47984 Y0.28230
X1.47984 Y0.28130
X1.48084 Y0.28130
X1.48084 Y0.28030
X1.48184 Y0.28030
X1.48184 Y0.27930
X1.48284 Y0.27930
X1.48284 Y0.27830
X1.48384 Y0.27830
X1.48384 Y0.27730
X1.48484 Y0.27730
X1.48484 Y0.27630
X1.48584 Y0.27630
X1.48584 Y0.27530
X1.48684 Y0.27530
X1.48684 Y0.27430
X1.48784 Y0.27430
X1.48784 Y0.27330
X1.48884 Y0.27330
X1.48884 Y0.27230
X1.48984 Y0.27230
X1.48984 Y0.27130
X1.49084 Y0.27130
X1.49084 Y0.27030
X1.49184 Y0.27030
X1.49184 Y0.26930
X1.49284 Y0.26930
X1.49284 Y0.26830
X1.49384 Y0.26830
X1.49384 Y0.26730
X1.49484 Y0.26730
X1.49484 Y0.26630
X1.49584 Y0.26630
X1.49584 Y0.26530
X1.49684 Y0.26530
X1.49684 Y0.26430
X1.49784 Y0.26430
X1.49784 Y0.26330
X1.49884 Y0.26330
X1.49884 Y0.26230
X1.49984 Y0.26230
X1.49984 Y0.26130
X1.50084 Y0.26130
X1.50084 Y0.26030
X1.50184 Y0.26030
X1.50184 Y0.25930
X1.50284 Y0.25930
X1.50284 Y0.25830
X1.50384 Y0.25830
X1.50384 Y0.25730
X1.50484 Y0.25730
X1.50484 Y0.25630
X1.50584 Y0.25630
X1.50584 Y0.25530
X1.50684 Y0.25530
X1.50684 Y0.25430
X1.50784 Y0.25430
X1.50784 Y0.25330
X1.50884 Y0.25330
X1.50884 Y0.25230
X1.50984 Y0.25230
X1.50984 Y0.25130
X1.51084 Y0.25130
X1.51084 Y0.25030
X1.51184 Y0.25030
X1.51184 Y0.24930
X1.51284 Y0.24930
X1.51284 Y0.24830
X1.51384 Y0.24830
X1.51384 Y0.24730
X1.51484 Y0.24730
X1.51484 Y0.24630
X1.51584 Y0.24630
X1.51584 Y0.24530
X1.51684 Y0.24530
X1.51684 Y0.24430
X1.51784 Y0.24430
X1.51784 Y0.24330
X1.51884 Y0.24330
X1.51884 Y0.24230
X1.51984 Y0.24230
X1.51984 Y0.24130
X1.52084 Y0.24130
X1.52084 Y0.24030
X1.52184 Y0.24030
X1.52184 Y0.23930
X1.52284 Y0.23930
X1.52284 Y0.23830
X1.52384 Y0.23830
X1.52384 Y0.23730
X1.52484 Y0.23730
X1.52484 Y0.23630
X1.52584 Y0.23630
X1.52584 Y0.23530
X1.52684 Y0.23530
X1.52684 Y0.23430
X1.52784 Y0.23430
X1.52784 Y0.23330
X1.52884 Y0.23330
X1.52884 Y0.23230
X1.52984 Y0.23230
X1.52984 Y0.23130
X1.53084 Y0.23130
X1.53084 Y0.23030
X1.53184 Y0.23030
X1.53184 Y0.22930
X1.53284 Y0.22930
X1.53284 Y0.22830
X1.53384 Y0.22830
X1.53384 Y0.22730
X1.53484 Y0.22730
X1.53484 Y0.22630
X1.53584 Y0.22630
X1.53584 Y0.22530
X1.53684 Y0.22530
X1.53684 Y0.22430
X1.53784 Y0.22430
X1.53784 Y0.22330
X1.53884 Y0.22330
X1.53884 Y0.22230
X1.53984 Y0.22230
X1.53984 Y0.22130
X1.54084 Y0.22130
X1.54084 Y0.22030
X1.54184 Y0.22030
X1.54184 Y0.21930
X1.54284 Y0.21930
X1.54284 Y0.21830
X1.54384 Y0.21830
X1.54384 Y0.21730
X1.54484 Y0.21730
X1.54484 Y0.21630
X1.54584 Y0.21630
X1.54584 Y0.21530
X1.54684 Y0.21530
X1.54684 Y0.21430
X1.54784 Y0.21430
X1.54784 Y0.21330
X1.54884 Y0.21330
X1.54884 Y0.21230
X1.54984 Y0.21230
X1.54984 Y0.21130
X1.55084 Y0.21130
X1.55084 Y0.21030
X1.55184 Y0.21030
X1.55184 Y0.20930
X1.55284 Y0.20930
X1.55284 Y0.20830
X1.55384 Y0.20830
X1.55384 Y0.20530
X1.55484 Y0.20530
X1.55484 Y0.20230
X1.55584 Y0.20230
X1.55584 Y0.19830
X1.55484 Y0.19830
X1.55484 Y0.19530
X1.55384 Y0.19530
X1.55384 Y0.18930
X1.55284 Y0.18930
X1.55284 Y0.18230
X1.55384 Y0.18230
X1.55384 Y0.17630
X1.55484 Y0.17630
X1.55484 Y0.17130
X1.55584 Y0.17130
X1.55584 Y0.16930
X1.55684 Y0.16930
X1.55684 Y0.16730
X1.55784 Y0.16730
X1.55784 Y0.16630
X1.55884 Y0.16630
X1.55884 Y0.16430
X1.55984 Y0.16430
X1.55984 Y0.16330
X1.56084 Y0.16330
X1.56084 Y0.16130
X1.56184 Y0.16130
X1.56184 Y0.16030
X1.56284 Y0.16030
X1.56284 Y0.15930
X1.56384 Y0.15930
X1.56384 Y0.15630
X1.56484 Y0.15630
X1.56484 Y0.15430
X1.56584 Y0.15430
X1.56584 Y0.15130
X1.57084 Y0.15130
X1.57084 Y0.15030
X1.58084 Y0.15030
X1.58084 Y0.14930
X1.59984 Y0.14930
X1.59984 Y0.15030
X1.60984 Y0.15030
X1.60984 Y0.15130
X1.61484 Y0.15130
X1.61484 Y0.15230
X1.61884 Y0.15230
X1.61884 Y0.15330
X1.62184 Y0.15330
X1.62184 Y0.15430
X1.62284 Y0.15430
X1.62284 Y0.15530
X1.62384 Y0.15530
X1.62384 Y0.15630
X1.62484 Y0.15630
X1.62484 Y0.15830
X1.62584 Y0.15830
X1.62584 Y0.15930
X1.62684 Y0.15930
X1.62684 Y0.16130
X1.62784 Y0.16130
X1.62784 Y0.16230
X1.62884 Y0.16230
X1.62884 Y0.16730
X1.62984 Y0.16730
X1.62984 Y0.17230
X1.63084 Y0.17230
X1.63084 Y0.19930
X1.62984 Y0.19930
X1.62984 Y0.20430
X1.62884 Y0.20430
X1.62884 Y0.20830
X1.62784 Y0.20830
X1.62784 Y0.21030
X1.62684 Y0.21030
X1.62684 Y0.21230
X1.62584 Y0.21230
X1.62584 Y0.21330
X1.62484 Y0.21330
X1.62484 Y0.21430
X1.62384 Y0.21430
X1.62384 Y0.21530
X1.62284 Y0.21530
X1.62284 Y0.21630
X1.62184 Y0.21630
X1.62184 Y0.21730
X1.62084 Y0.21730
X1.62084 Y0.21830
X1.61984 Y0.21830
X1.61984 Y0.21930
X1.61884 Y0.21930
X1.61884 Y0.22030
X1.61784 Y0.22030
X1.61784 Y0.22130
X1.61584 Y0.22130
X1.61584 Y0.22230
X1.61484 Y0.22230
X1.61484 Y0.22330
X1.61284 Y0.22330
X1.61284 Y0.22430
X1.60984 Y0.22430
X1.60984 Y0.22530
X1.60384 Y0.22530
X1.60384 Y0.22630
X1.57784 Y0.22630
X1.57784 Y0.22730
X1.57484 Y0.22730
X1.57484 Y0.22630
X1.57284 Y0.22630
X1.57284 Y0.22530
X1.57084 Y0.22530
X1.57084 Y0.22630
X1.56984 Y0.22630
X1.56984 Y0.22730
X1.56884 Y0.22730
X1.56884 Y0.22830
X1.56784 Y0.22830
X1.56784 Y0.22930
X1.56684 Y0.22930
X1.56684 Y0.23030
X1.56584 Y0.23030
X1.56584 Y0.23130
X1.56484 Y0.23130
X1.56484 Y0.23230
X1.56384 Y0.23230
X1.56384 Y0.23330
X1.56284 Y0.23330
X1.56284 Y0.23430
X1.56184 Y0.23430
X1.56184 Y0.23530
X1.56084 Y0.23530
X1.56084 Y0.23630
X1.55984 Y0.23630
X1.55984 Y0.23730
X1.55884 Y0.23730
X1.55884 Y0.23830
X1.55784 Y0.23830
X1.55784 Y0.23930
X1.55684 Y0.23930
X1.55684 Y0.24030
X1.55584 Y0.24030
X1.55584 Y0.24130
X1.55484 Y0.24130
X1.55484 Y0.24230
X1.55384 Y0.24230
X1.55384 Y0.24330
X1.55284 Y0.24330
X1.55284 Y0.24430
X1.55184 Y0.24430
X1.55184 Y0.24530
X1.55084 Y0.24530
X1.55084 Y0.24630
X1.54984 Y0.24630
X1.54984 Y0.24730
X1.54884 Y0.24730
X1.54884 Y0.24830
X1.54784 Y0.24830
X1.54784 Y0.24930
X1.54684 Y0.24930
X1.54684 Y0.25030
X1.54584 Y0.25030
X1.54584 Y0.25130
X1.54484 Y0.25130
X1.54484 Y0.25230
X1.54384 Y0.25230
X1.54384 Y0.25330
X1.54284 Y0.25330
X1.54284 Y0.25430
X1.54184 Y0.25430
X1.54184 Y0.25530
X1.54084 Y0.25530
X1.54084 Y0.25630
X1.53984 Y0.25630
X1.53984 Y0.25730
X1.53884 Y0.25730
X1.53884 Y0.25830
X1.53784 Y0.25830
X1.53784 Y0.25930
X1.53684 Y0.25930
X1.53684 Y0.26030
X1.53584 Y0.26030
X1.53584 Y0.26130
X1.53484 Y0.26130
X1.53484 Y0.26230
X1.53384 Y0.26230
X1.53384 Y0.26330
X1.53284 Y0.26330
X1.53284 Y0.26430
X1.53184 Y0.26430
X1.53184 Y0.26530
X1.53084 Y0.26530
X1.53084 Y0.26630
X1.52984 Y0.26630
X1.52984 Y0.26730
X1.52884 Y0.26730
X1.52884 Y0.26830
X1.52784 Y0.26830
X1.52784 Y0.26930
X1.52684 Y0.26930
X1.52684 Y0.27030
X1.52584 Y0.27030
X1.52584 Y0.27130
X1.52484 Y0.27130
X1.52484 Y0.27230
X1.52384 Y0.27230
X1.52384 Y0.27330
X1.52284 Y0.27330
X1.52284 Y0.27430
X1.52184 Y0.27430
X1.52184 Y0.27530
X1.52084 Y0.27530
X1.52084 Y0.27630
X1.51984 Y0.27630
X1.51984 Y0.27730
X1.51884 Y0.27730
X1.51884 Y0.27830
X1.51784 Y0.27830
X1.51784 Y0.27930
X1.51684 Y0.27930
X1.51684 Y0.28030
X1.51584 Y0.28030
X1.51584 Y0.28130
X1.51484 Y0.28130
X1.51484 Y0.28230
X1.51384 Y0.28230
X1.51384 Y0.28330
X1.51284 Y0.28330
X1.51284 Y0.28430
X1.51184 Y0.28430
X1.51184 Y0.28530
X1.51084 Y0.28530
X1.51084 Y0.28630
X1.50984 Y0.28630
X1.50984 Y0.28730
X1.50884 Y0.28730
X1.50884 Y0.28830
X1.50784 Y0.28830
X1.50784 Y0.28930
X1.50684 Y0.28930
X1.50684 Y0.29030
X1.50584 Y0.29030
X1.50584 Y0.29130
X1.50484 Y0.29130
X1.50484 Y0.29230
X1.50384 Y0.29230
X1.50384 Y0.29330
X1.50284 Y0.29330
X1.50284 Y0.29430
X1.50184 Y0.29430
X1.50184 Y0.29530
X1.50084 Y0.29530
X1.50084 Y0.29630
X1.49984 Y0.29630
X1.49984 Y0.29730
X1.49884 Y0.29730
X1.49884 Y0.29830
X1.49784 Y0.29830
X1.49784 Y0.29930
X1.49684 Y0.29930
X1.49684 Y0.30030
X1.49584 Y0.30030
X1.49584 Y0.30130
X1.49484 Y0.30130
X1.49484 Y0.30230
X1.49384 Y0.30230
X1.49384 Y0.30330
X1.49284 Y0.30330
X1.49284 Y0.30430
X1.49184 Y0.30430
X1.49184 Y0.30530
X1.49084 Y0.30530
X1.49084 Y0.30630
X1.48984 Y0.30630
X1.48984 Y0.30730
X1.48884 Y0.30730
X1.48884 Y0.30830
X1.48784 Y0.30830
X1.48784 Y0.30930
X1.48684 Y0.30930
X1.48684 Y0.31030
X1.48584 Y0.31030
X1.48584 Y0.31130
X1.48484 Y0.31130
X1.48484 Y0.31230
X1.48384 Y0.31230
X1.48384 Y0.31330
X1.48284 Y0.31330
X1.48284 Y0.31430
X1.48184 Y0.31430
X1.48184 Y0.31530
X1.48084 Y0.31530
X1.48084 Y0.31630
X1.47984 Y0.31630
X1.47984 Y0.31730
X1.47884 Y0.31730
X1.47884 Y0.31830
X1.47784 Y0.31830
X1.47784 Y0.31930
X1.47684 Y0.31930
X1.47684 Y0.32030
X1.47584 Y0.32030
X1.47584 Y0.32130
X1.47484 Y0.32130
X1.47484 Y0.32230
X1.47384 Y0.32230
X1.47384 Y0.32330
X1.47284 Y0.32330
X1.47284 Y0.32430
X1.47184 Y0.32430
X1.47184 Y0.32530
X1.47084 Y0.32530
X1.47084 Y0.32630
X1.46984 Y0.32630
X1.46984 Y0.32730
X1.46884 Y0.32730
X1.46884 Y0.32830
X1.46784 Y0.32830
X1.46784 Y0.32930
X1.46684 Y0.32930
X1.46684 Y0.33030
X1.46584 Y0.33030
X1.46584 Y0.33130
X1.46484 Y0.33130
X1.46484 Y0.33230
X1.46384 Y0.33230
X1.46384 Y0.33330
X1.46284 Y0.33330
X1.46284 Y0.33430
X1.46184 Y0.33430
X1.46184 Y0.33530
X1.46084 Y0.33530
X1.46084 Y0.33630
X1.45984 Y0.33630
X1.45984 Y0.33730
X1.45884 Y0.33730
X1.45884 Y0.33830
X1.45784 Y0.33830
X1.45784 Y0.33930
X1.45684 Y0.33930
X1.45684 Y0.34030
X1.45584 Y0.34030
X1.45584 Y0.34130
X1.45484 Y0.34130
X1.45484 Y0.34230
X1.45384 Y0.34230
X1.45384 Y0.34330
X1.45284 Y0.34330
X1.45284 Y0.34430
X1.45184 Y0.34430
X1.45184 Y0.34530
X1.45084 Y0.34530
X1.45084 Y0.34630
X1.44984 Y0.34630
X1.44984 Y0.34730
X1.44884 Y0.34730
X1.44884 Y0.34830
X1.44784 Y0.34830
X1.44784 Y0.34930
X1.44684 Y0.34930
X1.44684 Y0.35030
X1.44584 Y0.35030
X1.44584 Y0.35130
X1.44484 Y0.35130
X1.44484 Y0.35230
X1.44384 Y0.35230
X1.44384 Y0.35330
X1.44284 Y0.35330
X1.44284 Y0.35430
X1.44184 Y0.35430
X1.44184 Y0.35530
X1.44084 Y0.35530
X1.44084 Y0.35630
X1.43984 Y0.35630
X1.43984 Y0.35730
X1.43884 Y0.35730
X1.43884 Y0.35830
X1.43784 Y0.35830
X1.43784 Y0.35930
X1.43684 Y0.35930
X1.43684 Y0.36030
X1.43584 Y0.36030
X1.43584 Y0.36130
X1.43484 Y0.36130
X1.43484 Y0.36230
X1.43384 Y0.36230
X1.43384 Y0.36330
X1.43284 Y0.36330
X1.43284 Y0.36430
X1.43184 Y0.36430
X1.43184 Y0.36530
X1.43084 Y0.36530
X1.43084 Y0.36630
X1.42984 Y0.36630
X1.42984 Y0.36730
X1.42884 Y0.36730
X1.42884 Y0.36830
X1.42784 Y0.36830
X1.42784 Y0.36930
X1.42684 Y0.36930
X1.42684 Y0.37030
X1.42484 Y0.37030
X1.42484 Y0.37130
X1.42384 Y0.37130
X1.42384 Y0.37230
X1.42284 Y0.37230
X1.42284 Y0.37330
X1.42084 Y0.37330
X1.42084 Y0.37430
X1.33384 Y0.37430
X1.33384 Y0.37530
X1.33084 Y0.37530
X1.33084 Y0.39930
X1.32984 Y0.39930
X1.32984 Y0.40430
X1.32884 Y0.40430
X1.32884 Y0.40830
X1.32784 Y0.40830
X1.32784 Y0.41030
X1.32684 Y0.41030
X1.32684 Y0.41230
X1.32584 Y0.41230
X1.32584 Y0.41330
X1.32484 Y0.41330
X1.32484 Y0.41430
X1.32384 Y0.41430
X1.32384 Y0.41530
X1.32184 Y0.41530
X1.32184 Y0.41630
X1.31984 Y0.41630
X1.31984 Y0.41730
X1.31484 Y0.41730
X1.31484 Y0.41830
X1.31084 Y0.41830
X1.31084 Y0.41930
X1.30484 Y0.41930
X1.30484 Y0.42030
X1.27584 Y0.42030
X1.27584 Y0.41930
X1.26984 Y0.41930
X1.26984 Y0.41830
X1.26584 Y0.41830
X1.26584 Y0.41730
X1.26084 Y0.41730
X1.26084 Y0.41630
X1.25784 Y0.41630
X1.25784 Y0.41530
G04 P0 ( dwell for no time -- G64 should not smooth over this point )
G00 Z0.19685 ( retract )

G00 X1.17384 Y0.52230 ( rapid move to begin. )
F0.98425
G01 Z-0.01969
G04 P0 ( dwell for no time -- G64 should not smooth over this point )
F1.96850
X1.17384 Y0.52230
X1.17284 Y0.52230
X1.17284 Y0.52130
X1.17184 Y0.52130
X1.17184 Y0.51930
X1.17084 Y0.51930
X1.17084 Y0.51830
X1.16984 Y0.51830
X1.16984 Y0.51630
X1.16884 Y0.51630
X1.16884 Y0.51130
X1.16784 Y0.51130
X1.16784 Y0.48030
X1.16884 Y0.48030
X1.16884 Y0.47530
X1.16984 Y0.47530
X1.16984 Y0.47330
X1.17084 Y0.47330
X1.17084 Y0.47230
X1.17184 Y0.47230
X1.17184 Y0.47030
X1.17284 Y0.47030
X1.17284 Y0.46930
X1.17384 Y0.46930
X1.17384 Y0.46830
X1.17484 Y0.46830
X1.17484 Y0.46730
X1.17584 Y0.46730
X1.17584 Y0.46530
X1.17884 Y0.46530
X1.17884 Y0.46430
X1.18284 Y0.46430
X1.18284 Y0.46330
X1.18684 Y0.46330
X1.18684 Y0.46230
X1.22384 Y0.46230
X1.22384 Y0.46330
X1.22784 Y0.46330
X1.22784 Y0.46430
X1.23184 Y0.46430
X1.23184 Y0.46530
X1.23584 Y0.46530
X1.23584 Y0.46730
X1.23684 Y0.46730
X1.23684 Y0.46830
X1.23784 Y0.46830
X1.23784 Y0.46930
X1.23884 Y0.46930
X1.23884 Y0.47130
X1.23984 Y0.47130
X1.23984 Y0.47230
X1.24084 Y0.47230
X1.24084 Y0.47530
X1.24184 Y0.47530
X1.24184 Y0.48030
X1.24284 Y0.48030
X1.24284 Y0.51130
X1.24184 Y0.51130
X1.24184 Y0.51630
X1.24084 Y0.51630
X1.24084 Y0.51930
X1.23984 Y0.51930
X1.23984 Y0.52030
X1.23884 Y0.52030
X1.23884 Y0.52130
X1.23784 Y0.52130
X1.23784 Y0.52230
X1.23684 Y0.52230
X1.23684 Y0.52330
X1.23584 Y0.52330
X1.23584 Y0.52430
X1.23484 Y0.52430
X1.23484 Y0.52530
X1.23384 Y0.52530
X1.23384 Y0.52630
X1.23284 Y0.52630
X1.23284 Y0.52730
X1.23184 Y0.52730
X1.23184 Y0.52830
X1.23084 Y0.52830
X1.23084 Y0.52930
X1.22884 Y0.52930
X1.22884 Y0.53030
X1.22784 Y0.53030
X1.22784 Y0.53130
X1.22684 Y0.53130
X1.22684 Y0.53230
X1.22184 Y0.53230
X1.22184 Y0.53330
X1.18884 Y0.53330
X1.18884 Y0.53230
X1.18484 Y0.53230
X1.18484 Y0.53130
X1.18284 Y0.53130
X1.18284 Y0.53030
X1.18184 Y0.53030
X1.18184 Y0.52930
X1.17984 Y0.52930
X1.17984 Y0.52830
X1.17884 Y0.52830
X1.17884 Y0.52730
X1.17784 Y0.52730
X1.17784 Y0.52630
X1.17684 Y0.52630
X1.17684 Y0.52530
X1.17584 Y0.52530
X1.17584 Y0.52430
X1.17484 Y0.52430
X1.17484 Y0.52330
X1.17384 Y0.52330
X1.17384 Y0.52230
G04 P0 ( dwell for no time -- G64 should not smooth over this point )
G00 Z0.19685 ( retract )

G00 X1.17884 Y0.61230 ( rapid move to begin. )
F0.98425
G01 Z-0.01969
G04 P0 ( dwell for no time -- G64 should not smooth over this point )
F1.96850
X1.17884 Y0.61230
X1.17784 Y0.61230
X1.17784 Y0.61130
X1.17684 Y0.61130
X1.17684 Y0.61030
X1.17584 Y0.61030
X1.17584 Y0.60930
X1.17484 Y0.60930
X1.17484 Y0.60830
X1.17384 Y0.60830
X1.17384 Y0.60730
X1.17284 Y0.60730
X1.17284 Y0.60630
X1.17184 Y0.60630
X1.17184 Y0.60530
X1.17084 Y0.60530
X1.17084 Y0.60430
X1.16984 Y0.60430
X1.16984 Y0.60330
X1.16884 Y0.60330
X1.16884 Y0.60130
X1.16784 Y0.60130
X1.16784 Y0.57030
X1.16884 Y0.57030
X1.16884 Y0.56530
X1.16984 Y0.56530
X1.16984 Y0.56330
X1.17084 Y0.56330
X1.17084 Y0.56230
X1.17184 Y0.56230
X1.17184 Y0.56030
X1.17284 Y0.56030
X1.17284 Y0.55930
X1.17384 Y0.55930
X1.17384 Y0.55830
X1.17484 Y0.55830
X1.17484 Y0.55730
X1.17584 Y0.55730
X1.17584 Y0.55530
X1.17684 Y0.55530
X1.17684 Y0.55430
X1.17784 Y0.55430
X1.17784 Y0.55330
X1.17884 Y0.55330
X1.17884 Y0.55230
X1.18084 Y0.55230
X1.18084 Y0.55130
X1.18284 Y0.55130
X1.18284 Y0.55030
X1.18384 Y0.55030
X1.18384 Y0.54930
X1.18884 Y0.54930
X1.18884 Y0.54830
X1.22184 Y0.54830
X1.22184 Y0.54930
X1.22684 Y0.54930
X1.22684 Y0.55030
X1.22784 Y0.55030
X1.22784 Y0.55130
X1.22984 Y0.55130
X1.22984 Y0.55230
X1.23184 Y0.55230
X1.23184 Y0.55330
X1.23284 Y0.55330
X1.23284 Y0.55430
X1.23384 Y0.55430
X1.23384 Y0.55530
X1.23484 Y0.55530
X1.23484 Y0.55630
X1.23584 Y0.55630
X1.23584 Y0.55730
X1.23684 Y0.55730
X1.23684 Y0.55830
X1.23784 Y0.55830
X1.23784 Y0.55930
X1.23884 Y0.55930
X1.23884 Y0.56130
X1.23984 Y0.56130
X1.23984 Y0.56230
X1.24084 Y0.56230
X1.24084 Y0.56530
X1.24184 Y0.56530
X1.24184 Y0.57030
X1.24484 Y0.57030
X1.24484 Y0.57130
X1.46784 Y0.57130
X1.46784 Y0.57030
X1.46884 Y0.57030
X1.46884 Y0.56930
X1.46984 Y0.56930
X1.46984 Y0.56830
X1.47084 Y0.56830
X1.47084 Y0.56730
X1.47184 Y0.56730
X1.47184 Y0.56630
X1.47284 Y0.56630
X1.47284 Y0.56530
X1.47384 Y0.56530
X1.47384 Y0.56430
X1.47484 Y0.56430
X1.47484 Y0.56330
X1.47584 Y0.56330
X1.47584 Y0.56230
X1.47684 Y0.56230
X1.47684 Y0.56130
X1.47784 Y0.56130
X1.47784 Y0.56030
X1.47884 Y0.56030
X1.47884 Y0.55930
X1.47984 Y0.55930
X1.47984 Y0.55830
X1.48084 Y0.55830
X1.48084 Y0.55730
X1.48184 Y0.55730
X1.48184 Y0.55630
X1.48284 Y0.55630
X1.48284 Y0.55530
X1.48384 Y0.55530
X1.48384 Y0.55430
X1.48484 Y0.55430
X1.48484 Y0.55330
X1.48584 Y0.55330
X1.48584 Y0.55230
X1.48684 Y0.55230
X1.48684 Y0.55130
X1.48784 Y0.55130
X1.48784 Y0.55030
X1.48884 Y0.55030
X1.48884 Y0.54930
X1.48984 Y0.54930
X1.48984 Y0.54830
X1.49084 Y0.54830
X1.49084 Y0.54730
X1.49184 Y0.54730
X1.49184 Y0.54630
X1.49284 Y0.54630
X1.49284 Y0.54530
X1.49384 Y0.54530
X1.49384 Y0.54430
X1.49484 Y0.54430
X1.49484 Y0.54330
X1.49584 Y0.54330
X1.49584 Y0.54230
X1.49684 Y0.54230
X1.49684 Y0.54130
X1.49784 Y0.54130
X1.49784 Y0.54030
X1.49884 Y0.54030
X1.49884 Y0.53930
X1.49984 Y0.53930
X1.49984 Y0.53830
X1.50084 Y0.53830
X1.50084 Y0.53730
X1.50184 Y0.53730
X1.50184 Y0.53630
X1.50284 Y0.53630
X1.50284 Y0.53530
X1.50384 Y0.53530
X1.50384 Y0.53430
X1.50484 Y0.53430
X1.50484 Y0.53330
X1.50584 Y0.53330
X1.50584 Y0.53230
X1.50684 Y0.53230
X1.50684 Y0.53130
X1.50784 Y0.53130
X1.50784 Y0.53030
X1.50884 Y0.53030
X1.50884 Y0.52930
X1.50984 Y0.52930
X1.50984 Y0.52830
X1.51084 Y0.52830
X1.51084 Y0.52730
X1.51184 Y0.52730
X1.51184 Y0.52630
X1.51284 Y0.52630
X1.51284 Y0.52530
X1.51384 Y0.52530
X1.51384 Y0.52430
X1.51484 Y0.52430
X1.51484 Y0.52330
X1.51584 Y0.52330
X1.51584 Y0.52230
X1.51684 Y0.52230
X1.51684 Y0.52130
X1.51784 Y0.52130
X1.51784 Y0.52030
X1.51884 Y0.52030
X1.51884 Y0.51930
X1.51984 Y0.51930
X1.51984 Y0.51830
X1.52084 Y0.51830
X1.52084 Y0.51730
X1.52184 Y0.51730
X1.52184 Y0.51630
X1.52284 Y0.51630
X1.52284 Y0.51530
