( pcb2gcode 1.2.2 )
( Software-independent Gcode )

G94 ( Inches per minute feed rate. )
G20 ( Units == INCHES. )

G90 ( Absolute coordinates. )
S10000 ( RPM spindle speed. )
G64 P0.00200 ( set maximum deviation from commanded toolpath )
F1.96850 ( Feedrate. )

F1.96850 ( Feedrate. )
M3 ( Spindle on clockwise. )
G04 P0 ( dwell for no time -- G64 should not smooth over this point )
G00 Z0.19685 ( retract )

G00 X0.58700 Y0.38730 ( rapid move to begin. )
F0.98425
G01 Z-0.01969
G04 P0 ( dwell for no time -- G64 should not smooth over this point )
F1.96850
X0.58700 Y0.38730
X0.59700 Y0.37830
X0.59900 Y0.37030
X0.60100 Y0.36830
X0.60000 Y0.35230
X0.60100 Y0.34230
X0.62100 Y0.32230
X0.62600 Y0.32030
X0.63900 Y0.32030
X0.64300 Y0.33030
X0.65000 Y0.33730
X0.65400 Y0.33830
X0.65500 Y0.34030
X0.66000 Y0.34030
X0.66100 Y0.34230
X0.67700 Y0.34230
X0.67900 Y0.34030
X0.68400 Y0.34030
X0.69700 Y0.32830
X0.69900 Y0.32430
X0.69900 Y0.32030
X0.70100 Y0.31830
X0.70000 Y0.30230
X0.70100 Y0.29230
X0.73900 Y0.25530
X0.73900 Y0.25330
X0.77000 Y0.22230
X0.77600 Y0.22030
X0.78400 Y0.22030
X0.78600 Y0.22230
X0.80300 Y0.22230
X0.80500 Y0.22030
X0.81300 Y0.21830
X0.82300 Y0.21030
X0.83100 Y0.19430
X0.83100 Y0.17730
X0.82900 Y0.17530
X0.82700 Y0.16630
X0.81700 Y0.15630
X0.81500 Y0.14930
X0.80500 Y0.14830
X0.77300 Y0.14930
X0.77100 Y0.15630
X0.76500 Y0.16130
X0.76500 Y0.16330
X0.76100 Y0.16730
X0.76100 Y0.17230
X0.75800 Y0.17730
X0.75700 Y0.18730
X0.75800 Y0.19430
X0.76000 Y0.19730
X0.75800 Y0.20830
X0.68600 Y0.28030
X0.66100 Y0.27930
X0.65500 Y0.28130
X0.65400 Y0.28330
X0.64800 Y0.28530
X0.64500 Y0.28830
X0.64500 Y0.29030
X0.64100 Y0.29430
X0.63900 Y0.30130
X0.61600 Y0.30130
X0.61200 Y0.30330
X0.58600 Y0.33030
X0.56100 Y0.32930
X0.55500 Y0.33130
X0.55400 Y0.33330
X0.54800 Y0.33530
X0.54500 Y0.33830
X0.53800 Y0.35230
X0.53800 Y0.36930
X0.54300 Y0.38030
X0.55000 Y0.38730
X0.55400 Y0.38830
X0.55500 Y0.39030
X0.56000 Y0.39030
X0.56100 Y0.39230
X0.57700 Y0.39230
X0.57900 Y0.39030
X0.58400 Y0.39030
X0.58700 Y0.38730
G04 P0 ( dwell for no time -- G64 should not smooth over this point )
G00 Z0.19685 ( retract )

G00 X0.59300 Y0.48730 ( rapid move to begin. )
F0.98425
G01 Z-0.01969
G04 P0 ( dwell for no time -- G64 should not smooth over this point )
F1.96850
X0.59300 Y0.48730
X0.60000 Y0.48130
X0.60600 Y0.46830
X0.60500 Y0.44830
X0.60300 Y0.44730
X0.60200 Y0.44330
X0.60000 Y0.44230
X0.59900 Y0.43830
X0.59500 Y0.43530
X0.59500 Y0.43330
X0.58500 Y0.42630
X0.57200 Y0.42330
X0.55700 Y0.42530
X0.54700 Y0.43030
X0.53700 Y0.44130
X0.53300 Y0.45230
X0.53200 Y0.46330
X0.53700 Y0.48030
X0.54700 Y0.49030
X0.56100 Y0.49730
X0.58100 Y0.49630
X0.59000 Y0.49130
X0.59300 Y0.48730
G04 P0 ( dwell for no time -- G64 should not smooth over this point )
G00 Z0.19685 ( retract )

G00 X0.59300 Y0.58730 ( rapid move to begin. )
F0.98425
G01 Z-0.01969
G04 P0 ( dwell for no time -- G64 should not smooth over this point )
F1.96850
X0.59300 Y0.58730
X0.60000 Y0.58130
X0.60600 Y0.56830
X0.60500 Y0.54830
X0.60300 Y0.54730
X0.60200 Y0.54330
X0.60000 Y0.54230
X0.59900 Y0.53830
X0.59500 Y0.53530
X0.59500 Y0.53330
X0.58500 Y0.52630
X0.57200 Y0.52330
X0.55700 Y0.52530
X0.54700 Y0.53030
X0.53700 Y0.54130
X0.53300 Y0.55230
X0.53200 Y0.56330
X0.53700 Y0.58030
X0.54700 Y0.59030
X0.56100 Y0.59730
X0.58100 Y0.59630
X0.59000 Y0.59130
X0.59300 Y0.58730
G04 P0 ( dwell for no time -- G64 should not smooth over this point )
G00 Z0.19685 ( retract )

G00 X0.81700 Y0.61230 ( rapid move to begin. )
F0.98425
G01 Z-0.01969
G04 P0 ( dwell for no time -- G64 should not smooth over this point )
F1.96850
X0.81700 Y0.61230
X0.81700 Y0.55830
X0.82100 Y0.55830
X0.82100 Y0.55230
X0.85200 Y0.52230
X0.85400 Y0.51730
X0.85400 Y0.32730
X0.85100 Y0.32130
X0.83400 Y0.30530
X0.83600 Y0.30130
X0.83500 Y0.27230
X0.83300 Y0.26330
X0.83000 Y0.26030
X0.83000 Y0.25830
X0.82100 Y0.24930
X0.81400 Y0.24630
X0.78100 Y0.24530
X0.77200 Y0.24730
X0.76500 Y0.25130
X0.75600 Y0.26230
X0.75400 Y0.27230
X0.75400 Y0.29930
X0.75800 Y0.31230
X0.77000 Y0.32330
X0.78100 Y0.32630
X0.81000 Y0.32730
X0.81200 Y0.32530
X0.81500 Y0.32530
X0.82500 Y0.33530
X0.82400 Y0.34630
X0.82900 Y0.35030
X0.82900 Y0.42130
X0.82400 Y0.42530
X0.82500 Y0.50930
X0.82300 Y0.51130
X0.82100 Y0.51130
X0.82100 Y0.50830
X0.81600 Y0.50930
X0.81100 Y0.52730
X0.80200 Y0.53030
X0.76800 Y0.53030
X0.76400 Y0.53230
X0.76500 Y0.53730
X0.76400 Y0.54730
X0.74100 Y0.54830
X0.74100 Y0.62230
X0.81700 Y0.62330
X0.81700 Y0.61230
G04 P0 ( dwell for no time -- G64 should not smooth over this point )
G00 Z0.19685 ( retract )

G00 X0.81200 Y0.52230 ( rapid move to begin. )
F0.98425
G01 Z-0.01969
G04 P0 ( dwell for no time -- G64 should not smooth over this point )
F1.96850
X0.81200 Y0.52230
X0.81700 Y0.50930
X0.81700 Y0.45730
X0.74200 Y0.45730
X0.74100 Y0.45930
X0.73800 Y0.45930
X0.70400 Y0.42530
X0.70600 Y0.41830
X0.70500 Y0.39830
X0.70300 Y0.39730
X0.69900 Y0.38830
X0.69500 Y0.38530
X0.69500 Y0.38330
X0.69200 Y0.38030
X0.68200 Y0.37530
X0.66700 Y0.37330
X0.65000 Y0.37830
X0.63900 Y0.38830
X0.63500 Y0.39530
X0.63200 Y0.40830
X0.63300 Y0.41930
X0.63600 Y0.42830
X0.64700 Y0.44030
X0.65100 Y0.44130
X0.65700 Y0.44630
X0.67700 Y0.44730
X0.68400 Y0.44530
X0.72200 Y0.48330
X0.72200 Y0.49830
X0.72400 Y0.50330
X0.72900 Y0.50830
X0.74100 Y0.51130
X0.74200 Y0.53330
X0.76400 Y0.53330
X0.76800 Y0.53030
X0.80200 Y0.53030
X0.81100 Y0.52730
X0.81200 Y0.52230
G04 P0 ( dwell for no time -- G64 should not smooth over this point )
G00 Z0.19685 ( retract )

G00 X0.82900 Y0.41530 ( rapid move to begin. )
F0.98425
G01 Z-0.01969
G04 P0 ( dwell for no time -- G64 should not smooth over this point )
F1.96850
X0.82900 Y0.41530
X0.82900 Y0.35030
X0.82400 Y0.34530
X0.75400 Y0.34530
X0.75500 Y0.42630
X0.82400 Y0.42630
X0.82900 Y0.42130
X0.82900 Y0.41530
G04 P0 ( dwell for no time -- G64 should not smooth over this point )
G00 Z0.19685 ( retract )

G00 X0.68700 Y0.23730 ( rapid move to begin. )
F0.98425
G01 Z-0.01969
G04 P0 ( dwell for no time -- G64 should not smooth over this point )
F1.96850
X0.68700 Y0.23730
X0.69700 Y0.22830
X0.69900 Y0.22030
X0.70100 Y0.21830
X0.70100 Y0.20230
X0.69900 Y0.20130
X0.69900 Y0.19730
X0.69600 Y0.19130
X0.69200 Y0.18830
X0.69100 Y0.18530
X0.67800 Y0.17930
X0.65900 Y0.17830
X0.65800 Y0.18030
X0.65500 Y0.18030
X0.65200 Y0.18430
X0.64800 Y0.18530
X0.64500 Y0.18830
X0.64500 Y0.19030
X0.63700 Y0.20030
X0.63800 Y0.21930
X0.64100 Y0.22430
X0.64100 Y0.22730
X0.65000 Y0.23730
X0.65400 Y0.23830
X0.65500 Y0.24030
X0.66000 Y0.24030
X0.66100 Y0.24230
X0.67700 Y0.24230
X0.67900 Y0.24030
X0.68400 Y0.24030
X0.68700 Y0.23730
G04 P0 ( dwell for no time -- G64 should not smooth over this point )
G00 Z0.19685 ( retract )

G00 X0.81700 Y0.11530 ( rapid move to begin. )
F0.98425
G01 Z-0.01969
G04 P0 ( dwell for no time -- G64 should not smooth over this point )
F1.96850
X0.81700 Y0.11530
X0.82300 Y0.11030
X0.83100 Y0.09430
X0.83100 Y0.07730
X0.82900 Y0.07530
X0.82800 Y0.06830
X0.82500 Y0.06530
X0.82500 Y0.06330
X0.81600 Y0.05430
X0.80900 Y0.05130
X0.80500 Y0.05130
X0.80300 Y0.04930
X0.79600 Y0.04830
X0.78600 Y0.04930
X0.77000 Y0.05630
X0.76100 Y0.06730
X0.75700 Y0.08730
X0.76100 Y0.10330
X0.76300 Y0.10730
X0.77200 Y0.11530
X0.77400 Y0.12230
X0.78400 Y0.12330
X0.81500 Y0.12230
X0.81700 Y0.11530
G04 P0 ( dwell for no time -- G64 should not smooth over this point )
G00 Z0.19685 ( retract )

G00 X1.07800 Y0.25130 ( rapid move to begin. )
F0.98425
G01 Z-0.01969
G04 P0 ( dwell for no time -- G64 should not smooth over this point )
F1.96850
X1.07800 Y0.25130
X1.08400 Y0.24930
X1.08400 Y0.22130
X1.07800 Y0.22030
X1.07400 Y0.21630
X1.06100 Y0.21130
X1.05900 Y0.21330
X1.05900 Y0.25730
X1.06100 Y0.25930
X1.06400 Y0.25930
X1.07000 Y0.25730
X1.07200 Y0.25430
X1.07800 Y0.25130
G04 P0 ( dwell for no time -- G64 should not smooth over this point )
G00 Z0.19685 ( retract )

G00 X1.23700 Y0.39930 ( rapid move to begin. )
F0.98425
G01 Z-0.01969
G04 P0 ( dwell for no time -- G64 should not smooth over this point )
F1.96850
X1.23700 Y0.39930
X1.23700 Y0.35430
X1.24000 Y0.34930
X1.31100 Y0.34830
X1.31400 Y0.34530
X1.31400 Y0.34330
X1.31200 Y0.33730
X1.29700 Y0.32230
X1.29100 Y0.32030
X1.27800 Y0.32330
X1.26000 Y0.32130
X1.25400 Y0.31630
X1.24800 Y0.31430
X1.24800 Y0.31230
X1.24500 Y0.31030
X1.23900 Y0.29930
X1.23700 Y0.29130
X1.23700 Y0.28030
X1.23900 Y0.27630
X1.23900 Y0.27130
X1.24300 Y0.26330
X1.24800 Y0.25930
X1.24800 Y0.25730
X1.25000 Y0.25730
X1.25200 Y0.25430
X1.25600 Y0.25230
X1.25700 Y0.24830
X1.18100 Y0.17330
X1.17900 Y0.16830
X1.17800 Y0.11730
X1.14300 Y0.08230
X1.13200 Y0.08030
X1.13000 Y0.09930
X1.12400 Y0.11030
X1.12100 Y0.11230
X1.12100 Y0.11430
X1.11500 Y0.11630
X1.11400 Y0.11830
X1.10800 Y0.12130
X1.09800 Y0.12330
X1.07700 Y0.12030
X1.07100 Y0.12230
X1.06000 Y0.13330
X1.05900 Y0.15730
X1.06100 Y0.15930
X1.06400 Y0.15930
X1.07000 Y0.15730
X1.07200 Y0.15430
X1.08000 Y0.15030
X1.08500 Y0.15030
X1.08900 Y0.14830
X1.10000 Y0.14830
X1.11600 Y0.15430
X1.11700 Y0.15630
X1.12100 Y0.15730
X1.12100 Y0.15930
X1.12400 Y0.16130
X1.12400 Y0.16330
X1.13000 Y0.17130
X1.13200 Y0.18230
X1.13100 Y0.19530
X1.12800 Y0.20430
X1.12100 Y0.21230
X1.12100 Y0.21430
X1.11500 Y0.21630
X1.11400 Y0.21830
X1.10800 Y0.22130
X1.10500 Y0.22130
X1.10500 Y0.24930
X1.12100 Y0.25730
X1.12100 Y0.25930
X1.12400 Y0.26130
X1.12400 Y0.26330
X1.13000 Y0.27130
X1.13200 Y0.28230
X1.13100 Y0.29530
X1.12900 Y0.29930
X1.13000 Y0.30730
X1.22500 Y0.40330
X1.23700 Y0.40630
X1.23700 Y0.39930
G04 P0 ( dwell for no time -- G64 should not smooth over this point )
G00 Z0.19685 ( retract )

G00 X1.24800 Y0.47230 ( rapid move to begin. )
F0.98425
G01 Z-0.01969
G04 P0 ( dwell for no time -- G64 should not smooth over this point )
F1.96850
X1.24800 Y0.47230
X1.25800 Y0.46730
X1.26200 Y0.46030
X1.25800 Y0.45630
X1.24900 Y0.45530
X1.24500 Y0.45330
X1.23400 Y0.44230
X1.23400 Y0.44030
X1.11700 Y0.32330
X1.11100 Y0.32130
X1.10400 Y0.32130
X1.09800 Y0.32330
X1.08500 Y0.32230
X1.07800 Y0.32030
X1.07400 Y0.31630
X1.06600 Y0.31230
X1.06100 Y0.31130
X1.05900 Y0.31330
X1.05900 Y0.35730
X1.06100 Y0.35930
X1.07000 Y0.35730
X1.07200 Y0.35430
X1.08000 Y0.35030
X1.08500 Y0.35030
X1.08900 Y0.34830
X1.10000 Y0.34830
X1.10800 Y0.35030
X1.11600 Y0.35430
X1.11700 Y0.35630
X1.12100 Y0.35730
X1.12100 Y0.35930
X1.12800 Y0.36730
X1.13000 Y0.37430
X1.13500 Y0.37630
X1.23400 Y0.47630
X1.24400 Y0.47830
X1.24800 Y0.47430
X1.24800 Y0.47230
G04 P0 ( dwell for no time -- G64 should not smooth over this point )
G00 Z0.19685 ( retract )

G00 X1.20100 Y0.52230 ( rapid move to begin. )
F0.98425
G01 Z-0.01969
G04 P0 ( dwell for no time -- G64 should not smooth over this point )
F1.96850
X1.20100 Y0.52230
X1.20800 Y0.51630
X1.20800 Y0.51430
X1.21500 Y0.51030
X1.21500 Y0.49530
X1.21200 Y0.48630
X1.21000 Y0.48530
X1.21000 Y0.48230
X1.19900 Y0.46930
X1.18300 Y0.46130
X1.17200 Y0.46130
X1.16400 Y0.46330
X1.15700 Y0.46930
X1.15500 Y0.46930
X1.14700 Y0.48130
X1.13700 Y0.47830
X1.09400 Y0.43530
X1.09100 Y0.42330
X1.08700 Y0.42330
X1.08300 Y0.42030
X1.08000 Y0.42030
X1.07800 Y0.41730
X1.07300 Y0.41530
X1.06400 Y0.40630
X1.05900 Y0.39730
X1.05900 Y0.37130
X1.06100 Y0.36430
X1.06100 Y0.35830
X1.05900 Y0.35730
X1.05900 Y0.31330
X1.06100 Y0.31230
X1.05900 Y0.30030
X1.05900 Y0.27130
X1.06100 Y0.26430
X1.06100 Y0.25830
X1.05900 Y0.25730
X1.05900 Y0.21330
X1.06100 Y0.21230
X1.05900 Y0.20030
X1.05900 Y0.17130
X1.06100 Y0.16430
X1.06100 Y0.15830
X1.05900 Y0.15730
X1.05900 Y0.13630
X1.06000 Y0.13330
X1.07100 Y0.12230
X1.08100 Y0.12030
X1.08500 Y0.12230
X1.09800 Y0.12330
X1.10800 Y0.12130
X1.11400 Y0.11830
X1.11500 Y0.11630
X1.12100 Y0.11430
X1.12100 Y0.11230
X1.12800 Y0.10430
X1.13200 Y0.08930
X1.13200 Y0.07930
X1.13100 Y0.07630
X1.12900 Y0.07530
X1.12900 Y0.07230
X1.12700 Y0.07130
X1.12700 Y0.06830
X1.11300 Y0.05430
X1.10300 Y0.05030
X1.08600 Y0.05030
X1.07100 Y0.05230
X1.06800 Y0.05430
X1.06700 Y0.06030
X1.06100 Y0.06730
X1.06100 Y0.07230
X1.05800 Y0.07730
X1.05700 Y0.08730
X1.05800 Y0.09430
X1.06000 Y0.09730
X1.05800 Y0.10830
X1.04600 Y0.12030
X1.04400 Y0.12030
X1.04100 Y0.12330
X1.03900 Y0.12930
X1.04000 Y0.41030
X1.13400 Y0.50430
X1.14700 Y0.50630
X1.14900 Y0.51430
X1.16300 Y0.52730
X1.16800 Y0.52730
X1.17100 Y0.52930
X1.18700 Y0.52930
X1.19500 Y0.52730
X1.20100 Y0.52230
G04 P0 ( dwell for no time -- G64 should not smooth over this point )
G00 Z0.19685 ( retract )

G00 X1.15100 Y0.47430 ( rapid move to begin. )
F0.98425
G01 Z-0.01969
G04 P0 ( dwell for no time -- G64 should not smooth over this point )
F1.96850
X1.15100 Y0.47430
X1.15400 Y0.47230
X1.15500 Y0.46930
X1.15700 Y0.46930
X1.16400 Y0.46330
X1.17200 Y0.46130
X1.18100 Y0.46130
X1.18100 Y0.45530
X1.17900 Y0.44930
X1.13600 Y0.40630
X1.12700 Y0.40430
X1.12400 Y0.41030
X1.12100 Y0.41230
X1.12100 Y0.41430
X1.11500 Y0.41630
X1.11400 Y0.41830
X1.10400 Y0.42230
X1.09100 Y0.42330
X1.09400 Y0.43530
X1.13700 Y0.47830
X1.14700 Y0.48130
X1.15100 Y0.47430
G04 P0 ( dwell for no time -- G64 should not smooth over this point )
G00 Z0.19685 ( retract )

G00 X1.20400 Y0.61230 ( rapid move to begin. )
F0.98425
G01 Z-0.01969
G04 P0 ( dwell for no time -- G64 should not smooth over this point )
F1.96850
X1.20400 Y0.61230
X1.20500 Y0.60830
X1.21100 Y0.60130
X1.21100 Y0.59630
X1.21300 Y0.59330
X1.21300 Y0.57730
X1.21100 Y0.57130
X1.20700 Y0.56730
X1.20700 Y0.56430
X1.20400 Y0.56230
X1.20400 Y0.56030
X1.19600 Y0.55430
X1.19100 Y0.55430
X1.18900 Y0.55230
X1.18200 Y0.55130
X1.16900 Y0.55230
X1.15800 Y0.55730
X1.14900 Y0.56730
X1.14500 Y0.58330
X1.14600 Y0.59530
X1.14800 Y0.59730
X1.15100 Y0.61430
X1.16200 Y0.61830
X1.19700 Y0.61830
X1.20300 Y0.61630
X1.20400 Y0.61230
G04 P0 ( dwell for no time -- G64 should not smooth over this point )
G00 Z0.19685 ( retract )

G00 X1.12200 Y0.66830 ( rapid move to begin. )
F0.98425
G01 Z-0.01969
G04 P0 ( dwell for no time -- G64 should not smooth over this point )
F1.96850
X1.12200 Y0.66830
X1.14300 Y0.64830
X1.14500 Y0.64030
X1.13600 Y0.63730
X1.12900 Y0.62930
X1.11000 Y0.62830
X1.11000 Y0.67430
X1.11900 Y0.67230
X1.12200 Y0.66830
G04 P0 ( dwell for no time -- G64 should not smooth over this point )
G00 Z0.19685 ( retract )

G00 X1.00400 Y0.73030 ( rapid move to begin. )
F0.98425
G01 Z-0.01969
G04 P0 ( dwell for no time -- G64 should not smooth over this point )
F1.96850
X1.00400 Y0.73030
X1.02700 Y0.70830
X1.02800 Y0.68630
X1.03000 Y0.67930
X1.03300 Y0.67630
X1.03700 Y0.67530
X1.04800 Y0.67530
X1.04800 Y0.63430
X1.03900 Y0.63630
X1.01300 Y0.66230
X1.01100 Y0.69030
X1.00600 Y0.69530
X0.99200 Y0.69630
X0.99200 Y0.73630
X0.99900 Y0.73530
X1.00400 Y0.73030
G04 P0 ( dwell for no time -- G64 should not smooth over this point )
G00 Z0.19685 ( retract )

G00 X0.99200 Y0.73830 ( rapid move to begin. )
F0.98425
G01 Z-0.01969
G04 P0 ( dwell for no time -- G64 should not smooth over this point )
F1.96850
X0.99200 Y0.73830
X0.99200 Y0.69630
X1.00600 Y0.69530
X1.01100 Y0.69030
X1.01300 Y0.66230
X1.03900 Y0.63630
X1.04700 Y0.63430
X1.04800 Y0.62930
X1.05100 Y0.62730
X1.12600 Y0.62830
X1.12900 Y0.62930
X1.13600 Y0.63730
X1.14400 Y0.64030
X1.25500 Y0.63930
X1.25800 Y0.63730
X1.28300 Y0.63730
X1.28400 Y0.63530
X1.29100 Y0.63330
X1.29500 Y0.62830
X1.29900 Y0.62730
X1.29900 Y0.62530
X1.30200 Y0.62330
X1.30200 Y0.62130
X1.30700 Y0.61730
X1.30700 Y0.61430
X1.30900 Y0.61330
X1.30900 Y0.58730
X1.30700 Y0.57630
X1.30500 Y0.57330
X1.29900 Y0.57230
X1.28800 Y0.56530
X1.28000 Y0.56330
X1.25700 Y0.56530
X1.25100 Y0.56330
X1.24100 Y0.55330
X1.24000 Y0.52830
X1.24200 Y0.52730
X1.24200 Y0.52130
X1.24000 Y0.51430
X1.24000 Y0.48730
X1.24200 Y0.47830
X1.23400 Y0.47630
X1.13500 Y0.37630
X1.13000 Y0.37430
X1.12800 Y0.36730
X1.12100 Y0.35930
X1.12100 Y0.35730
X1.11700 Y0.35630
X1.11600 Y0.35430
X1.10800 Y0.35030
X1.10000 Y0.34830
X1.08900 Y0.34830
X1.08500 Y0.35030
X1.08000 Y0.35030
X1.07200 Y0.35430
X1.07000 Y0.35730
X1.06100 Y0.35930
X1.05900 Y0.37130
X1.05900 Y0.39730
X1.06400 Y0.40630
X1.07300 Y0.41530
X1.08700 Y0.42330
X1.09800 Y0.42330
X1.10800 Y0.42130
X1.11400 Y0.41830
X1.11500 Y0.41630
X1.12100 Y0.41430
X1.12100 Y0.41230
X1.12400 Y0.41030
X1.12700 Y0.40430
X1.13600 Y0.40630
X1.17900 Y0.44930
X1.18100 Y0.46130
X1.19300 Y0.46530
X1.20600 Y0.47630
X1.20600 Y0.47830
X1.21000 Y0.48230
X1.21000 Y0.48530
X1.21200 Y0.48630
X1.21500 Y0.49530
X1.21500 Y0.51030
X1.22000 Y0.51430
X1.22000 Y0.55630
X1.22200 Y0.56230
X1.23700 Y0.57630
X1.24000 Y0.58430
X1.23700 Y0.59930
X1.23900 Y0.61630
X1.23700 Y0.62030
X1.20500 Y0.62030
X1.20300 Y0.61630
X1.19700 Y0.61830
X1.16200 Y0.61830
X1.15400 Y0.61630
X1.15300 Y0.61430
X1.14800 Y0.61430
X1.13600 Y0.61030
X1.13500 Y0.60830
X1.04100 Y0.60830
X1.03700 Y0.61030
X1.00100 Y0.64730
X0.99400 Y0.64930
X0.99100 Y0.64830
X0.99100 Y0.63130
X0.98900 Y0.62830
X0.93300 Y0.62830
X0.93100 Y0.63130
X0.93100 Y0.67630
X0.87000 Y0.67630
X0.87000 Y0.67130
X0.86700 Y0.66730
X0.84500 Y0.66730
X0.84000 Y0.66930
X0.84100 Y0.70330
X0.86600 Y0.70430
X0.86900 Y0.70330
X0.87000 Y0.69530
X0.93100 Y0.69530
X0.93200 Y0.74230
X0.98800 Y0.74430
X0.99100 Y0.74330
X0.99200 Y0.73830
G04 P0 ( dwell for no time -- G64 should not smooth over this point )
G00 Z0.19685 ( retract )

G00 X0.95000 Y0.78530 ( rapid move to begin. )
F0.98425
G01 Z-0.01969
G04 P0 ( dwell for no time -- G64 should not smooth over this point )
F1.96850
X0.95000 Y0.78530
X0.98200 Y0.75330
X0.98400 Y0.74330
X0.93200 Y0.74230
X0.93100 Y0.69530
X0.87000 Y0.69530
X0.86900 Y0.70330
X0.86600 Y0.70430
X0.84100 Y0.70330
X0.84000 Y0.70230
X0.84100 Y0.66830
X0.86700 Y0.66730
X0.87000 Y0.67130
X0.87000 Y0.67630
X0.93100 Y0.67630
X0.93100 Y0.63130
X0.93300 Y0.62830
X0.98900 Y0.62830
X0.99100 Y0.63130
X0.99100 Y0.64830
X0.99400 Y0.64930
X1.00100 Y0.64730
X1.03700 Y0.61030
X1.04100 Y0.60830
X1.13500 Y0.60830
X1.13600 Y0.61030
X1.15100 Y0.61430
X1.14500 Y0.58830
X1.14600 Y0.57530
X1.15200 Y0.56330
X1.15800 Y0.55730
X1.16900 Y0.55230
X1.18200 Y0.55130
X1.18900 Y0.55230
X1.19100 Y0.55430
X1.19600 Y0.55430
X1.20400 Y0.56030
X1.20400 Y0.56230
X1.20700 Y0.56430
X1.20700 Y0.56730
X1.21100 Y0.57130
X1.21300 Y0.57730
X1.21300 Y0.59330
X1.21100 Y0.59630
X1.21100 Y0.60130
X1.20500 Y0.60830
X1.20500 Y0.61130
X1.20300 Y0.61330
X1.20300 Y0.61830
X1.20500 Y0.62030
X1.23700 Y0.62030
X1.23900 Y0.61630
X1.23700 Y0.59930
X1.24000 Y0.58430
X1.23700 Y0.57630
X1.22200 Y0.56230
X1.22000 Y0.55630
X1.22000 Y0.51430
X1.21600 Y0.51030
X1.21400 Y0.51030
X1.21300 Y0.51230
X1.20800 Y0.51430
X1.20800 Y0.51630
X1.20000 Y0.52430
X1.19800 Y0.52430
X1.19500 Y0.52730
X1.18700 Y0.52930
X1.17100 Y0.52930
X1.16800 Y0.52730
X1.16300 Y0.52730
X1.14900 Y0.51430
X1.14700 Y0.50630
X1.13400 Y0.50430
X1.04000 Y0.41030
X1.03900 Y0.12930
X1.04100 Y0.12330
X1.04400 Y0.12030
X1.04600 Y0.12030
X1.05800 Y0.10830
X1.06000 Y0.09730
X1.05800 Y0.09430
X1.05700 Y0.08430
X1.05900 Y0.07430
X1.06100 Y0.07230
X1.06100 Y0.06730
X1.06700 Y0.06030
X1.06700 Y0.05630
X1.06900 Y0.05430
X1.06900 Y0.05230
X1.06600 Y0.04930
X1.05300 Y0.05030
X0.95900 Y0.14430
X0.81800 Y0.14530
X0.81500 Y0.14830
X0.81700 Y0.15630
X0.82500 Y0.16330
X0.82500 Y0.16530
X0.82800 Y0.16830
X0.82900 Y0.17530
X0.83100 Y0.17730
X0.83100 Y0.19430
X0.82900 Y0.19630
X0.82700 Y0.20430
X0.81900 Y0.21430
X0.80300 Y0.22230
X0.78600 Y0.22230
X0.78400 Y0.22030
X0.77600 Y0.22030
X0.77000 Y0.22230
X0.73900 Y0.25330
X0.73900 Y0.25530
X0.70100 Y0.29230
X0.70000 Y0.29430
X0.70100 Y0.31830
X0.69900 Y0.32030
X0.69700 Y0.32830
X0.68700 Y0.33830
X0.68500 Y0.33830
X0.68400 Y0.34030
X0.67900 Y0.34030
X0.67700 Y0.34230
X0.66100 Y0.34230
X0.66000 Y0.34030
X0.65500 Y0.34030
X0.65400 Y0.33830
X0.65000 Y0.33730
X0.64100 Y0.32730
X0.63900 Y0.32030
X0.62300 Y0.32130
X0.60000 Y0.34430
X0.60100 Y0.36830
X0.59900 Y0.37030
X0.59700 Y0.37830
X0.58400 Y0.39030
X0.57900 Y0.39030
X0.57700 Y0.39230
X0.56100 Y0.39230
X0.56000 Y0.39030
X0.55500 Y0.39030
X0.55400 Y0.38830
X0.55000 Y0.38730
X0.54300 Y0.38030
X0.53800 Y0.36930
X0.53800 Y0.35230
X0.54500 Y0.33830
X0.54800 Y0.33530
X0.55400 Y0.33330
X0.55500 Y0.33130
X0.56100 Y0.32930
X0.58600 Y0.33030
X0.61200 Y0.30330
X0.61600 Y0.30130
X0.63900 Y0.30130
X0.64100 Y0.29430
X0.64300 Y0.29330
X0.64500 Y0.28830
X0.64800 Y0.28530
X0.65400 Y0.28330
X0.65500 Y0.28130
X0.66100 Y0.27930
X0.68600 Y0.28030
X0.75800 Y0.20830
X0.76000 Y0.20230
X0.75700 Y0.18730
X0.75800 Y0.17730
X0.76100 Y0.17230
X0.76100 Y0.16730
X0.76300 Y0.16630
X0.76500 Y0.16130
X0.77100 Y0.15630
X0.77300 Y0.14830
X0.77000 Y0.14530
X0.69000 Y0.14530
X0.68500 Y0.14730
X0.66400 Y0.16830
X0.66100 Y0.17830
X0.67800 Y0.17930
X0.68400 Y0.18130
X0.68500 Y0.18330
X0.69100 Y0.18530
X0.69200 Y0.18830
X0.69600 Y0.19130
X0.69900 Y0.19730
X0.69900 Y0.20130
X0.70100 Y0.20230
X0.70100 Y0.21830
X0.69900 Y0.22030
X0.69700 Y0.22830
X0.68400 Y0.24030
X0.67900 Y0.24030
X0.67700 Y0.24230
X0.66100 Y0.24230
X0.66000 Y0.24030
X0.65500 Y0.24030
X0.65400 Y0.23830
X0.65000 Y0.23730
X0.64100 Y0.22730
X0.64100 Y0.22430
X0.63800 Y0.21930
X0.63700 Y0.20230
X0.62700 Y0.20530
X0.59700 Y0.23530
X0.59600 Y0.24330
X0.59800 Y0.24430
X0.59900 Y0.25130
X0.60100 Y0.25230
X0.60100 Y0.26830
X0.59900 Y0.27030
X0.59700 Y0.27830
X0.58400 Y0.29030
X0.57900 Y0.29030
X0.57700 Y0.29230
X0.56100 Y0.29230
X0.56000 Y0.29030
X0.55500 Y0.29030
X0.55400 Y0.28830
X0.55000 Y0.28730
X0.54300 Y0.28030
X0.53800 Y0.26930
X0.53800 Y0.25230
X0.54100 Y0.24730
X0.54100 Y0.24430
X0.54800 Y0.23530
X0.55400 Y0.23330
X0.55500 Y0.23130
X0.57800 Y0.22730
X0.67600 Y0.12830
X0.68000 Y0.12630
X0.77100 Y0.12630
X0.77400 Y0.12330
X0.77300 Y0.11730
X0.76300 Y0.10730
X0.76000 Y0.09630
X0.75800 Y0.09430
X0.75700 Y0.08730
X0.76100 Y0.06730
X0.77000 Y0.05630
X0.78600 Y0.04930
X0.79600 Y0.04830
X0.80300 Y0.04930
X0.80500 Y0.05130
X0.80900 Y0.05130
X0.81600 Y0.05430
X0.82500 Y0.06330
X0.82500 Y0.06530
X0.82800 Y0.06830
X0.82900 Y0.07530
X0.83100 Y0.07730
X0.83100 Y0.09430
X0.82900 Y0.09630
X0.82700 Y0.10430
X0.81600 Y0.11730
X0.81500 Y0.12330
X0.81800 Y0.12630
X0.94700 Y0.12630
X0.95000 Y0.12530
X1.04000 Y0.03530
X1.04000 Y0.03230
X0.13800 Y0.03130
X0.13500 Y0.03430
X0.13500 Y0.74230
X0.13800 Y0.74530
X0.18200 Y0.74430
X0.71800 Y0.74530
X0.74000 Y0.76730
X0.74100 Y0.78030
X0.74700 Y0.77930
X0.75000 Y0.77430
X0.75200 Y0.77430
X0.75900 Y0.76830
X0.76700 Y0.76630
X0.78200 Y0.76630
X0.78700 Y0.76730
X0.79500 Y0.77130
X0.79700 Y0.77430
X0.79900 Y0.77430
X0.80000 Y0.77730
X0.80500 Y0.78230
X0.80500 Y0.78430
X0.80700 Y0.78530
X0.80800 Y0.79030
X0.94400 Y0.79030
X0.95000 Y0.78830
X0.95000 Y0.78530
G04 P0 ( dwell for no time -- G64 should not smooth over this point )
G00 Z0.19685 ( retract )

G00 X0.79600 Y0.92730 ( rapid move to begin. )
F0.98425
G01 Z-0.01969
G04 P0 ( dwell for no time -- G64 should not smooth over this point )
F1.96850
X0.79600 Y0.92730
X0.80300 Y0.92130
X0.80300 Y0.91930
X0.80600 Y0.91630
X0.80600 Y0.91130
X0.80800 Y0.90830
X0.80800 Y0.89230
X0.80500 Y0.88330
X0.79900 Y0.87730
X0.79900 Y0.87530
X0.79600 Y0.87230
X0.79200 Y0.87130
X0.79100 Y0.86930
X0.78600 Y0.86930
X0.78400 Y0.86630
X0.78400 Y0.83530
X0.78600 Y0.83230
X0.79000 Y0.83230
X0.79300 Y0.82930
X0.79500 Y0.82930
X0.80300 Y0.82130
X0.80700 Y0.81130
X0.95400 Y0.80930
X1.04100 Y0.72230
X1.04900 Y0.72130
X1.04900 Y0.73930
X1.05000 Y0.74230
X1.05300 Y0.74330
X1.10800 Y0.74230
X1.10900 Y0.69530
X1.12500 Y0.69430
X1.15900 Y0.66030
X1.25100 Y0.65930
X1.25400 Y0.66230
X1.25400 Y0.66430
X1.29100 Y0.66330
X1.32100 Y0.63330
X1.32900 Y0.63130
X1.33000 Y0.62830
X1.32900 Y0.46830
X1.32000 Y0.46630
X1.29100 Y0.43630
X1.28700 Y0.43630
X1.28200 Y0.43030
X1.26500 Y0.43030
X1.26100 Y0.42530
X1.24100 Y0.41930
X1.23700 Y0.40630
X1.22500 Y0.40330
X1.13100 Y0.30930
X1.12900 Y0.30430
X1.13200 Y0.28930
X1.13000 Y0.27130
X1.12400 Y0.26330
X1.12400 Y0.26130
X1.12100 Y0.25930
X1.12100 Y0.25730
X1.10500 Y0.24930
X1.10500 Y0.22130
X1.10800 Y0.22130
X1.11400 Y0.21830
X1.11500 Y0.21630
X1.12100 Y0.21430
X1.12100 Y0.21230
X1.12400 Y0.21030
X1.13000 Y0.19930
X1.13200 Y0.18230
X1.13000 Y0.17130
X1.12400 Y0.16330
X1.12400 Y0.16130
X1.12100 Y0.15930
X1.12100 Y0.15730
X1.11700 Y0.15630
X1.11600 Y0.15430
X1.10800 Y0.15030
X1.10000 Y0.14830
X1.08900 Y0.14830
X1.08500 Y0.15030
X1.08000 Y0.15030
X1.07200 Y0.15430
X1.07000 Y0.15730
X1.06100 Y0.15930
X1.05900 Y0.17130
X1.05900 Y0.20030
X1.06100 Y0.21130
X1.07400 Y0.21630
X1.07800 Y0.22030
X1.08400 Y0.22130
X1.08400 Y0.24930
X1.07200 Y0.25430
X1.07000 Y0.25730
X1.06100 Y0.25930
X1.05900 Y0.27130
X1.05900 Y0.30030
X1.06100 Y0.31130
X1.07400 Y0.31630
X1.08000 Y0.32130
X1.09100 Y0.32330
X1.11100 Y0.32130
X1.11700 Y0.32330
X1.23400 Y0.44030
X1.23400 Y0.44230
X1.24500 Y0.45330
X1.24900 Y0.45530
X1.25800 Y0.45630
X1.26200 Y0.46130
X1.27600 Y0.46130
X1.28600 Y0.46630
X1.28900 Y0.46630
X1.30500 Y0.48030
X1.30900 Y0.48730
X1.30900 Y0.51430
X1.30700 Y0.52130
X1.30700 Y0.52730
X1.30900 Y0.52830
X1.30900 Y0.57230
X1.30600 Y0.57430
X1.30900 Y0.58730
X1.30900 Y0.61330
X1.30700 Y0.61430
X1.30700 Y0.61730
X1.30200 Y0.62130
X1.30200 Y0.62330
X1.29900 Y0.62530
X1.29900 Y0.62730
X1.29500 Y0.62830
X1.29100 Y0.63330
X1.28800 Y0.63330
X1.28300 Y0.63730
X1.25800 Y0.63730
X1.25500 Y0.63930
X1.14800 Y0.63930
X1.14500 Y0.64030
X1.14300 Y0.64830
X1.11900 Y0.67230
X1.11300 Y0.67430
X1.11000 Y0.67430
X1.11000 Y0.62730
X1.05100 Y0.62730
X1.04800 Y0.62930
X1.04700 Y0.63230
X1.04800 Y0.67530
X1.03700 Y0.67530
X1.03300 Y0.67630
X1.03000 Y0.67930
X1.02800 Y0.68630
X1.02700 Y0.70830
X1.00100 Y0.73430
X0.99200 Y0.73630
X0.99100 Y0.74330
X0.98400 Y0.74430
X0.98200 Y0.75330
X0.95100 Y0.78330
X0.95000 Y0.78830
X0.94400 Y0.79030
X0.80800 Y0.79030
X0.80700 Y0.78530
X0.80000 Y0.77730
X0.80000 Y0.77530
X0.78700 Y0.76730
X0.76700 Y0.76630
X0.75700 Y0.76930
X0.75200 Y0.77430
X0.75000 Y0.77430
X0.74700 Y0.77930
X0.74100 Y0.78030
X0.74100 Y0.82030
X0.74600 Y0.82130
X0.75000 Y0.82730
X0.75700 Y0.83030
X0.75900 Y0.83330
X0.76400 Y0.83430
X0.76400 Y0.86730
X0.75400 Y0.87130
X0.75200 Y0.87430
X0.74900 Y0.87530
X0.74700 Y0.87930
X0.74100 Y0.88030
X0.74100 Y0.91930
X0.74600 Y0.92030
X0.75800 Y0.93230
X0.76200 Y0.93230
X0.76200 Y0.93430
X0.76600 Y0.93830
X0.78200 Y0.93830
X0.78600 Y0.93430
X0.78600 Y0.93230
X0.79000 Y0.93230
X0.79600 Y0.92730
G04 P0 ( dwell for no time -- G64 should not smooth over this point )
G00 Z0.19685 ( retract )

G00 X0.75600 Y0.93930 ( rapid move to begin. )
F0.98425
G01 Z-0.01969
G04 P0 ( dwell for no time -- G64 should not smooth over this point )
F1.96850
X0.75600 Y0.93930
X0.76600 Y0.93930
X0.76600 Y0.93730
X0.76200 Y0.93430
X0.76200 Y0.93230
X0.75800 Y0.93230
X0.75600 Y0.92930
X0.75400 Y0.92930
X0.74600 Y0.92030
X0.74100 Y0.91930
X0.74000 Y0.93730
X0.74300 Y0.94030
X0.75600 Y0.93930
G04 P0 ( dwell for no time -- G64 should not smooth over this point )
G00 Z0.19685 ( retract )

G00 X0.75200 Y0.87330 ( rapid move to begin. )
F0.98425
G01 Z-0.01969
G04 P0 ( dwell for no time -- G64 should not smooth over this point )
F1.96850
X0.75200 Y0.87330
X0.75700 Y0.86930
X0.76400 Y0.86730
X0.76400 Y0.83430
X0.75900 Y0.83330
X0.75700 Y0.83030
X0.75000 Y0.82730
X0.74600 Y0.82130
X0.74100 Y0.82030
X0.74000 Y0.82630
X0.74100 Y0.88030
X0.74700 Y0.87930
X0.74900 Y0.87530
X0.75200 Y0.87330
G04 P0 ( dwell for no time -- G64 should not smooth over this point )
G00 Z0.19685 ( retract )

G00 X1.13800 Y0.93930 ( rapid move to begin. )
F0.98425
G01 Z-0.01969
G04 P0 ( dwell for no time -- G64 should not smooth over this point )
F1.96850
X1.13800 Y0.93930
X1.14800 Y0.93930
X1.14800 Y0.93730
X1.14100 Y0.93230
X1.13900 Y0.92430
X1.13900 Y0.87730
X1.14200 Y0.86730
X1.15100 Y0.86530
X1.20300 Y0.86630
X1.20700 Y0.86730
X1.20800 Y0.87030
X1.20900 Y0.88930
X1.21100 Y0.89130
X1.24900 Y0.89130
X1.25200 Y0.89030
X1.29300 Y0.84930
X1.29600 Y0.83830
X1.24800 Y0.83830
X1.24000 Y0.83630
X1.23700 Y0.82930
X1.23700 Y0.80030
X1.23500 Y0.79830
X1.23100 Y0.79830
X1.22200 Y0.80930
X1.21100 Y0.81030
X1.20900 Y0.81230
X1.20900 Y0.82630
X1.20700 Y0.82930
X1.20700 Y0.83330
X1.20300 Y0.83330
X1.20000 Y0.83530
X1.14900 Y0.83530
X1.14200 Y0.83330
X1.14000 Y0.82930
X1.13900 Y0.77730
X1.14100 Y0.76830
X1.15100 Y0.76530
X1.20500 Y0.76530
X1.20700 Y0.76330
X1.20700 Y0.75630
X1.21000 Y0.74930
X1.21300 Y0.74630
X1.21500 Y0.74630
X1.23800 Y0.72330
X1.24000 Y0.71730
X1.23700 Y0.70230
X1.23800 Y0.69230
X1.24100 Y0.68730
X1.24100 Y0.68230
X1.24300 Y0.68130
X1.24600 Y0.67530
X1.25000 Y0.67130
X1.25200 Y0.67130
X1.25200 Y0.66830
X1.25400 Y0.66630
X1.25400 Y0.66230
X1.25100 Y0.65930
X1.16200 Y0.65930
X1.15700 Y0.66130
X1.12500 Y0.69430
X1.10900 Y0.69530
X1.10800 Y0.74230
X1.05300 Y0.74330
X1.05000 Y0.74230
X1.04900 Y0.73930
X1.04900 Y0.72130
X1.04100 Y0.72230
X0.95400 Y0.80930
X0.80900 Y0.81030
X0.80600 Y0.81230
X0.80600 Y0.81630
X0.80300 Y0.81930
X0.80300 Y0.82130
X0.79500 Y0.82930
X0.79300 Y0.82930
X0.79000 Y0.83230
X0.78600 Y0.83230
X0.78400 Y0.83530
X0.78400 Y0.86630
X0.78600 Y0.86930
X0.79100 Y0.86930
X0.79200 Y0.87130
X0.79600 Y0.87230
X0.80500 Y0.88330
X0.80800 Y0.89230
X0.80800 Y0.90830
X0.80600 Y0.91130
X0.80600 Y0.91630
X0.80300 Y0.91930
X0.80300 Y0.92130
X0.79200 Y0.93130
X0.78600 Y0.93230
X0.78200 Y0.93930
X0.79200 Y0.94030
X1.13800 Y0.93930
G04 P0 ( dwell for no time -- G64 should not smooth over this point )
G00 Z0.19685 ( retract )

G00 X1.20800 Y0.92730 ( rapid move to begin. )
F0.98425
G01 Z-0.01969
G04 P0 ( dwell for no time -- G64 should not smooth over this point )
F1.96850
X1.20800 Y0.92730
X1.20900 Y0.91230
X1.21100 Y0.91030
X1.26100 Y0.90930
X1.34800 Y0.82230
X1.34900 Y0.81830
X1.34900 Y0.34930
X1.34700 Y0.34330
X1.31000 Y0.30730
X1.30800 Y0.29930
X1.30900 Y0.29530
X1.31100 Y0.29430
X1.31100 Y0.27730
X1.30900 Y0.27530
X1.30700 Y0.26630
X1.30400 Y0.26530
X1.30100 Y0.26130
X1.30100 Y0.25730
X1.29700 Y0.24930
X1.29200 Y0.24830
X1.25700 Y0.24830
X1.25600 Y0.25230
X1.25200 Y0.25430
X1.25000 Y0.25730
X1.24800 Y0.25730
X1.24800 Y0.25930
X1.24300 Y0.26330
X1.23900 Y0.27130
X1.23900 Y0.27630
X1.23700 Y0.28030
X1.23700 Y0.29130
X1.24100 Y0.30430
X1.24800 Y0.31230
X1.24800 Y0.31430
X1.25400 Y0.31630
X1.26000 Y0.32130
X1.27100 Y0.32330
X1.28400 Y0.32230
X1.28700 Y0.32030
X1.29700 Y0.32230
X1.31200 Y0.33730
X1.31400 Y0.34530
X1.32400 Y0.34830
X1.32400 Y0.35030
X1.32800 Y0.35330
X1.32900 Y0.35630
X1.33000 Y0.45730
X1.32900 Y0.81130
X1.32400 Y0.81830
X1.31100 Y0.82230
X1.30800 Y0.83430
X1.29600 Y0.83730
X1.29300 Y0.84930
X1.25200 Y0.89030
X1.24900 Y0.89130
X1.21100 Y0.89130
X1.20900 Y0.88930
X1.20800 Y0.87030
X1.20700 Y0.86730
X1.20300 Y0.86630
X1.15100 Y0.86530
X1.14100 Y0.86830
X1.13900 Y0.87730
X1.13900 Y0.92430
X1.14200 Y0.93330
X1.14400 Y0.93330
X1.14800 Y0.93830
X1.20100 Y0.93830
X1.20500 Y0.93330
X1.20700 Y0.93330
X1.20800 Y0.92730
G04 P0 ( dwell for no time -- G64 should not smooth over this point )
G00 Z0.19685 ( retract )

G00 X1.20800 Y0.82730 ( rapid move to begin. )
F0.98425
G01 Z-0.01969
G04 P0 ( dwell for no time -- G64 should not smooth over this point )
F1.96850
X1.20800 Y0.82730
X1.20900 Y0.81230
X1.21100 Y0.81030
X1.22200 Y0.80930
X1.22500 Y0.80630
X1.22500 Y0.80430
X1.23200 Y0.79830
X1.23200 Y0.77030
X1.23500 Y0.76630
X1.23400 Y0.75830
X1.23600 Y0.75230
X1.25100 Y0.73730
X1.25700 Y0.73530
X1.27100 Y0.73830
X1.28800 Y0.73630
X1.29400 Y0.73330
X1.29500 Y0.73130
X1.30100 Y0.72930
X1.30100 Y0.72730
X1.30800 Y0.71930
X1.31200 Y0.70430
X1.31000 Y0.68630
X1.30600 Y0.67930
X1.30400 Y0.67830
X1.30400 Y0.67630
X1.30100 Y0.67430
X1.30100 Y0.67230
X1.29400 Y0.66930
X1.29100 Y0.66330
X1.25400 Y0.66430
X1.25200 Y0.67130
X1.25000 Y0.67130
X1.24100 Y0.68230
X1.24100 Y0.68730
X1.23800 Y0.69230
X1.23700 Y0.70230
X1.23800 Y0.70930
X1.24000 Y0.71230
X1.23800 Y0.72330
X1.21500 Y0.74630
X1.21300 Y0.74630
X1.21000 Y0.74930
X1.20700 Y0.75630
X1.20700 Y0.76330
X1.20500 Y0.76530
X1.15100 Y0.76530
X1.14100 Y0.76830
X1.13900 Y0.77730
X1.13900 Y0.82430
X1.14200 Y0.83330
X1.14900 Y0.83530
X1.20000 Y0.83530
X1.20300 Y0.83330
X1.20700 Y0.83330
X1.20800 Y0.82730
G04 P0 ( dwell for no time -- G64 should not smooth over this point )
G00 Z0.19685 ( retract )

G00 X1.30900 Y0.83030 ( rapid move to begin. )
F0.98425
G01 Z-0.01969
G04 P0 ( dwell for no time -- G64 should not smooth over this point )
F1.96850
X1.30900 Y0.83030
X1.31200 Y0.82230
X1.31200 Y0.77130
X1.31100 Y0.76630
X1.30900 Y0.76430
X1.30600 Y0.76330
X1.23500 Y0.76430
X1.23400 Y0.79830
X1.23700 Y0.80030
X1.23700 Y0.82930
X1.24000 Y0.83630
X1.24800 Y0.83830
X1.29600 Y0.83830
X1.30800 Y0.83430
X1.30900 Y0.83030
G04 P0 ( dwell for no time -- G64 should not smooth over this point )
G00 Z0.19685 ( retract )

G00 X1.32700 Y0.81430 ( rapid move to begin. )
F0.98425
G01 Z-0.01969
G04 P0 ( dwell for no time -- G64 should not smooth over this point )
F1.96850
X1.32700 Y0.81430
X1.32900 Y0.81130
X1.32900 Y0.63130
X1.32100 Y0.63330
X1.29700 Y0.65830
X1.29500 Y0.65830
X1.29100 Y0.66230
X1.29300 Y0.66830
X1.30100 Y0.67230
X1.30100 Y0.67430
X1.30400 Y0.67630
X1.30400 Y0.67830
X1.30600 Y0.67930
X1.31000 Y0.68630
X1.31200 Y0.70430
X1.31000 Y0.71430
X1.30400 Y0.72530
X1.30100 Y0.72730
X1.30100 Y0.72930
X1.28400 Y0.73730
X1.27100 Y0.73830
X1.26100 Y0.73530
X1.25100 Y0.73730
X1.23600 Y0.75230
X1.23400 Y0.75830
X1.23400 Y0.76430
X1.23600 Y0.76330
X1.30900 Y0.76430
X1.31100 Y0.76630
X1.31200 Y0.77130
X1.31200 Y0.82130
X1.32400 Y0.81830
X1.32700 Y0.81430
G04 P0 ( dwell for no time -- G64 should not smooth over this point )
G00 Z0.19685 ( retract )

G00 X1.35200 Y0.93930 ( rapid move to begin. )
F0.98425
G01 Z-0.01969
G04 P0 ( dwell for no time -- G64 should not smooth over this point )
F1.96850
X1.35200 Y0.93930
X1.36000 Y0.93930
X1.36000 Y0.93730
X1.35700 Y0.93330
X1.35200 Y0.93130
X1.34300 Y0.92230
X1.34000 Y0.91130
X1.33800 Y0.90930
X1.33700 Y0.90230
X1.34100 Y0.88230
X1.35000 Y0.87130
X1.36600 Y0.86430
X1.37300 Y0.86330
X1.38300 Y0.86430
X1.38500 Y0.86630
X1.38900 Y0.86630
X1.39600 Y0.86930
X1.40700 Y0.88130
X1.40900 Y0.89030
X1.41100 Y0.89230
X1.41100 Y0.90930
X1.40300 Y0.92530
X1.39900 Y0.92930
X1.39400 Y0.93130
X1.39000 Y0.93530
X1.38900 Y0.93930
X1.39700 Y0.94030
X1.44000 Y0.93930
X1.43900 Y0.93230
X1.43700 Y0.92930
X1.43700 Y0.87230
X1.43900 Y0.86530
X1.44600 Y0.86330
X1.50800 Y0.86330
X1.51000 Y0.86130
X1.51000 Y0.85230
X1.51200 Y0.84830
X1.53800 Y0.82330
X1.54000 Y0.81730
X1.53700 Y0.80230
X1.53800 Y0.79230
X1.54100 Y0.78730
X1.54100 Y0.78230
X1.54300 Y0.78130
X1.54500 Y0.77630
X1.55700 Y0.76730
X1.56600 Y0.76430
X1.57600 Y0.76330
X1.58300 Y0.76430
X1.58500 Y0.76630
X1.58900 Y0.76630
X1.59600 Y0.76930
X1.60700 Y0.78130
X1.60900 Y0.79030
X1.61100 Y0.79230
X1.61100 Y0.80930
X1.60900 Y0.81130
X1.60800 Y0.81730
X1.59900 Y0.82930
X1.59700 Y0.82930
X1.58900 Y0.83530
X1.58500 Y0.83530
X1.58300 Y0.83730
X1.56600 Y0.83730
X1.56400 Y0.83530
X1.55600 Y0.83530
X1.55100 Y0.83730
X1.53100 Y0.85730
X1.52900 Y0.86230
X1.52800 Y0.90630
X1.52500 Y0.90930
X1.51400 Y0.91030
X1.51200 Y0.91230
X1.51200 Y0.92630
X1.50900 Y0.93930
X1.62600 Y0.94030
X1.62900 Y0.93730
X1.62900 Y0.76230
X1.64600 Y0.74530
X2.15200 Y0.74430
X2.24600 Y0.74530
X2.24900 Y0.74230
X2.24900 Y0.03430
X2.24600 Y0.03130
X1.12400 Y0.03230
X1.12400 Y0.03530
X1.19700 Y0.10730
X1.19900 Y0.11330
X1.20000 Y0.16330
X1.22600 Y0.18930
X1.23700 Y0.19230
X1.23800 Y0.17730
X1.24100 Y0.17230
X1.24100 Y0.16730
X1.24300 Y0.16630
X1.24500 Y0.16130
X1.25700 Y0.15230
X1.27300 Y0.14830
X1.28300 Y0.14930
X1.28500 Y0.15130
X1.28900 Y0.15130
X1.29600 Y0.15430
X1.30500 Y0.16330
X1.30500 Y0.16530
X1.30800 Y0.16830
X1.30900 Y0.17530
X1.31100 Y0.17630
X1.39000 Y0.17630
X1.39400 Y0.17830
X1.56100 Y0.34630
X1.57000 Y0.34930
X1.57600 Y0.34830
X1.59200 Y0.35230
X1.59600 Y0.35430
X1.60400 Y0.36330
X1.63000 Y0.36330
X1.63500 Y0.36130
X1.66900 Y0.32730
X1.66800 Y0.31830
X1.66900 Y0.29930
X1.67500 Y0.28830
X1.67800 Y0.28530
X1.68400 Y0.28330
X1.68500 Y0.28130
X1.69100 Y0.27930
X1.70800 Y0.27930
X1.72100 Y0.28530
X1.72200 Y0.28830
X1.72600 Y0.29130
X1.72900 Y0.29730
X1.72900 Y0.30130
X1.73100 Y0.30230
X1.73100 Y0.31630
X1.73500 Y0.31730
X1.74100 Y0.31530
X1.77200 Y0.28430
X1.77200 Y0.27730
X1.76800 Y0.26930
X1.76800 Y0.25230
X1.77500 Y0.23830
X1.77800 Y0.23530
X1.78400 Y0.23330
X1.78500 Y0.23130
X1.79100 Y0.22930
X1.80800 Y0.22930
X1.81400 Y0.23130
X1.81500 Y0.23330
X1.82200 Y0.23630
X1.82200 Y0.23830
X1.82600 Y0.24130
X1.82900 Y0.24730
X1.82900 Y0.25130
X1.83100 Y0.25230
X1.83100 Y0.26830
X1.82900 Y0.27030
X1.82900 Y0.27430
X1.82700 Y0.27830
X1.81700 Y0.28830
X1.81500 Y0.28830
X1.81400 Y0.29030
X1.80900 Y0.29030
X1.80700 Y0.29230
X1.79400 Y0.29230
X1.78900 Y0.29430
X1.72200 Y0.36230
X1.70200 Y0.36330
X1.69700 Y0.36530
X1.69300 Y0.36930
X1.69100 Y0.37830
X1.70800 Y0.37930
X1.72100 Y0.38530
X1.72200 Y0.38830
X1.72600 Y0.39130
X1.72900 Y0.39730
X1.72900 Y0.40130
X1.73100 Y0.40230
X1.73100 Y0.41830
X1.72900 Y0.42030
X1.72900 Y0.42430
X1.71700 Y0.43830
X1.71500 Y0.43830
X1.71400 Y0.44030
X1.70900 Y0.44030
X1.70700 Y0.44230
X1.69100 Y0.44230
X1.69000 Y0.44030
X1.68500 Y0.44030
X1.68400 Y0.43830
X1.68000 Y0.43730
X1.67300 Y0.43030
X1.66900 Y0.42230
X1.66700 Y0.40230
X1.65800 Y0.40430
X1.64000 Y0.42230
X1.63800 Y0.55130
X1.61100 Y0.57630
X1.60800 Y0.58530
X1.60900 Y0.59030
X1.61100 Y0.59230
X1.61100 Y0.60930
X1.60900 Y0.61130
X1.60700 Y0.61930
X1.59900 Y0.62930
X1.59700 Y0.62930
X1.58900 Y0.63530
X1.58500 Y0.63530
X1.58400 Y0.63730
X1.58400 Y0.66330
X1.58600 Y0.66630
X1.59600 Y0.66930
X1.60700 Y0.68130
X1.60900 Y0.69030
X1.61100 Y0.69230
X1.61100 Y0.70930
X1.60300 Y0.72530
X1.59300 Y0.73330
X1.58500 Y0.73530
X1.58300 Y0.73730
X1.56600 Y0.73730
X1.56400 Y0.73530
X1.55700 Y0.73430
X1.55100 Y0.73030
X1.54300 Y0.72230
X1.54000 Y0.71130
X1.53800 Y0.70930
X1.53700 Y0.69930
X1.53900 Y0.68930
X1.54100 Y0.68730
X1.54100 Y0.68230
X1.55000 Y0.67130
X1.55700 Y0.66730
X1.56300 Y0.66630
X1.56500 Y0.66330
X1.56500 Y0.63730
X1.56400 Y0.63530
X1.55700 Y0.63430
X1.55400 Y0.63130
X1.55200 Y0.63130
X1.54300 Y0.62230
X1.54000 Y0.61130
X1.53800 Y0.60930
X1.53700 Y0.60230
X1.53800 Y0.59230
X1.54100 Y0.58730
X1.54100 Y0.58230
X1.54300 Y0.58130
X1.54500 Y0.57630
X1.55700 Y0.56730
X1.57300 Y0.56330
X1.58300 Y0.56430
X1.58600 Y0.56630
X1.59700 Y0.56430
X1.61900 Y0.54230
X1.62000 Y0.51730
X1.61600 Y0.51330
X1.61200 Y0.51330
X1.60800 Y0.51630
X1.60800 Y0.51830
X1.60500 Y0.52030
X1.60500 Y0.52230
X1.59900 Y0.52930
X1.58300 Y0.53730
X1.56600 Y0.53730
X1.56400 Y0.53530
X1.56000 Y0.53530
X1.55200 Y0.53130
X1.54300 Y0.52230
X1.54000 Y0.51130
X1.53800 Y0.50930
X1.53700 Y0.49930
X1.54000 Y0.48430
X1.53700 Y0.47630
X1.31600 Y0.25630
X1.31600 Y0.25430
X1.31200 Y0.25030
X1.30300 Y0.24730
X1.29900 Y0.24730
X1.29700 Y0.24930
X1.30100 Y0.25730
X1.30100 Y0.26130
X1.30400 Y0.26530
X1.30700 Y0.26630
X1.30900 Y0.27530
X1.31100 Y0.27730
X1.31100 Y0.29430
X1.30900 Y0.29530
X1.30800 Y0.29930
X1.31000 Y0.30730
X1.34700 Y0.34330
X1.34900 Y0.34930
X1.34900 Y0.81830
X1.34800 Y0.82230
X1.26100 Y0.90930
X1.21100 Y0.91030
X1.20900 Y0.91230
X1.20900 Y0.92630
X1.20700 Y0.92930
X1.20700 Y0.93330
X1.20400 Y0.93430
X1.20100 Y0.93730
X1.20100 Y0.93930
X1.21100 Y0.94030
X1.35200 Y0.93930
G04 P0 ( dwell for no time -- G64 should not smooth over this point )
G00 Z0.19685 ( retract )

G00 X1.39600 Y0.93030 ( rapid move to begin. )
F0.98425
G01 Z-0.01969
G04 P0 ( dwell for no time -- G64 should not smooth over this point )
F1.96850
X1.39600 Y0.93030
X1.40300 Y0.92530
X1.41100 Y0.90930
X1.41100 Y0.89230
X1.40900 Y0.89030
X1.40800 Y0.88330
X1.40500 Y0.88030
X1.40500 Y0.87830
X1.39600 Y0.86930
X1.38900 Y0.86630
X1.38500 Y0.86630
X1.38300 Y0.86430
X1.37600 Y0.86330
X1.36600 Y0.86430
X1.35000 Y0.87130
X1.34100 Y0.88230
X1.34100 Y0.88730
X1.33900 Y0.88930
X1.33700 Y0.89930
X1.33800 Y0.90930
X1.34000 Y0.91130
X1.34300 Y0.92230
X1.35200 Y0.93130
X1.35800 Y0.93430
X1.36000 Y0.93930
X1.38900 Y0.93930
X1.39000 Y0.93530
X1.39600 Y0.93030
G04 P0 ( dwell for no time -- G64 should not smooth over this point )
G00 Z0.19685 ( retract )

G00 X1.51100 Y0.93030 ( rapid move to begin. )
F0.98425
G01 Z-0.01969
G04 P0 ( dwell for no time -- G64 should not smooth over this point )
F1.96850
X1.51100 Y0.93030
X1.51200 Y0.91230
X1.51400 Y0.91030
X1.52500 Y0.90930
X1.52800 Y0.90630
X1.52900 Y0.86230
X1.53100 Y0.85730
X1.55100 Y0.83730
X1.55600 Y0.83530
X1.56400 Y0.83530
X1.56600 Y0.83730
X1.58300 Y0.83730
X1.59900 Y0.82930
X1.60700 Y0.81930
X1.60900 Y0.81130
X1.61100 Y0.80930
X1.61100 Y0.79230
X1.60900 Y0.79030
X1.60700 Y0.78130
X1.59600 Y0.76930
X1.58900 Y0.76630
X1.58500 Y0.76630
X1.58300 Y0.76430
X1.57300 Y0.76330
X1.55700 Y0.76730
X1.54500 Y0.77630
X1.54300 Y0.78130
X1.54100 Y0.78230
X1.54100 Y0.78730
X1.53800 Y0.79230
X1.53700 Y0.80230
X1.53800 Y0.80930
X1.54000 Y0.81230
X1.53800 Y0.82330
X1.51200 Y0.84830
X1.51000 Y0.85230
X1.51000 Y0.86130
X1.50800 Y0.86330
X1.44600 Y0.86330
X1.43900 Y0.86530
X1.43700 Y0.87230
X1.43700 Y0.92930
X1.43900 Y0.93230
X1.44000 Y0.93930
X1.50900 Y0.93930
X1.51100 Y0.93030
G04 P0 ( dwell for no time -- G64 should not smooth over this point )
G00 Z0.19685 ( retract )

G00 X1.59600 Y0.73030 ( rapid move to begin. )
F0.98425
G01 Z-0.01969
G04 P0 ( dwell for no time -- G64 should not smooth over this point )
F1.96850
X1.59600 Y0.73030
X1.60300 Y0.72530
X1.60300 Y0.72330
X1.60800 Y0.71730
X1.60900 Y0.71130
X1.61100 Y0.70930
X1.61100 Y0.69230
X1.60900 Y0.69030
X1.60800 Y0.68330
X1.60500 Y0.68030
X1.60500 Y0.67830
X1.59600 Y0.66930
X1.58600 Y0.66630
X1.58400 Y0.66330
X1.58400 Y0.63730
X1.58500 Y0.63530
X1.58900 Y0.63530
X1.59700 Y0.62930
X1.59900 Y0.62930
X1.60700 Y0.61930
X1.60900 Y0.61130
X1.61100 Y0.60930
X1.61100 Y0.59230
X1.60800 Y0.58730
X1.61100 Y0.57630
X1.63800 Y0.55130
X1.64000 Y0.42230
X1.65800 Y0.40430
X1.66700 Y0.40230
X1.67000 Y0.39430
X1.67500 Y0.39030
X1.67600 Y0.38730
X1.68000 Y0.38530
X1.68400 Y0.38030
X1.69100 Y0.37830
X1.69300 Y0.36930
X1.69700 Y0.36530
X1.70200 Y0.36330
X1.72200 Y0.36230
X1.78900 Y0.29430
X1.79400 Y0.29230
X1.80700 Y0.29230
X1.80900 Y0.29030
X1.81400 Y0.29030
X1.82700 Y0.27830
X1.82900 Y0.27030
X1.83100 Y0.26830
X1.83100 Y0.25230
X1.82900 Y0.25130
X1.82900 Y0.24730
X1.82600 Y0.24130
X1.82200 Y0.23830
X1.82200 Y0.23630
X1.81500 Y0.23330
X1.81400 Y0.23130
X1.80800 Y0.22930
X1.79100 Y0.22930
X1.77800 Y0.23530
X1.77100 Y0.24430
X1.77100 Y0.24730
X1.76800 Y0.25230
X1.76800 Y0.26930
X1.77200 Y0.27730
X1.77200 Y0.28430
X1.74100 Y0.31530
X1.73200 Y0.31730
X1.73000 Y0.32430
X1.71900 Y0.33730
X1.71500 Y0.33830
X1.71300 Y0.34130
X1.71000 Y0.34130
X1.70900 Y0.34330
X1.68500 Y0.34330
X1.64700 Y0.38230
X1.64500 Y0.38230
X1.64200 Y0.39230
X1.62200 Y0.41130
X1.61900 Y0.41830
X1.61900 Y0.48430
X1.61400 Y0.48830
X1.61400 Y0.51330
X1.61600 Y0.51330
X1.62000 Y0.51730
X1.61900 Y0.54230
X1.59700 Y0.56430
X1.59100 Y0.56630
X1.57600 Y0.56330
X1.56600 Y0.56430
X1.55000 Y0.57130
X1.54100 Y0.58230
X1.54100 Y0.58730
X1.53900 Y0.58930
X1.53700 Y0.59930
X1.53800 Y0.60930
X1.54000 Y0.61130
X1.54100 Y0.61830
X1.54300 Y0.62230
X1.55200 Y0.63130
X1.55400 Y0.63130
X1.55700 Y0.63430
X1.56400 Y0.63530
X1.56500 Y0.63730
X1.56500 Y0.66330
X1.56300 Y0.66630
X1.55300 Y0.66930
X1.54500 Y0.67630
X1.54500 Y0.67830
X1.54100 Y0.68230
X1.54100 Y0.68730
X1.53800 Y0.69230
X1.53700 Y0.70230
X1.54100 Y0.71830
X1.54300 Y0.72230
X1.55200 Y0.73130
X1.55400 Y0.73130
X1.55700 Y0.73430
X1.56400 Y0.73530
X1.56600 Y0.73730
X1.58300 Y0.73730
X1.58500 Y0.73530
X1.59300 Y0.73330
X1.59600 Y0.73030
G04 P0 ( dwell for no time -- G64 should not smooth over this point )
G00 Z0.19685 ( retract )

G00 X1.59600 Y0.53030 ( rapid move to begin. )
F0.98425
G01 Z-0.01969
G04 P0 ( dwell for no time -- G64 should not smooth over this point )
F1.96850
X1.59600 Y0.53030
X1.60300 Y0.52530
X1.60300 Y0.52330
X1.60900 Y0.51530
X1.61400 Y0.51330
X1.61400 Y0.48830
X1.60800 Y0.48430
X1.60800 Y0.48230
X1.60100 Y0.47430
X1.60100 Y0.47230
X1.59700 Y0.47130
X1.59600 Y0.46930
X1.58800 Y0.46530
X1.58000 Y0.46330
X1.56900 Y0.46330
X1.56500 Y0.46530
X1.55700 Y0.46530
X1.55100 Y0.46330
X1.31500 Y0.22630
X1.29800 Y0.22530
X1.29600 Y0.22230
X1.26800 Y0.22330
X1.25600 Y0.21730
X1.25200 Y0.21230
X1.25000 Y0.21230
X1.25000 Y0.21030
X1.24200 Y0.20330
X1.24200 Y0.20030
X1.24000 Y0.19930
X1.23800 Y0.19230
X1.22600 Y0.18930
X1.20000 Y0.16330
X1.19900 Y0.11330
X1.19700 Y0.10730
X1.12400 Y0.03530
X1.12400 Y0.03230
X1.04000 Y0.03230
X1.04000 Y0.03530
X0.95000 Y0.12530
X0.94700 Y0.12630
X0.81800 Y0.12630
X0.81500 Y0.12230
X0.80500 Y0.12330
X0.77400 Y0.12230
X0.77100 Y0.12630
X0.68000 Y0.12630
X0.67600 Y0.12830
X0.57800 Y0.22730
X0.57200 Y0.22930
X0.56100 Y0.22930
X0.54800 Y0.23530
X0.54100 Y0.24430
X0.54100 Y0.24730
X0.53800 Y0.25230
X0.53900 Y0.27230
X0.54300 Y0.28030
X0.55000 Y0.28730
X0.55400 Y0.28830
X0.55500 Y0.29030
X0.56000 Y0.29030
X0.56100 Y0.29230
X0.57700 Y0.29230
X0.57900 Y0.29030
X0.58400 Y0.29030
X0.59700 Y0.27830
X0.59900 Y0.27030
X0.60100 Y0.26830
X0.60100 Y0.25230
X0.59900 Y0.25130
X0.59800 Y0.24430
X0.59600 Y0.24330
X0.59700 Y0.23530
X0.62700 Y0.20530
X0.63700 Y0.20230
X0.63900 Y0.19630
X0.64300 Y0.19330
X0.64500 Y0.18830
X0.64800 Y0.18530
X0.65200 Y0.18430
X0.65500 Y0.18030
X0.66100 Y0.17830
X0.66400 Y0.16830
X0.68700 Y0.14630
X0.77000 Y0.14530
X0.77300 Y0.14930
X0.78400 Y0.14830
X0.81500 Y0.14930
X0.81800 Y0.14530
X0.95500 Y0.14530
X0.96300 Y0.14130
X1.05300 Y0.05030
X1.06600 Y0.04930
X1.06900 Y0.05330
X1.08600 Y0.05030
X1.10800 Y0.05130
X1.10900 Y0.05330
X1.11300 Y0.05430
X1.11700 Y0.05930
X1.11900 Y0.05930
X1.11900 Y0.06130
X1.12700 Y0.06830
X1.12700 Y0.07130
X1.12900 Y0.07230
X1.12900 Y0.07530
X1.13100 Y0.07630
X1.13200 Y0.08030
X1.14300 Y0.08230
X1.17800 Y0.11730
X1.17900 Y0.16830
X1.18100 Y0.17330
X1.25100 Y0.24330
X1.25300 Y0.24330
X1.25300 Y0.24530
X1.25600 Y0.24830
X1.29800 Y0.24930
X1.29900 Y0.24730
X1.30300 Y0.24730
X1.31200 Y0.25030
X1.31600 Y0.25430
X1.31600 Y0.25630
X1.53700 Y0.47630
X1.54000 Y0.48430
X1.53700 Y0.49930
X1.53800 Y0.50930
X1.54000 Y0.51130
X1.54300 Y0.52230
X1.55200 Y0.53130
X1.55400 Y0.53130
X1.55700 Y0.53430
X1.56400 Y0.53530
X1.56600 Y0.53730
X1.58300 Y0.53730
X1.58500 Y0.53530
X1.59300 Y0.53330
X1.59600 Y0.53030
G04 P0 ( dwell for no time -- G64 should not smooth over this point )
G00 Z0.19685 ( retract )

G00 X1.61900 Y0.47830 ( rapid move to begin. )
F0.98425
G01 Z-0.01969
G04 P0 ( dwell for no time -- G64 should not smooth over this point )
F1.96850
X1.61900 Y0.47830
X1.62000 Y0.41430
X1.64200 Y0.39230
X1.64500 Y0.38230
X1.61200 Y0.38330
X1.61100 Y0.39430
X1.60900 Y0.39630
X1.60700 Y0.40430
X1.59900 Y0.41430
X1.59700 Y0.41430
X1.59600 Y0.41630
X1.58900 Y0.42030
X1.58500 Y0.42030
X1.58300 Y0.42230
X1.56600 Y0.42230
X1.56400 Y0.42030
X1.55500 Y0.41830
X1.54300 Y0.40730
X1.54000 Y0.39630
X1.53800 Y0.39430
X1.53700 Y0.38730
X1.53800 Y0.37730
X1.54100 Y0.37230
X1.54100 Y0.36730
X1.54400 Y0.36430
X1.54200 Y0.35430
X1.38500 Y0.19730
X1.38000 Y0.19530
X1.30900 Y0.19630
X1.30700 Y0.20430
X1.30500 Y0.20530
X1.30300 Y0.21030
X1.29700 Y0.21530
X1.29500 Y0.22230
X1.29800 Y0.22530
X1.31500 Y0.22630
X1.55100 Y0.46330
X1.55700 Y0.46530
X1.56500 Y0.46530
X1.56900 Y0.46330
X1.58000 Y0.46330
X1.58800 Y0.46530
X1.59600 Y0.46930
X1.59700 Y0.47130
X1.60100 Y0.47230
X1.60100 Y0.47430
X1.60400 Y0.47630
X1.60800 Y0.48430
X1.61100 Y0.48530
X1.61300 Y0.48830
X1.61500 Y0.48830
X1.61900 Y0.48430
X1.61900 Y0.47830
G04 P0 ( dwell for no time -- G64 should not smooth over this point )
G00 Z0.19685 ( retract )

G00 X1.59600 Y0.41530 ( rapid move to begin. )
F0.98425
G01 Z-0.01969
G04 P0 ( dwell for no time -- G64 should not smooth over this point )
F1.96850
X1.59600 Y0.41530
X1.60300 Y0.41030
X1.60300 Y0.40830
X1.60800 Y0.40230
X1.60900 Y0.39630
X1.61100 Y0.39430
X1.61200 Y0.38330
X1.64700 Y0.38230
X1.68500 Y0.34330
X1.70900 Y0.34330
X1.71000 Y0.34130
X1.71300 Y0.34130
X1.71500 Y0.33830
X1.71900 Y0.33730
X1.72600 Y0.33030
X1.72600 Y0.32830
X1.73000 Y0.32430
X1.73000 Y0.32130
X1.73200 Y0.32030
X1.73100 Y0.30230
X1.72900 Y0.30130
X1.72900 Y0.29730
X1.72600 Y0.29130
X1.72200 Y0.28830
X1.72100 Y0.28530
X1.70800 Y0.27930
X1.69100 Y0.27930
X1.67800 Y0.28530
X1.67100 Y0.29430
X1.67100 Y0.29730
X1.66800 Y0.30230
X1.66900 Y0.32730
X1.63500 Y0.36130
X1.63000 Y0.36330
X1.60400 Y0.36330
X1.59600 Y0.35430
X1.59200 Y0.35230
X1.58500 Y0.35130
X1.58300 Y0.34930
X1.57600 Y0.34830
X1.57000 Y0.34930
X1.56100 Y0.34630
X1.39400 Y0.17830
X1.39000 Y0.17630
X1.31100 Y0.17630
X1.30900 Y0.17530
X1.30800 Y0.16830
X1.30500 Y0.16530
X1.30500 Y0.16330
X1.29600 Y0.15430
X1.28900 Y0.15130
X1.28500 Y0.15130
X1.28300 Y0.14930
X1.27600 Y0.14830
X1.26600 Y0.14930
X1.25700 Y0.15230
X1.24500 Y0.16130
X1.24500 Y0.16330
X1.24100 Y0.16730
X1.24100 Y0.17230
X1.23800 Y0.17730
X1.23800 Y0.19530
X1.24000 Y0.19630
X1.24200 Y0.20330
X1.25000 Y0.21030
X1.25000 Y0.21230
X1.25200 Y0.21230
X1.25600 Y0.21730
X1.26800 Y0.22330
X1.29500 Y0.22230
X1.29700 Y0.21530
X1.30300 Y0.21030
X1.30300 Y0.20830
X1.30800 Y0.20230
X1.30900 Y0.19630
X1.31100 Y0.19530
X1.38000 Y0.19530
X1.38500 Y0.19730
X1.54200 Y0.35430
X1.54400 Y0.36430
X1.54100 Y0.36730
X1.53700 Y0.38730
X1.53800 Y0.39430
X1.54000 Y0.39630
X1.54300 Y0.40730
X1.55500 Y0.41830
X1.56400 Y0.42030
X1.56600 Y0.42230
X1.58300 Y0.42230
X1.58500 Y0.42030
X1.59300 Y0.41830
X1.59600 Y0.41530
G04 P0 ( dwell for no time -- G64 should not smooth over this point )
G00 Z0.19685 ( retract )

G00 X1.60700 Y0.31530 ( rapid move to begin. )
F0.98425
G01 Z-0.01969
G04 P0 ( dwell for no time -- G64 should not smooth over this point )
F1.96850
X1.60700 Y0.31530
X1.61200 Y0.30930
X1.61500 Y0.29930
X1.61500 Y0.27230
X1.61200 Y0.26130
X1.60100 Y0.24930
X1.58800 Y0.24530
X1.56100 Y0.24530
X1.54800 Y0.24930
X1.54000 Y0.25630
X1.54000 Y0.25830
X1.53600 Y0.26230
X1.53400 Y0.27230
X1.53400 Y0.29930
X1.53800 Y0.31230
X1.54700 Y0.32130
X1.54900 Y0.32130
X1.55200 Y0.32430
X1.56100 Y0.32630
X1.58800 Y0.32630
X1.59800 Y0.32330
X1.60700 Y0.31530
G04 P0 ( dwell for no time -- G64 should not smooth over this point )
G00 Z0.19685 ( retract )

G00 X1.60700 Y0.21530 ( rapid move to begin. )
F0.98425
G01 Z-0.01969
G04 P0 ( dwell for no time -- G64 should not smooth over this point )
F1.96850
X1.60700 Y0.21530
X1.61200 Y0.20930
X1.61500 Y0.19930
X1.61500 Y0.17230
X1.61200 Y0.16130
X1.60100 Y0.14930
X1.58800 Y0.14530
X1.56100 Y0.14530
X1.54800 Y0.14930
X1.54000 Y0.15630
X1.54000 Y0.15830
X1.53600 Y0.16230
X1.53400 Y0.17230
X1.53400 Y0.19930
X1.53800 Y0.21230
X1.54700 Y0.22130
X1.54900 Y0.22130
X1.55200 Y0.22430
X1.56100 Y0.22630
X1.58800 Y0.22630
X1.59800 Y0.22330
X1.60700 Y0.21530
G04 P0 ( dwell for no time -- G64 should not smooth over this point )
G00 Z0.19685 ( retract )

G00 X1.72300 Y0.23730 ( rapid move to begin. )
F0.98425
G01 Z-0.01969
G04 P0 ( dwell for no time -- G64 should not smooth over this point )
F1.96850
X1.72300 Y0.23730
X1.73200 Y0.22830
X1.73600 Y0.21830
X1.73600 Y0.20230
X1.72900 Y0.18830
X1.72500 Y0.18530
X1.72500 Y0.18330
X1.72200 Y0.18030
X1.71200 Y0.17530
X1.69700 Y0.17330
X1.68500 Y0.17630
X1.61400 Y0.10530
X1.61600 Y0.10130
X1.61500 Y0.07230
X1.61300 Y0.06330
X1.61000 Y0.06030
X1.61000 Y0.05830
X1.60100 Y0.04930
X1.58800 Y0.04530
X1.56100 Y0.04530
X1.55200 Y0.04730
X1.54500 Y0.05130
X1.53600 Y0.06230
X1.53400 Y0.07230
X1.53400 Y0.09930
X1.53800 Y0.11230
X1.54700 Y0.12130
X1.55500 Y0.12530
X1.58700 Y0.12730
X1.59400 Y0.12530
X1.66500 Y0.19630
X1.66200 Y0.20830
X1.66400 Y0.22330
X1.66700 Y0.23030
X1.67700 Y0.24030
X1.69100 Y0.24730
X1.70700 Y0.24730
X1.71700 Y0.24330
X1.72300 Y0.23730
G04 P0 ( dwell for no time -- G64 should not smooth over this point )
G00 Z0.19685 ( retract )

G00 X1.82300 Y0.38730 ( rapid move to begin. )
F0.98425
G01 Z-0.01969
G04 P0 ( dwell for no time -- G64 should not smooth over this point )
F1.96850
X1.82300 Y0.38730
X1.83000 Y0.38130
X1.83600 Y0.36830
X1.83500 Y0.34830
X1.83300 Y0.34730
X1.83200 Y0.34330
X1.83000 Y0.34230
X1.82900 Y0.33830
X1.82500 Y0.33530
X1.82500 Y0.33330
X1.81500 Y0.32630
X1.80200 Y0.32330
X1.78700 Y0.32530
X1.77700 Y0.33030
X1.76700 Y0.34130
X1.76300 Y0.35230
X1.76200 Y0.36330
X1.76700 Y0.38030
X1.77700 Y0.39030
X1.79100 Y0.39730
X1.81100 Y0.39630
X1.82000 Y0.39130
X1.82300 Y0.38730
G04 P0 ( dwell for no time -- G64 should not smooth over this point )
G00 Z0.19685 ( retract )

G00 X1.82300 Y0.48730 ( rapid move to begin. )
F0.98425
G01 Z-0.01969
G04 P0 ( dwell for no time -- G64 should not smooth over this point )
F1.96850
X1.82300 Y0.48730
X1.83000 Y0.48130
X1.83600 Y0.46830
X1.83500 Y0.44830
X1.83300 Y0.44730
X1.83200 Y0.44330
X1.83000 Y0.44230
X1.82900 Y0.43830
X1.82500 Y0.43530
X1.82500 Y0.43330
X1.81500 Y0.42630
X1.80200 Y0.42330
X1.78700 Y0.42530
X1.77700 Y0.43030
X1.76700 Y0.44130
X1.76300 Y0.45230
X1.76200 Y0.46330
X1.76700 Y0.48030
X1.77700 Y0.49030
X1.79100 Y0.49730
X1.81100 Y0.49630
X1.82000 Y0.49130
X1.82300 Y0.48730
G04 P0 ( dwell for no time -- G64 should not smooth over this point )
G00 Z0.19685 ( retract )

G00 X1.82300 Y0.58730 ( rapid move to begin. )
F0.98425
G01 Z-0.01969
G04 P0 ( dwell for no time -- G64 should not smooth over this point )
F1.96850
X1.82300 Y0.58730
X1.83000 Y0.58130
X1.83600 Y0.56830
X1.83500 Y0.54830
X1.83300 Y0.54730
X1.83200 Y0.54330
X1.83000 Y0.54230
X1.82900 Y0.53830
X1.82500 Y0.53530
X1.82500 Y0.53330
X1.81500 Y0.52630
X1.80200 Y0.52330
X1.78700 Y0.52530
X1.77700 Y0.53030
X1.76700 Y0.54130
X1.76300 Y0.55230
X1.76200 Y0.56330
X1.76700 Y0.58030
X1.77700 Y0.59030
X1.79100 Y0.59730
X1.81100 Y0.59630
X1.82000 Y0.59130
X1.82300 Y0.58730
G04 P0 ( dwell for no time -- G64 should not smooth over this point )
G00 Z0.19685 ( retract )

G00 X1.71700 Y0.43730 ( rapid move to begin. )
F0.98425
G01 Z-0.01969
G04 P0 ( dwell for no time -- G64 should not smooth over this point )
F1.96850
X1.71700 Y0.43730
X1.72600 Y0.42930
X1.73100 Y0.41830
X1.73100 Y0.40230
X1.72900 Y0.40130
X1.72900 Y0.39730
X1.72600 Y0.39130
X1.72200 Y0.38830
X1.72100 Y0.38530
X1.70800 Y0.37930
X1.68800 Y0.37830
X1.68700 Y0.38030
X1.68400 Y0.38030
X1.68000 Y0.38530
X1.67800 Y0.38530
X1.67500 Y0.38830
X1.67500 Y0.39030
X1.67000 Y0.39430
X1.66700 Y0.40030
X1.66800 Y0.41930
X1.67100 Y0.42430
X1.67100 Y0.42730
X1.68000 Y0.43730
X1.68400 Y0.43830
X1.68500 Y0.44030
X1.69000 Y0.44030
X1.69100 Y0.44230
X1.70700 Y0.44230
X1.70900 Y0.44030
X1.71400 Y0.44030
X1.71700 Y0.43730
G04 P0 ( dwell for no time -- G64 should not smooth over this point )
G00 Z0.19685 ( retract )

G00 X1.33000 Y0.46230 ( rapid move to begin. )
F0.98425
G01 Z-0.01969
G04 P0 ( dwell for no time -- G64 should not smooth over this point )
F1.96850
X1.33000 Y0.46230
X1.32900 Y0.35630
X1.32800 Y0.35330
X1.32400 Y0.35030
X1.32400 Y0.34830
X1.31300 Y0.34530
X1.31100 Y0.34730
X1.31200 Y0.41130
X1.31000 Y0.42030
X1.30000 Y0.42330
X1.28300 Y0.42330
X1.28100 Y0.42530
X1.28100 Y0.43030
X1.28700 Y0.43630
X1.29100 Y0.43630
X1.32000 Y0.46630
X1.32900 Y0.46830
X1.33000 Y0.46230
G04 P0 ( dwell for no time -- G64 should not smooth over this point )
G00 Z0.19685 ( retract )

G00 X1.31100 Y0.41530 ( rapid move to begin. )
F0.98425
G01 Z-0.01969
G04 P0 ( dwell for no time -- G64 should not smooth over this point )
F1.96850
X1.31100 Y0.41530
X1.31200 Y0.41130
X1.31100 Y0.34830
X1.24300 Y0.34830
X1.23800 Y0.35130
X1.23700 Y0.40830
X1.24100 Y0.41930
X1.26100 Y0.42630
X1.28100 Y0.42630
X1.28300 Y0.42330
X1.30000 Y0.42330
X1.30900 Y0.42130
X1.31100 Y0.41530
G04 P0 ( dwell for no time -- G64 should not smooth over this point )
G00 Z0.19685 ( retract )

G00 X1.29600 Y0.53030 ( rapid move to begin. )
F0.98425
G01 Z-0.01969
G04 P0 ( dwell for no time -- G64 should not smooth over this point )
F1.96850
X1.29600 Y0.53030
X1.29800 Y0.52830
X1.30700 Y0.52630
X1.30900 Y0.51430
X1.30900 Y0.48730
X1.30500 Y0.48030
X1.28900 Y0.46630
X1.28600 Y0.46630
X1.27600 Y0.46130
X1.26200 Y0.46130
X1.25800 Y0.46730
X1.24800 Y0.47230
X1.24800 Y0.47430
X1.24100 Y0.48030
X1.24000 Y0.51430
X1.24200 Y0.52630
X1.25100 Y0.52830
X1.25500 Y0.53330
X1.26400 Y0.53530
X1.26600 Y0.53730
X1.28300 Y0.53730
X1.28500 Y0.53530
X1.29300 Y0.53330
X1.29600 Y0.53030
G04 P0 ( dwell for no time -- G64 should not smooth over this point )
G00 Z0.19685 ( retract )

G00 X1.30900 Y0.56630 ( rapid move to begin. )
F0.98425
G01 Z-0.01969
G04 P0 ( dwell for no time -- G64 should not smooth over this point )
F1.96850
X1.30900 Y0.56630
X1.30900 Y0.52830
X1.30700 Y0.52630
X1.29800 Y0.52830
X1.29300 Y0.53330
X1.28500 Y0.53530
X1.28300 Y0.53730
X1.26600 Y0.53730
X1.26400 Y0.53530
X1.25500 Y0.53330
X1.25100 Y0.52830
X1.24500 Y0.52630
X1.24200 Y0.52630
X1.24000 Y0.52830
X1.24000 Y0.55030
X1.24100 Y0.55330
X1.25100 Y0.56330
X1.25700 Y0.56530
X1.28000 Y0.56330
X1.28800 Y0.56530
X1.29600 Y0.56930
X1.29700 Y0.57130
X1.30500 Y0.57430
X1.30900 Y0.57230
X1.30900 Y0.56630
G04 P0 ( dwell for no time -- G64 should not smooth over this point )
G00 Z0.19685 ( retract )

G00 X1.30700 Y0.11530 ( rapid move to begin. )
F0.98425
G01 Z-0.01969
G04 P0 ( dwell for no time -- G64 should not smooth over this point )
F1.96850
X1.30700 Y0.11530
X1.31200 Y0.10930
X1.31500 Y0.09930
X1.31500 Y0.07230
X1.31200 Y0.06130
X1.30100 Y0.04930
X1.28800 Y0.04530
X1.26100 Y0.04530
X1.24800 Y0.04930
X1.24000 Y0.05630
X1.24000 Y0.05830
X1.23600 Y0.06230
X1.23400 Y0.07230
X1.23400 Y0.09930
X1.23800 Y0.11230
X1.24700 Y0.12130
X1.24900 Y0.12130
X1.25200 Y0.12430
X1.26100 Y0.12630
X1.28800 Y0.12630
X1.29800 Y0.12330
X1.30700 Y0.11530

G04 P0 ( dwell for no time -- G64 should not smooth over this point )
G00 Z0.197 ( retract )

M5 ( Spindle off. )
M9 ( Coolant off. )
M2 ( Program end. )

