( pcb2gcode 1.2.2 )
( Software-independent Gcode )
      
G94 ( Inches per minute feed rate. )
G20 ( Units == INCHES. )

G90 ( Absolute coordinates. )
S10000 ( RPM spindle speed. )
G64 P0.00200 ( set maximum deviation from commanded toolpath )
F0.19685 ( Feedrate. )

F0.19685 ( Feedrate. )
M3 ( Spindle on clockwise. )
G04 P0 ( dwell for no time -- G64 should not smooth over this point )
G00 Z0.19685 ( retract )

G00 X1.64500 Y0.93930 ( rapid move to begin. )
G01 Z0.00000 F0.09842 ( plunge. )
G04 P0 ( dwell for no time -- G64 should not smooth over this point )
F0.19685
X1.64500 Y0.93930
X1.64500 Y0.77830
X1.64600 Y0.77830
X1.64600 Y0.77730
X1.64700 Y0.77730
X1.64700 Y0.77630
X1.64800 Y0.77630
X1.64800 Y0.77530
X1.64900 Y0.77530
X1.64900 Y0.77430
X1.65000 Y0.77430
X1.65000 Y0.77330
X1.65100 Y0.77330
X1.65100 Y0.77230
X1.65200 Y0.77230
X1.65200 Y0.77130
X1.65300 Y0.77130
X1.65300 Y0.77030
X1.65400 Y0.77030
X1.65400 Y0.76930
X1.65500 Y0.76930
X1.65500 Y0.76830
X1.65600 Y0.76830
X1.65600 Y0.76730
X1.65700 Y0.76730
X1.65700 Y0.76630
X1.65800 Y0.76630
X1.65800 Y0.76530
X1.65900 Y0.76530
X1.65900 Y0.76430
X1.66000 Y0.76430
X1.66000 Y0.76330
X1.66100 Y0.76330
X1.66100 Y0.76230
X1.66200 Y0.76230
X1.66200 Y0.76130
X2.26200 Y0.76130
X2.26200 Y0.76030
X2.26300 Y0.76030
X2.26300 Y0.75930
X2.26400 Y0.75930
X2.26400 Y0.75830
X2.26500 Y0.75830
X2.26500 Y0.01830
X2.26400 Y0.01830
X2.26400 Y0.01730
X2.26300 Y0.01730
X2.26300 Y0.01630
X2.26200 Y0.01630
X2.26200 Y0.01530
X0.12200 Y0.01530
X0.12200 Y0.01630
X0.12100 Y0.01630
X0.12100 Y0.01730
X0.12000 Y0.01730
X0.12000 Y0.01830
X0.11900 Y0.01830
X0.11900 Y0.75830
X0.12000 Y0.75830
X0.12000 Y0.75930
X0.12100 Y0.75930
X0.12100 Y0.76030
X0.12200 Y0.76030
X0.12200 Y0.76130
X0.70200 Y0.76130
X0.70200 Y0.76230
X0.70300 Y0.76230
X0.70300 Y0.76330
X0.70400 Y0.76330
X0.70400 Y0.76430
X0.70500 Y0.76430
X0.70500 Y0.76530
X0.70600 Y0.76530
X0.70600 Y0.76630
X0.70700 Y0.76630
X0.70700 Y0.76730
X0.70800 Y0.76730
X0.70800 Y0.76830
X0.70900 Y0.76830
X0.70900 Y0.76930
X0.71000 Y0.76930
X0.71000 Y0.77030
X0.71100 Y0.77030
X0.71100 Y0.77130
X0.71200 Y0.77130
X0.71200 Y0.77230
X0.71300 Y0.77230
X0.71300 Y0.77330
X0.71400 Y0.77330
X0.71400 Y0.77430
X0.71500 Y0.77430
X0.71500 Y0.77530
X0.71600 Y0.77530
X0.71600 Y0.77630
X0.71700 Y0.77630
X0.71700 Y0.77730
X0.71800 Y0.77730
X0.71800 Y0.77830
X0.71900 Y0.77830
X0.71900 Y0.77930
X0.72000 Y0.77930
X0.72000 Y0.78030
X0.72100 Y0.78030
X0.72100 Y0.78130
X0.72200 Y0.78130
X0.72200 Y0.78230
X0.72300 Y0.78230
X0.72300 Y0.78330
X0.72400 Y0.78330
X0.72400 Y0.95330
X0.72500 Y0.95330
X0.72500 Y0.95430
X0.72600 Y0.95430
X0.72600 Y0.95530
X0.72700 Y0.95530
X0.72700 Y0.95630
X1.64200 Y0.95630
X1.64200 Y0.95530
X1.64300 Y0.95530
X1.64300 Y0.95430
X1.64400 Y0.95430
X1.64400 Y0.95330
X1.64500 Y0.95330
X1.64500 Y0.93930

G04 P0 ( dwell for no time -- G64 should not smooth over this point )
G00 Z0.19685 ( retract )

M5 ( Spindle off. )
M9 ( Coolant off. )
M2 ( Program end. )

