( pcb2gcode 1.2.2 )
( Software-independent Gcode )

G94 ( Inches per minute feed rate. )
G20 ( Units == INCHES. )

G90 ( Absolute coordinates. )
S10000 ( RPM spindle speed. )
G64 P0.00200 ( set maximum deviation from commanded toolpath )
F0.19685 ( Feedrate. )

F0.19685 ( Feedrate. )
M3 ( Spindle on clockwise. )
G04 P0 ( dwell for no time -- G64 should not smooth over this point )
G00 Z0.19685 ( retract )

G00 X1.64500 Y0.93930 ( rapid move to begin. )
G01 Z0.00000 F0.09842 ( plunge. )
G04 P0 ( dwell for no time -- G64 should not smooth over this point )
F0.19685
X1.64500 Y0.93930
X1.64500 Y0.77830
X1.66200 Y0.76130
X2.26200 Y0.76130
X2.26500 Y0.75830
X2.26500 Y0.01830
X2.26200 Y0.01530
X0.12200 Y0.01530
X0.11900 Y0.01830
X0.11900 Y0.75830
X0.12200 Y0.76130
X0.70200 Y0.76130
X0.72400 Y0.78330
X0.72400 Y0.95330
X0.72700 Y0.95630
X1.64200 Y0.95630
X1.64500 Y0.95330
X1.64500 Y0.93930

G04 P0 ( dwell for no time -- G64 should not smooth over this point )
G00 Z0.197 ( retract )

M5 ( Spindle off. )
M9 ( Coolant off. )
M2 ( Program end. )

