( pcb2gcode 1.2.2 )

( This file uses a mill head of 0.03000inch to drill the 6bit sizes. )
( Bit sizes: [0.02800] [0.03000] [0.03500] [0.12800] [0.06300] [0.03800] )

G94       (Inches per minute feed rate.)
G20       (Units == INCHES.)
G90       (Absolute coordinates.)
S10000    (RPM spindle speed.)
M3
G91.1
G0 Z0.10000
F1.00000 (Feedrate)

G00 Z0.02000
G0 X0.80994 Y0.08460
G1 Z-0.10000
G0 Z0.02000

G0 X0.80994 Y0.18460
G1 Z-0.10000
G0 Z0.02000

G0 X0.80994 Y0.28460
G1 Z-0.10000
G0 Z0.02000

G0 X0.80994 Y0.38460
G1 Z-0.10000
G0 Z0.02000

G0 X0.80994 Y0.49960
G1 Z-0.10000
G0 Z0.02000

G0 X0.80994 Y0.59960
G1 Z-0.10000
G0 Z0.02000

G0 X0.80994 Y0.69960
G1 Z-0.10000
G0 Z0.02000

G0 X0.80994 Y0.79960
G1 Z-0.10000
G0 Z0.02000

G0 X1.10994 Y0.79960
G1 Z-0.10000
G0 Z0.02000

G0 X1.10994 Y0.69960
G1 Z-0.10000
G0 Z0.02000

G0 X1.10994 Y0.59960
G1 Z-0.10000
G0 Z0.02000

G0 X1.10994 Y0.49960
G1 Z-0.10000
G0 Z0.02000

G0 X1.10994 Y0.38460
G1 Z-0.10000
G0 Z0.02000

G0 X1.10994 Y0.28460
G1 Z-0.10000
G0 Z0.02000

G0 X1.10994 Y0.18460
G1 Z-0.10000
G0 Z0.02000

G0 X1.10994 Y0.08460
G1 Z-0.10000
G0 Z0.02000

G0 X1.28994 Y0.08460
G1 Z-0.10000
G0 Z0.02000

G0 X1.28994 Y0.18460
G1 Z-0.10000
G0 Z0.02000

G0 X1.28994 Y0.28460
G1 Z-0.10000
G0 Z0.02000

G0 X1.28994 Y0.38460
G1 Z-0.10000
G0 Z0.02000

G0 X1.58994 Y0.38460
G1 Z-0.10000
G0 Z0.02000

G0 X1.58994 Y0.28460
G1 Z-0.10000
G0 Z0.02000

G0 X1.58994 Y0.18460
G1 Z-0.10000
G0 Z0.02000

G0 X1.58994 Y0.08460
G1 Z-0.10000
G0 Z0.02000

G0 X1.20494 Y0.49460
G1 Z-0.10000
G0 Z0.02000

G0 X1.20494 Y0.58460
G1 Z-0.10000
G0 Z0.02000

G0 X1.20994 Y0.79960
G1 Z-0.10000
G0 Z0.02000

G0 X1.20994 Y0.89960
G1 Z-0.10000
G0 Z0.02000

G0 X1.60994 Y0.89960
G1 Z-0.10000
G0 Z0.02000

G0 X1.60994 Y0.79960
G1 Z-0.10000
G0 Z0.02000

G0 X1.60494 Y0.58460
G1 Z-0.10000
G0 Z0.02000

G0 X1.60494 Y0.49460
G1 Z-0.10000
G0 Z0.02000

G0 X0.58744 Y0.25960
G1 Z[-0.10000+12*0.00800]
G2 I-0.00250 J0
G1 Z[-0.10000+11*0.00800]
G2 I-0.00250 J0
G1 Z[-0.10000+10*0.00800]
G2 I-0.00250 J0
G1 Z[-0.10000+9*0.00800]
G2 I-0.00250 J0
G1 Z[-0.10000+8*0.00800]
G2 I-0.00250 J0
G1 Z[-0.10000+7*0.00800]
G2 I-0.00250 J0
G1 Z[-0.10000+6*0.00800]
G2 I-0.00250 J0
G1 Z[-0.10000+5*0.00800]
G2 I-0.00250 J0
G1 Z[-0.10000+4*0.00800]
G2 I-0.00250 J0
G1 Z[-0.10000+3*0.00800]
G2 I-0.00250 J0
G1 Z[-0.10000+2*0.00800]
G2 I-0.00250 J0
G1 Z[-0.10000+1*0.00800]
G2 I-0.00250 J0
G0 Z0.02000

G0 X0.58744 Y0.35960
G1 Z[-0.10000+12*0.00800]
G2 I-0.00250 J0
G1 Z[-0.10000+11*0.00800]
G2 I-0.00250 J0
G1 Z[-0.10000+10*0.00800]
G2 I-0.00250 J0
G1 Z[-0.10000+9*0.00800]
G2 I-0.00250 J0
G1 Z[-0.10000+8*0.00800]
G2 I-0.00250 J0
G1 Z[-0.10000+7*0.00800]
G2 I-0.00250 J0
G1 Z[-0.10000+6*0.00800]
G2 I-0.00250 J0
G1 Z[-0.10000+5*0.00800]
G2 I-0.00250 J0
G1 Z[-0.10000+4*0.00800]
G2 I-0.00250 J0
G1 Z[-0.10000+3*0.00800]
G2 I-0.00250 J0
G1 Z[-0.10000+2*0.00800]
G2 I-0.00250 J0
G1 Z[-0.10000+1*0.00800]
G2 I-0.00250 J0
G0 Z0.02000

G0 X0.58744 Y0.45960
G1 Z[-0.10000+12*0.00800]
G2 I-0.00250 J0
G1 Z[-0.10000+11*0.00800]
G2 I-0.00250 J0
G1 Z[-0.10000+10*0.00800]
G2 I-0.00250 J0
G1 Z[-0.10000+9*0.00800]
G2 I-0.00250 J0
G1 Z[-0.10000+8*0.00800]
G2 I-0.00250 J0
G1 Z[-0.10000+7*0.00800]
G2 I-0.00250 J0
G1 Z[-0.10000+6*0.00800]
G2 I-0.00250 J0
G1 Z[-0.10000+5*0.00800]
G2 I-0.00250 J0
G1 Z[-0.10000+4*0.00800]
G2 I-0.00250 J0
G1 Z[-0.10000+3*0.00800]
G2 I-0.00250 J0
G1 Z[-0.10000+2*0.00800]
G2 I-0.00250 J0
G1 Z[-0.10000+1*0.00800]
G2 I-0.00250 J0
G0 Z0.02000

G0 X0.58744 Y0.55960
G1 Z[-0.10000+12*0.00800]
G2 I-0.00250 J0
G1 Z[-0.10000+11*0.00800]
G2 I-0.00250 J0
G1 Z[-0.10000+10*0.00800]
G2 I-0.00250 J0
G1 Z[-0.10000+9*0.00800]
G2 I-0.00250 J0
G1 Z[-0.10000+8*0.00800]
G2 I-0.00250 J0
G1 Z[-0.10000+7*0.00800]
G2 I-0.00250 J0
G1 Z[-0.10000+6*0.00800]
G2 I-0.00250 J0
G1 Z[-0.10000+5*0.00800]
G2 I-0.00250 J0
G1 Z[-0.10000+4*0.00800]
G2 I-0.00250 J0
G1 Z[-0.10000+3*0.00800]
G2 I-0.00250 J0
G1 Z[-0.10000+2*0.00800]
G2 I-0.00250 J0
G1 Z[-0.10000+1*0.00800]
G2 I-0.00250 J0
G0 Z0.02000

G0 X0.68744 Y0.50960
G1 Z[-0.10000+12*0.00800]
G2 I-0.00250 J0
G1 Z[-0.10000+11*0.00800]
G2 I-0.00250 J0
G1 Z[-0.10000+10*0.00800]
G2 I-0.00250 J0
G1 Z[-0.10000+9*0.00800]
G2 I-0.00250 J0
G1 Z[-0.10000+8*0.00800]
G2 I-0.00250 J0
G1 Z[-0.10000+7*0.00800]
G2 I-0.00250 J0
G1 Z[-0.10000+6*0.00800]
G2 I-0.00250 J0
G1 Z[-0.10000+5*0.00800]
G2 I-0.00250 J0
G1 Z[-0.10000+4*0.00800]
G2 I-0.00250 J0
G1 Z[-0.10000+3*0.00800]
G2 I-0.00250 J0
G1 Z[-0.10000+2*0.00800]
G2 I-0.00250 J0
G1 Z[-0.10000+1*0.00800]
G2 I-0.00250 J0
G0 Z0.02000

G0 X0.68744 Y0.40960
G1 Z[-0.10000+12*0.00800]
G2 I-0.00250 J0
G1 Z[-0.10000+11*0.00800]
G2 I-0.00250 J0
G1 Z[-0.10000+10*0.00800]
G2 I-0.00250 J0
G1 Z[-0.10000+9*0.00800]
G2 I-0.00250 J0
G1 Z[-0.10000+8*0.00800]
G2 I-0.00250 J0
G1 Z[-0.10000+7*0.00800]
G2 I-0.00250 J0
G1 Z[-0.10000+6*0.00800]
G2 I-0.00250 J0
G1 Z[-0.10000+5*0.00800]
G2 I-0.00250 J0
G1 Z[-0.10000+4*0.00800]
G2 I-0.00250 J0
G1 Z[-0.10000+3*0.00800]
G2 I-0.00250 J0
G1 Z[-0.10000+2*0.00800]
G2 I-0.00250 J0
G1 Z[-0.10000+1*0.00800]
G2 I-0.00250 J0
G0 Z0.02000

G0 X0.68744 Y0.30960
G1 Z[-0.10000+12*0.00800]
G2 I-0.00250 J0
G1 Z[-0.10000+11*0.00800]
G2 I-0.00250 J0
G1 Z[-0.10000+10*0.00800]
G2 I-0.00250 J0
G1 Z[-0.10000+9*0.00800]
G2 I-0.00250 J0
G1 Z[-0.10000+8*0.00800]
G2 I-0.00250 J0
G1 Z[-0.10000+7*0.00800]
G2 I-0.00250 J0
G1 Z[-0.10000+6*0.00800]
G2 I-0.00250 J0
G1 Z[-0.10000+5*0.00800]
G2 I-0.00250 J0
G1 Z[-0.10000+4*0.00800]
G2 I-0.00250 J0
G1 Z[-0.10000+3*0.00800]
G2 I-0.00250 J0
G1 Z[-0.10000+2*0.00800]
G2 I-0.00250 J0
G1 Z[-0.10000+1*0.00800]
G2 I-0.00250 J0
G0 Z0.02000

G0 X0.68744 Y0.20960
G1 Z[-0.10000+12*0.00800]
G2 I-0.00250 J0
G1 Z[-0.10000+11*0.00800]
G2 I-0.00250 J0
G1 Z[-0.10000+10*0.00800]
G2 I-0.00250 J0
G1 Z[-0.10000+9*0.00800]
G2 I-0.00250 J0
G1 Z[-0.10000+8*0.00800]
G2 I-0.00250 J0
G1 Z[-0.10000+7*0.00800]
G2 I-0.00250 J0
G1 Z[-0.10000+6*0.00800]
G2 I-0.00250 J0
G1 Z[-0.10000+5*0.00800]
G2 I-0.00250 J0
G1 Z[-0.10000+4*0.00800]
G2 I-0.00250 J0
G1 Z[-0.10000+3*0.00800]
G2 I-0.00250 J0
G1 Z[-0.10000+2*0.00800]
G2 I-0.00250 J0
G1 Z[-0.10000+1*0.00800]
G2 I-0.00250 J0
G0 Z0.02000

G0 X1.71744 Y0.20960
G1 Z[-0.10000+12*0.00800]
G2 I-0.00250 J0
G1 Z[-0.10000+11*0.00800]
G2 I-0.00250 J0
G1 Z[-0.10000+10*0.00800]
G2 I-0.00250 J0
G1 Z[-0.10000+9*0.00800]
G2 I-0.00250 J0
G1 Z[-0.10000+8*0.00800]
G2 I-0.00250 J0
G1 Z[-0.10000+7*0.00800]
G2 I-0.00250 J0
G1 Z[-0.10000+6*0.00800]
G2 I-0.00250 J0
G1 Z[-0.10000+5*0.00800]
G2 I-0.00250 J0
G1 Z[-0.10000+4*0.00800]
G2 I-0.00250 J0
G1 Z[-0.10000+3*0.00800]
G2 I-0.00250 J0
G1 Z[-0.10000+2*0.00800]
G2 I-0.00250 J0
G1 Z[-0.10000+1*0.00800]
G2 I-0.00250 J0
G0 Z0.02000

G0 X1.71744 Y0.30960
G1 Z[-0.10000+12*0.00800]
G2 I-0.00250 J0
G1 Z[-0.10000+11*0.00800]
G2 I-0.00250 J0
G1 Z[-0.10000+10*0.00800]
G2 I-0.00250 J0
G1 Z[-0.10000+9*0.00800]
G2 I-0.00250 J0
G1 Z[-0.10000+8*0.00800]
G2 I-0.00250 J0
G1 Z[-0.10000+7*0.00800]
G2 I-0.00250 J0
G1 Z[-0.10000+6*0.00800]
G2 I-0.00250 J0
G1 Z[-0.10000+5*0.00800]
G2 I-0.00250 J0
G1 Z[-0.10000+4*0.00800]
G2 I-0.00250 J0
G1 Z[-0.10000+3*0.00800]
G2 I-0.00250 J0
G1 Z[-0.10000+2*0.00800]
G2 I-0.00250 J0
G1 Z[-0.10000+1*0.00800]
G2 I-0.00250 J0
G0 Z0.02000

G0 X1.71744 Y0.40960
G1 Z[-0.10000+12*0.00800]
G2 I-0.00250 J0
G1 Z[-0.10000+11*0.00800]
G2 I-0.00250 J0
G1 Z[-0.10000+10*0.00800]
G2 I-0.00250 J0
G1 Z[-0.10000+9*0.00800]
G2 I-0.00250 J0
G1 Z[-0.10000+8*0.00800]
G2 I-0.00250 J0
G1 Z[-0.10000+7*0.00800]
G2 I-0.00250 J0
G1 Z[-0.10000+6*0.00800]
G2 I-0.00250 J0
G1 Z[-0.10000+5*0.00800]
G2 I-0.00250 J0
G1 Z[-0.10000+4*0.00800]
G2 I-0.00250 J0
G1 Z[-0.10000+3*0.00800]
G2 I-0.00250 J0
G1 Z[-0.10000+2*0.00800]
G2 I-0.00250 J0
G1 Z[-0.10000+1*0.00800]
G2 I-0.00250 J0
G0 Z0.02000

G0 X1.71744 Y0.50960
G1 Z[-0.10000+12*0.00800]
G2 I-0.00250 J0
G1 Z[-0.10000+11*0.00800]
G2 I-0.00250 J0
G1 Z[-0.10000+10*0.00800]
G2 I-0.00250 J0
G1 Z[-0.10000+9*0.00800]
G2 I-0.00250 J0
G1 Z[-0.10000+8*0.00800]
G2 I-0.00250 J0
G1 Z[-0.10000+7*0.00800]
G2 I-0.00250 J0
G1 Z[-0.10000+6*0.00800]
G2 I-0.00250 J0
G1 Z[-0.10000+5*0.00800]
G2 I-0.00250 J0
G1 Z[-0.10000+4*0.00800]
G2 I-0.00250 J0
G1 Z[-0.10000+3*0.00800]
G2 I-0.00250 J0
G1 Z[-0.10000+2*0.00800]
G2 I-0.00250 J0
G1 Z[-0.10000+1*0.00800]
G2 I-0.00250 J0
G0 Z0.02000

G0 X1.81744 Y0.55960
G1 Z[-0.10000+12*0.00800]
G2 I-0.00250 J0
G1 Z[-0.10000+11*0.00800]
G2 I-0.00250 J0
G1 Z[-0.10000+10*0.00800]
G2 I-0.00250 J0
G1 Z[-0.10000+9*0.00800]
G2 I-0.00250 J0
G1 Z[-0.10000+8*0.00800]
G2 I-0.00250 J0
G1 Z[-0.10000+7*0.00800]
G2 I-0.00250 J0
G1 Z[-0.10000+6*0.00800]
G2 I-0.00250 J0
G1 Z[-0.10000+5*0.00800]
G2 I-0.00250 J0
G1 Z[-0.10000+4*0.00800]
G2 I-0.00250 J0
G1 Z[-0.10000+3*0.00800]
G2 I-0.00250 J0
G1 Z[-0.10000+2*0.00800]
G2 I-0.00250 J0
G1 Z[-0.10000+1*0.00800]
G2 I-0.00250 J0
G0 Z0.02000

G0 X1.81744 Y0.45960
G1 Z[-0.10000+12*0.00800]
G2 I-0.00250 J0
G1 Z[-0.10000+11*0.00800]
G2 I-0.00250 J0
G1 Z[-0.10000+10*0.00800]
G2 I-0.00250 J0
G1 Z[-0.10000+9*0.00800]
G2 I-0.00250 J0
G1 Z[-0.10000+8*0.00800]
G2 I-0.00250 J0
G1 Z[-0.10000+7*0.00800]
G2 I-0.00250 J0
G1 Z[-0.10000+6*0.00800]
G2 I-0.00250 J0
G1 Z[-0.10000+5*0.00800]
G2 I-0.00250 J0
G1 Z[-0.10000+4*0.00800]
G2 I-0.00250 J0
G1 Z[-0.10000+3*0.00800]
G2 I-0.00250 J0
G1 Z[-0.10000+2*0.00800]
G2 I-0.00250 J0
G1 Z[-0.10000+1*0.00800]
G2 I-0.00250 J0
G0 Z0.02000

G0 X1.81744 Y0.35960
G1 Z[-0.10000+12*0.00800]
G2 I-0.00250 J0
G1 Z[-0.10000+11*0.00800]
G2 I-0.00250 J0
G1 Z[-0.10000+10*0.00800]
G2 I-0.00250 J0
G1 Z[-0.10000+9*0.00800]
G2 I-0.00250 J0
G1 Z[-0.10000+8*0.00800]
G2 I-0.00250 J0
G1 Z[-0.10000+7*0.00800]
G2 I-0.00250 J0
G1 Z[-0.10000+6*0.00800]
G2 I-0.00250 J0
G1 Z[-0.10000+5*0.00800]
G2 I-0.00250 J0
G1 Z[-0.10000+4*0.00800]
G2 I-0.00250 J0
G1 Z[-0.10000+3*0.00800]
G2 I-0.00250 J0
G1 Z[-0.10000+2*0.00800]
G2 I-0.00250 J0
G1 Z[-0.10000+1*0.00800]
G2 I-0.00250 J0
G0 Z0.02000

G0 X1.81744 Y0.25960
G1 Z[-0.10000+12*0.00800]
G2 I-0.00250 J0
G1 Z[-0.10000+11*0.00800]
G2 I-0.00250 J0
G1 Z[-0.10000+10*0.00800]
G2 I-0.00250 J0
G1 Z[-0.10000+9*0.00800]
G2 I-0.00250 J0
G1 Z[-0.10000+8*0.00800]
G2 I-0.00250 J0
G1 Z[-0.10000+7*0.00800]
G2 I-0.00250 J0
G1 Z[-0.10000+6*0.00800]
G2 I-0.00250 J0
G1 Z[-0.10000+5*0.00800]
G2 I-0.00250 J0
G1 Z[-0.10000+4*0.00800]
G2 I-0.00250 J0
G1 Z[-0.10000+3*0.00800]
G2 I-0.00250 J0
G1 Z[-0.10000+2*0.00800]
G2 I-0.00250 J0
G1 Z[-0.10000+1*0.00800]
G2 I-0.00250 J0
G0 Z0.02000

G0 X0.38394 Y0.15960
G1 Z[-0.10000+12*0.00800]
G2 I-0.04900 J0
G1 Z[-0.10000+11*0.00800]
G2 I-0.04900 J0
G1 Z[-0.10000+10*0.00800]
G2 I-0.04900 J0
G1 Z[-0.10000+9*0.00800]
G2 I-0.04900 J0
G1 Z[-0.10000+8*0.00800]
G2 I-0.04900 J0
G1 Z[-0.10000+7*0.00800]
G2 I-0.04900 J0
G1 Z[-0.10000+6*0.00800]
G2 I-0.04900 J0
G1 Z[-0.10000+5*0.00800]
G2 I-0.04900 J0
G1 Z[-0.10000+4*0.00800]
G2 I-0.04900 J0
G1 Z[-0.10000+3*0.00800]
G2 I-0.04900 J0
G1 Z[-0.10000+2*0.00800]
G2 I-0.04900 J0
G1 Z[-0.10000+1*0.00800]
G2 I-0.04900 J0
G0 Z0.02000

G0 X0.38394 Y0.60960
G1 Z[-0.10000+12*0.00800]
G2 I-0.04900 J0
G1 Z[-0.10000+11*0.00800]
G2 I-0.04900 J0
G1 Z[-0.10000+10*0.00800]
G2 I-0.04900 J0
G1 Z[-0.10000+9*0.00800]
G2 I-0.04900 J0
G1 Z[-0.10000+8*0.00800]
G2 I-0.04900 J0
G1 Z[-0.10000+7*0.00800]
G2 I-0.04900 J0
G1 Z[-0.10000+6*0.00800]
G2 I-0.04900 J0
G1 Z[-0.10000+5*0.00800]
G2 I-0.04900 J0
G1 Z[-0.10000+4*0.00800]
G2 I-0.04900 J0
G1 Z[-0.10000+3*0.00800]
G2 I-0.04900 J0
G1 Z[-0.10000+2*0.00800]
G2 I-0.04900 J0
G1 Z[-0.10000+1*0.00800]
G2 I-0.04900 J0
G0 Z0.02000

G0 X2.11394 Y0.60960
G1 Z[-0.10000+12*0.00800]
G2 I-0.04900 J0
G1 Z[-0.10000+11*0.00800]
G2 I-0.04900 J0
G1 Z[-0.10000+10*0.00800]
G2 I-0.04900 J0
G1 Z[-0.10000+9*0.00800]
G2 I-0.04900 J0
G1 Z[-0.10000+8*0.00800]
G2 I-0.04900 J0
G1 Z[-0.10000+7*0.00800]
G2 I-0.04900 J0
G1 Z[-0.10000+6*0.00800]
G2 I-0.04900 J0
G1 Z[-0.10000+5*0.00800]
G2 I-0.04900 J0
G1 Z[-0.10000+4*0.00800]
G2 I-0.04900 J0
G1 Z[-0.10000+3*0.00800]
G2 I-0.04900 J0
G1 Z[-0.10000+2*0.00800]
G2 I-0.04900 J0
G1 Z[-0.10000+1*0.00800]
G2 I-0.04900 J0
G0 Z0.02000

G0 X2.11394 Y0.15960
G1 Z[-0.10000+12*0.00800]
G2 I-0.04900 J0
G1 Z[-0.10000+11*0.00800]
G2 I-0.04900 J0
G1 Z[-0.10000+10*0.00800]
G2 I-0.04900 J0
G1 Z[-0.10000+9*0.00800]
G2 I-0.04900 J0
G1 Z[-0.10000+8*0.00800]
G2 I-0.04900 J0
G1 Z[-0.10000+7*0.00800]
G2 I-0.04900 J0
G1 Z[-0.10000+6*0.00800]
G2 I-0.04900 J0
G1 Z[-0.10000+5*0.00800]
G2 I-0.04900 J0
G1 Z[-0.10000+4*0.00800]
G2 I-0.04900 J0
G1 Z[-0.10000+3*0.00800]
G2 I-0.04900 J0
G1 Z[-0.10000+2*0.00800]
G2 I-0.04900 J0
G1 Z[-0.10000+1*0.00800]
G2 I-0.04900 J0
G0 Z0.02000

G0 X0.23134 Y0.07500
G1 Z[-0.10000+12*0.00800]
G2 I-0.01650 J0
G1 Z[-0.10000+11*0.00800]
G2 I-0.01650 J0
G1 Z[-0.10000+10*0.00800]
G2 I-0.01650 J0
G1 Z[-0.10000+9*0.00800]
G2 I-0.01650 J0
G1 Z[-0.10000+8*0.00800]
G2 I-0.01650 J0
G1 Z[-0.10000+7*0.00800]
G2 I-0.01650 J0
G1 Z[-0.10000+6*0.00800]
G2 I-0.01650 J0
G1 Z[-0.10000+5*0.00800]
G2 I-0.01650 J0
G1 Z[-0.10000+4*0.00800]
G2 I-0.01650 J0
G1 Z[-0.10000+3*0.00800]
G2 I-0.01650 J0
G1 Z[-0.10000+2*0.00800]
G2 I-0.01650 J0
G1 Z[-0.10000+1*0.00800]
G2 I-0.01650 J0
G0 Z0.02000

G0 X0.23134 Y0.69510
G1 Z[-0.10000+12*0.00800]
G2 I-0.01650 J0
G1 Z[-0.10000+11*0.00800]
G2 I-0.01650 J0
G1 Z[-0.10000+10*0.00800]
G2 I-0.01650 J0
G1 Z[-0.10000+9*0.00800]
G2 I-0.01650 J0
G1 Z[-0.10000+8*0.00800]
G2 I-0.01650 J0
G1 Z[-0.10000+7*0.00800]
G2 I-0.01650 J0
G1 Z[-0.10000+6*0.00800]
G2 I-0.01650 J0
G1 Z[-0.10000+5*0.00800]
G2 I-0.01650 J0
G1 Z[-0.10000+4*0.00800]
G2 I-0.01650 J0
G1 Z[-0.10000+3*0.00800]
G2 I-0.01650 J0
G1 Z[-0.10000+2*0.00800]
G2 I-0.01650 J0
G1 Z[-0.10000+1*0.00800]
G2 I-0.01650 J0
G0 Z0.02000

G0 X2.20154 Y0.69510
G1 Z[-0.10000+12*0.00800]
G2 I-0.01650 J0
G1 Z[-0.10000+11*0.00800]
G2 I-0.01650 J0
G1 Z[-0.10000+10*0.00800]
G2 I-0.01650 J0
G1 Z[-0.10000+9*0.00800]
G2 I-0.01650 J0
G1 Z[-0.10000+8*0.00800]
G2 I-0.01650 J0
G1 Z[-0.10000+7*0.00800]
G2 I-0.01650 J0
G1 Z[-0.10000+6*0.00800]
G2 I-0.01650 J0
G1 Z[-0.10000+5*0.00800]
G2 I-0.01650 J0
G1 Z[-0.10000+4*0.00800]
G2 I-0.01650 J0
G1 Z[-0.10000+3*0.00800]
G2 I-0.01650 J0
G1 Z[-0.10000+2*0.00800]
G2 I-0.01650 J0
G1 Z[-0.10000+1*0.00800]
G2 I-0.01650 J0
G0 Z0.02000

G0 X2.20154 Y0.07500
G1 Z[-0.10000+12*0.00800]
G2 I-0.01650 J0
G1 Z[-0.10000+11*0.00800]
G2 I-0.01650 J0
G1 Z[-0.10000+10*0.00800]
G2 I-0.01650 J0
G1 Z[-0.10000+9*0.00800]
G2 I-0.01650 J0
G1 Z[-0.10000+8*0.00800]
G2 I-0.01650 J0
G1 Z[-0.10000+7*0.00800]
G2 I-0.01650 J0
G1 Z[-0.10000+6*0.00800]
G2 I-0.01650 J0
G1 Z[-0.10000+5*0.00800]
G2 I-0.01650 J0
G1 Z[-0.10000+4*0.00800]
G2 I-0.01650 J0
G1 Z[-0.10000+3*0.00800]
G2 I-0.01650 J0
G1 Z[-0.10000+2*0.00800]
G2 I-0.01650 J0
G1 Z[-0.10000+1*0.00800]
G2 I-0.01650 J0
G0 Z0.02000

G0 X0.91394 Y0.89960
G1 Z[-0.10000+12*0.00800]
G2 I-0.00400 J0
G1 Z[-0.10000+11*0.00800]
G2 I-0.00400 J0
G1 Z[-0.10000+10*0.00800]
G2 I-0.00400 J0
G1 Z[-0.10000+9*0.00800]
G2 I-0.00400 J0
G1 Z[-0.10000+8*0.00800]
G2 I-0.00400 J0
G1 Z[-0.10000+7*0.00800]
G2 I-0.00400 J0
G1 Z[-0.10000+6*0.00800]
G2 I-0.00400 J0
G1 Z[-0.10000+5*0.00800]
G2 I-0.00400 J0
G1 Z[-0.10000+4*0.00800]
G2 I-0.00400 J0
G1 Z[-0.10000+3*0.00800]
G2 I-0.00400 J0
G1 Z[-0.10000+2*0.00800]
G2 I-0.00400 J0
G1 Z[-0.10000+1*0.00800]
G2 I-0.00400 J0
G0 Z0.02000

G0 X1.01394 Y0.89960
G1 Z[-0.10000+12*0.00800]
G2 I-0.00400 J0
G1 Z[-0.10000+11*0.00800]
G2 I-0.00400 J0
G1 Z[-0.10000+10*0.00800]
G2 I-0.00400 J0
G1 Z[-0.10000+9*0.00800]
G2 I-0.00400 J0
G1 Z[-0.10000+8*0.00800]
G2 I-0.00400 J0
G1 Z[-0.10000+7*0.00800]
G2 I-0.00400 J0
G1 Z[-0.10000+6*0.00800]
G2 I-0.00400 J0
G1 Z[-0.10000+5*0.00800]
G2 I-0.00400 J0
G1 Z[-0.10000+4*0.00800]
G2 I-0.00400 J0
G1 Z[-0.10000+3*0.00800]
G2 I-0.00400 J0
G1 Z[-0.10000+2*0.00800]
G2 I-0.00400 J0
G1 Z[-0.10000+1*0.00800]
G2 I-0.00400 J0
G0 Z0.02000

G00 Z0.02000 ( All done -- retract )
M5      (Spindle off.)
M9      (Coolant off.)
M2      (Program end.)

