( pcb2gcode 1.2.2 )
( Software-independent Gcode )
      
G94 ( Inches per minute feed rate. )
G20 ( Units == INCHES. )

G90 ( Absolute coordinates. )
S10000 ( RPM spindle speed. )
G64 P0.00200 ( set maximum deviation from commanded toolpath )
F1.75000 ( Feedrate. )

F1.75000 ( Feedrate. )
M3 ( Spindle on clockwise. )
G04 P0 ( dwell for no time -- G64 should not smooth over this point )
G00 Z0.02000 ( retract )

G00 X1.74400 Y0.95530 ( rapid move to begin. )
G01 Z-0.01500 F0.87500 ( plunge. )
G04 P0 ( dwell for no time -- G64 should not smooth over this point )
F1.75000
X1.74400 Y0.95530
X1.74400 Y0.87830
X1.74500 Y0.87830
X1.74500 Y0.87730
X1.74600 Y0.87730
X1.74600 Y0.87630
X1.74700 Y0.87630
X1.74700 Y0.87530
X1.74800 Y0.87530
X1.74800 Y0.87430
X1.74900 Y0.87430
X1.74900 Y0.87330
X1.75000 Y0.87330
X1.75000 Y0.87230
X1.75100 Y0.87230
X1.75100 Y0.87130
X1.75200 Y0.87130
X1.75200 Y0.87030
X1.75300 Y0.87030
X1.75300 Y0.86930
X1.75400 Y0.86930
X1.75400 Y0.86830
X1.75500 Y0.86830
X1.75500 Y0.86730
X1.75600 Y0.86730
X1.75600 Y0.86630
X1.75700 Y0.86630
X1.75700 Y0.86530
X1.75800 Y0.86530
X1.75800 Y0.86430
X1.75900 Y0.86430
X1.75900 Y0.86330
X1.76000 Y0.86330
X1.76000 Y0.86230
X1.76100 Y0.86230
X1.76100 Y0.86130
X2.36100 Y0.86130
X2.36100 Y0.86030
X2.36200 Y0.86030
X2.36200 Y0.85930
X2.36300 Y0.85930
X2.36300 Y0.85830
X2.36400 Y0.85830
X2.36400 Y-0.08170
X2.36300 Y-0.08170
X2.36300 Y-0.08270
X2.36200 Y-0.08270
X2.36200 Y-0.08370
X2.36100 Y-0.08370
X2.36100 Y-0.08470
X0.02100 Y-0.08470
X0.02100 Y-0.08370
X0.02000 Y-0.08370
X0.02000 Y-0.08270
X0.01900 Y-0.08270
X0.01900 Y-0.08170
X0.01800 Y-0.08170
X0.01800 Y0.85830
X0.01900 Y0.85830
X0.01900 Y0.85930
X0.02000 Y0.85930
X0.02000 Y0.86030
X0.02100 Y0.86030
X0.02100 Y0.86130
X0.60100 Y0.86130
X0.60100 Y0.86230
X0.60200 Y0.86230
X0.60200 Y0.86330
X0.60300 Y0.86330
X0.60300 Y0.86430
X0.60400 Y0.86430
X0.60400 Y0.86530
X0.60500 Y0.86530
X0.60500 Y0.86630
X0.60600 Y0.86630
X0.60600 Y0.86730
X0.60700 Y0.86730
X0.60700 Y0.86830
X0.60800 Y0.86830
X0.60800 Y0.86930
X0.60900 Y0.86930
X0.60900 Y0.87030
X0.61000 Y0.87030
X0.61000 Y0.87130
X0.61100 Y0.87130
X0.61100 Y0.87230
X0.61200 Y0.87230
X0.61200 Y0.87330
X0.61300 Y0.87330
X0.61300 Y0.87430
X0.61400 Y0.87430
X0.61400 Y0.87530
X0.61500 Y0.87530
X0.61500 Y0.87630
X0.61600 Y0.87630
X0.61600 Y0.87730
X0.61700 Y0.87730
X0.61700 Y0.87830
X0.61800 Y0.87830
X0.61800 Y0.87930
X0.61900 Y0.87930
X0.61900 Y0.88030
X0.62000 Y0.88030
X0.62000 Y0.88130
X0.62100 Y0.88130
X0.62100 Y0.88230
X0.62200 Y0.88230
X0.62200 Y0.88330
X0.62300 Y0.88330
X0.62300 Y1.05330
X0.62400 Y1.05330
X0.62400 Y1.05430
X0.62500 Y1.05430
X0.62500 Y1.05530
X0.62600 Y1.05530
X0.62600 Y1.05630
X1.74100 Y1.05630
X1.74100 Y1.05530
X1.74200 Y1.05530
X1.74200 Y1.05430
X1.74300 Y1.05430
X1.74300 Y1.05330
X1.74400 Y1.05330
X1.74400 Y0.95530
G01 Z-0.05000 F0.87500 ( plunge. )
G04 P0 ( dwell for no time -- G64 should not smooth over this point )
F1.75000
X1.74400 Y0.95530
X1.74400 Y0.87830
X1.74500 Y0.87830
X1.74500 Y0.87730
X1.74600 Y0.87730
X1.74600 Y0.87630
X1.74700 Y0.87630
X1.74700 Y0.87530
X1.74800 Y0.87530
X1.74800 Y0.87430
X1.74900 Y0.87430
X1.74900 Y0.87330
X1.75000 Y0.87330
X1.75000 Y0.87230
X1.75100 Y0.87230
X1.75100 Y0.87130
X1.75200 Y0.87130
X1.75200 Y0.87030
X1.75300 Y0.87030
X1.75300 Y0.86930
X1.75400 Y0.86930
X1.75400 Y0.86830
X1.75500 Y0.86830
X1.75500 Y0.86730
X1.75600 Y0.86730
X1.75600 Y0.86630
X1.75700 Y0.86630
X1.75700 Y0.86530
X1.75800 Y0.86530
X1.75800 Y0.86430
X1.75900 Y0.86430
X1.75900 Y0.86330
X1.76000 Y0.86330
X1.76000 Y0.86230
X1.76100 Y0.86230
X1.76100 Y0.86130
X2.36100 Y0.86130
X2.36100 Y0.86030
X2.36200 Y0.86030
X2.36200 Y0.85930
X2.36300 Y0.85930
X2.36300 Y0.85830
X2.36400 Y0.85830
X2.36400 Y-0.08170
X2.36300 Y-0.08170
X2.36300 Y-0.08270
X2.36200 Y-0.08270
X2.36200 Y-0.08370
X2.36100 Y-0.08370
X2.36100 Y-0.08470
X0.02100 Y-0.08470
X0.02100 Y-0.08370
X0.02000 Y-0.08370
X0.02000 Y-0.08270
X0.01900 Y-0.08270
X0.01900 Y-0.08170
X0.01800 Y-0.08170
X0.01800 Y0.85830
X0.01900 Y0.85830
X0.01900 Y0.85930
X0.02000 Y0.85930
X0.02000 Y0.86030
X0.02100 Y0.86030
X0.02100 Y0.86130
X0.60100 Y0.86130
X0.60100 Y0.86230
X0.60200 Y0.86230
X0.60200 Y0.86330
X0.60300 Y0.86330
X0.60300 Y0.86430
X0.60400 Y0.86430
X0.60400 Y0.86530
X0.60500 Y0.86530
X0.60500 Y0.86630
X0.60600 Y0.86630
X0.60600 Y0.86730
X0.60700 Y0.86730
X0.60700 Y0.86830
X0.60800 Y0.86830
X0.60800 Y0.86930
X0.60900 Y0.86930
X0.60900 Y0.87030
X0.61000 Y0.87030
X0.61000 Y0.87130
X0.61100 Y0.87130
X0.61100 Y0.87230
X0.61200 Y0.87230
X0.61200 Y0.87330
X0.61300 Y0.87330
X0.61300 Y0.87430
X0.61400 Y0.87430
X0.61400 Y0.87530
X0.61500 Y0.87530
X0.61500 Y0.87630
X0.61600 Y0.87630
X0.61600 Y0.87730
X0.61700 Y0.87730
X0.61700 Y0.87830
X0.61800 Y0.87830
X0.61800 Y0.87930
X0.61900 Y0.87930
X0.61900 Y0.88030
X0.62000 Y0.88030
X0.62000 Y0.88130
X0.62100 Y0.88130
X0.62100 Y0.88230
X0.62200 Y0.88230
X0.62200 Y0.88330
X0.62300 Y0.88330
X0.62300 Y1.05330
X0.62400 Y1.05330
X0.62400 Y1.05430
X0.62500 Y1.05430
X0.62500 Y1.05530
X0.62600 Y1.05530
X0.62600 Y1.05630
X1.74100 Y1.05630
X1.74100 Y1.05530
X1.74200 Y1.05530
X1.74200 Y1.05430
X1.74300 Y1.05430
X1.74300 Y1.05330
X1.74400 Y1.05330
X1.74400 Y0.95530
G01 Z-0.08500 F0.87500 ( plunge. )
G04 P0 ( dwell for no time -- G64 should not smooth over this point )
F1.75000
X1.74400 Y0.95530
X1.74400 Y0.87830
X1.74500 Y0.87830
X1.74500 Y0.87730
X1.74600 Y0.87730
X1.74600 Y0.87630
X1.74700 Y0.87630
X1.74700 Y0.87530
X1.74800 Y0.87530
X1.74800 Y0.87430
X1.74900 Y0.87430
X1.74900 Y0.87330
X1.75000 Y0.87330
X1.75000 Y0.87230
X1.75100 Y0.87230
X1.75100 Y0.87130
X1.75200 Y0.87130
X1.75200 Y0.87030
X1.75300 Y0.87030
X1.75300 Y0.86930
X1.75400 Y0.86930
X1.75400 Y0.86830
X1.75500 Y0.86830
X1.75500 Y0.86730
X1.75600 Y0.86730
X1.75600 Y0.86630
X1.75700 Y0.86630
X1.75700 Y0.86530
X1.75800 Y0.86530
X1.75800 Y0.86430
X1.75900 Y0.86430
X1.75900 Y0.86330
X1.76000 Y0.86330
X1.76000 Y0.86230
X1.76100 Y0.86230
X1.76100 Y0.86130
X2.36100 Y0.86130
X2.36100 Y0.86030
X2.36200 Y0.86030
X2.36200 Y0.85930
X2.36300 Y0.85930
X2.36300 Y0.85830
X2.36400 Y0.85830
X2.36400 Y-0.08170
X2.36300 Y-0.08170
X2.36300 Y-0.08270
X2.36200 Y-0.08270
X2.36200 Y-0.08370
X2.36100 Y-0.08370
X2.36100 Y-0.08470
X0.02100 Y-0.08470
X0.02100 Y-0.08370
X0.02000 Y-0.08370
X0.02000 Y-0.08270
X0.01900 Y-0.08270
X0.01900 Y-0.08170
X0.01800 Y-0.08170
X0.01800 Y0.85830
X0.01900 Y0.85830
X0.01900 Y0.85930
X0.02000 Y0.85930
X0.02000 Y0.86030
X0.02100 Y0.86030
X0.02100 Y0.86130
X0.60100 Y0.86130
X0.60100 Y0.86230
X0.60200 Y0.86230
X0.60200 Y0.86330
X0.60300 Y0.86330
X0.60300 Y0.86430
X0.60400 Y0.86430
X0.60400 Y0.86530
X0.60500 Y0.86530
X0.60500 Y0.86630
X0.60600 Y0.86630
X0.60600 Y0.86730
X0.60700 Y0.86730
X0.60700 Y0.86830
X0.60800 Y0.86830
X0.60800 Y0.86930
X0.60900 Y0.86930
X0.60900 Y0.87030
X0.61000 Y0.87030
X0.61000 Y0.87130
X0.61100 Y0.87130
X0.61100 Y0.87230
X0.61200 Y0.87230
X0.61200 Y0.87330
X0.61300 Y0.87330
X0.61300 Y0.87430
X0.61400 Y0.87430
X0.61400 Y0.87530
X0.61500 Y0.87530
X0.61500 Y0.87630
X0.61600 Y0.87630
X0.61600 Y0.87730
X0.61700 Y0.87730
X0.61700 Y0.87830
X0.61800 Y0.87830
X0.61800 Y0.87930
X0.61900 Y0.87930
X0.61900 Y0.88030
X0.62000 Y0.88030
X0.62000 Y0.88130
X0.62100 Y0.88130
X0.62100 Y0.88230
X0.62200 Y0.88230
X0.62200 Y0.88330
X0.62300 Y0.88330
X0.62300 Y1.05330
X0.62400 Y1.05330
X0.62400 Y1.05430
X0.62500 Y1.05430
X0.62500 Y1.05530
X0.62600 Y1.05530
X0.62600 Y1.05630
X1.74100 Y1.05630
X1.74100 Y1.05530
X1.74200 Y1.05530
X1.74200 Y1.05430
X1.74300 Y1.05430
X1.74300 Y1.05330
X1.74400 Y1.05330
X1.74400 Y0.95530

G04 P0 ( dwell for no time -- G64 should not smooth over this point )
G00 Z0.02000 ( retract )

M5 ( Spindle off. )
M9 ( Coolant off. )
M2 ( Program end. )

