( pcb2gcode 1.2.2 )
( Software-independent Gcode )

G94 ( Inches per minute feed rate. )
G20 ( Units == INCHES. )

G90 ( Absolute coordinates. )
S10000 ( RPM spindle speed. )
G64 P0.00200 ( set maximum deviation from commanded toolpath )
F1.96850 ( Feedrate. )

F1.96850 ( Feedrate. )
M3 ( Spindle on clockwise. )
G04 P0 ( dwell for no time -- G64 should not smooth over this point )
G00 Z0.19685 ( retract )

G00 X0.15800 Y0.34500 ( rapid move to begin. )
F0.98425
G01 Z-0.01969
G04 P0 ( dwell for no time -- G64 should not smooth over this point )
F1.96850
X0.15800 Y0.34500
X0.15100 Y0.34000
X0.14300 Y0.32400
X0.14300 Y0.30700
X0.14500 Y0.30500
X0.14600 Y0.29800
X0.14900 Y0.29500
X0.14900 Y0.29300
X0.15800 Y0.28400
X0.16500 Y0.28100
X0.16900 Y0.28100
X0.17100 Y0.27900
X0.17800 Y0.27800
X0.18800 Y0.27900
X0.20400 Y0.28600
X0.21300 Y0.29700
X0.21300 Y0.30000
X0.21900 Y0.30300
X0.21900 Y0.32800
X0.21700 Y0.32900
X0.21500 Y0.33600
X0.21000 Y0.34000
X0.20800 Y0.34500
X0.20000 Y0.34600
X0.19700 Y0.34900
X0.19000 Y0.35000
X0.18800 Y0.35200
X0.17100 Y0.35200
X0.16900 Y0.35000
X0.16100 Y0.34800
X0.15800 Y0.34500
G04 P0 ( dwell for no time -- G64 should not smooth over this point )
G00 Z0.19685 ( retract )

G00 X0.18700 Y0.51700 ( rapid move to begin. )
F0.98425
G01 Z-0.01969
G04 P0 ( dwell for no time -- G64 should not smooth over this point )
F1.96850
X0.18700 Y0.51700
X0.18700 Y0.51400
X0.18900 Y0.51200
X0.19600 Y0.51200
X0.19800 Y0.51700
X0.20000 Y0.51800
X0.20000 Y0.52200
X0.18500 Y0.52300
X0.18700 Y0.51700
G04 P0 ( dwell for no time -- G64 should not smooth over this point )
G00 Z0.19685 ( retract )

G00 X0.17700 Y0.58200 ( rapid move to begin. )
F0.98425
G01 Z-0.01969
G04 P0 ( dwell for no time -- G64 should not smooth over this point )
F1.96850
X0.17700 Y0.58200
X0.16800 Y0.57300
X0.16200 Y0.57100
X0.16100 Y0.56700
X0.16100 Y0.54600
X0.16300 Y0.54500
X0.16500 Y0.53800
X0.17600 Y0.52700
X0.18300 Y0.52300
X0.19900 Y0.52300
X0.20000 Y0.52100
X0.20600 Y0.52100
X0.20900 Y0.52700
X0.21600 Y0.53000
X0.22400 Y0.54100
X0.25400 Y0.54000
X0.33900 Y0.45400
X0.34600 Y0.45100
X0.37300 Y0.45000
X0.38300 Y0.44000
X0.38400 Y0.43700
X0.38400 Y0.32600
X0.37300 Y0.32400
X0.36500 Y0.32000
X0.35600 Y0.31800
X0.35500 Y0.31600
X0.33600 Y0.30700
X0.32600 Y0.29700
X0.31900 Y0.29300
X0.31500 Y0.28600
X0.30500 Y0.27600
X0.30200 Y0.26800
X0.30000 Y0.26700
X0.29800 Y0.26100
X0.29400 Y0.25600
X0.28800 Y0.23800
X0.28400 Y0.21600
X0.28500 Y0.18500
X0.29500 Y0.15200
X0.30200 Y0.14300
X0.30500 Y0.13500
X0.31500 Y0.12500
X0.31900 Y0.11800
X0.32600 Y0.11400
X0.33600 Y0.10400
X0.34200 Y0.10200
X0.34300 Y0.10000
X0.34700 Y0.09900
X0.35300 Y0.09400
X0.38600 Y0.08400
X0.41700 Y0.08300
X0.43200 Y0.08500
X0.45700 Y0.09300
X0.46200 Y0.09700
X0.46800 Y0.09900
X0.46900 Y0.10100
X0.47700 Y0.10400
X0.48700 Y0.11400
X0.49400 Y0.11800
X0.49800 Y0.12500
X0.50800 Y0.13500
X0.51700 Y0.15400
X0.51900 Y0.15500
X0.52800 Y0.18500
X0.52900 Y0.19500
X0.52800 Y0.22600
X0.51900 Y0.25600
X0.51700 Y0.25700
X0.50900 Y0.27400
X0.50700 Y0.27400
X0.50400 Y0.28700
X0.49700 Y0.29400
X0.49700 Y0.29600
X0.49500 Y0.29600
X0.48700 Y0.30400
X0.47700 Y0.30600
X0.47400 Y0.30900
X0.47000 Y0.31000
X0.46900 Y0.31200
X0.46500 Y0.31300
X0.46400 Y0.31500
X0.45500 Y0.31800
X0.45100 Y0.32100
X0.43500 Y0.32600
X0.41400 Y0.32800
X0.41300 Y0.36100
X0.41400 Y0.46500
X0.41200 Y0.46400
X0.40000 Y0.46500
X0.38800 Y0.47700
X0.38500 Y0.48300
X0.35900 Y0.48300
X0.28300 Y0.56000
X0.27200 Y0.56300
X0.26600 Y0.56900
X0.22400 Y0.57000
X0.21400 Y0.58200
X0.21000 Y0.58300
X0.20900 Y0.58500
X0.20400 Y0.58500
X0.20300 Y0.58700
X0.18700 Y0.58700
X0.18500 Y0.58500
X0.18000 Y0.58500
X0.17700 Y0.58200
G04 P0 ( dwell for no time -- G64 should not smooth over this point )
G00 Z0.19685 ( retract )

G00 X0.17400 Y0.68200 ( rapid move to begin. )
F0.98425
G01 Z-0.01969
G04 P0 ( dwell for no time -- G64 should not smooth over this point )
F1.96850
X0.17400 Y0.68200
X0.16800 Y0.68200
X0.16500 Y0.67600
X0.16200 Y0.67400
X0.16100 Y0.66700
X0.16200 Y0.63900
X0.16400 Y0.63700
X0.16900 Y0.63600
X0.17300 Y0.63000
X0.18600 Y0.62400
X0.20300 Y0.62400
X0.21600 Y0.63000
X0.22300 Y0.63900
X0.22300 Y0.64200
X0.22600 Y0.64700
X0.22600 Y0.66400
X0.22100 Y0.67500
X0.21400 Y0.68200
X0.21000 Y0.68300
X0.20900 Y0.68500
X0.20400 Y0.68500
X0.20300 Y0.68700
X0.18700 Y0.68700
X0.18500 Y0.68500
X0.17400 Y0.68200
G04 P0 ( dwell for no time -- G64 should not smooth over this point )
G00 Z0.19685 ( retract )

G00 X0.17700 Y0.78200 ( rapid move to begin. )
F0.98425
G01 Z-0.01969
G04 P0 ( dwell for no time -- G64 should not smooth over this point )
F1.96850
X0.17700 Y0.78200
X0.16800 Y0.77400
X0.16300 Y0.76300
X0.16300 Y0.74700
X0.16500 Y0.74600
X0.16500 Y0.74200
X0.16900 Y0.73600
X0.16800 Y0.72800
X0.13600 Y0.69600
X0.13200 Y0.69400
X0.13100 Y0.68800
X0.12800 Y0.68500
X0.12600 Y0.68500
X0.12600 Y0.53600
X0.12800 Y0.53600
X0.13100 Y0.53300
X0.13400 Y0.52400
X0.17400 Y0.48400
X0.18100 Y0.48100
X0.19200 Y0.48100
X0.19700 Y0.47700
X0.20300 Y0.47600
X0.21000 Y0.47200
X0.21000 Y0.34600
X0.20800 Y0.34500
X0.20800 Y0.34300
X0.21500 Y0.33600
X0.21500 Y0.33300
X0.21900 Y0.32800
X0.21900 Y0.30300
X0.22100 Y0.30300
X0.22500 Y0.29900
X0.22500 Y0.28400
X0.22300 Y0.27900
X0.19900 Y0.25600
X0.19000 Y0.25300
X0.15400 Y0.25300
X0.14400 Y0.25000
X0.14200 Y0.24100
X0.14200 Y0.18900
X0.14400 Y0.18000
X0.15100 Y0.17800
X0.20800 Y0.17800
X0.21500 Y0.18000
X0.21700 Y0.18700
X0.21700 Y0.22600
X0.22000 Y0.23500
X0.25000 Y0.26400
X0.25400 Y0.27200
X0.25400 Y0.34400
X0.25200 Y0.34600
X0.25200 Y0.34900
X0.24100 Y0.35900
X0.23900 Y0.36400
X0.23900 Y0.48400
X0.23700 Y0.48600
X0.23700 Y0.48900
X0.23200 Y0.49400
X0.23100 Y0.50000
X0.22900 Y0.50200
X0.22900 Y0.50700
X0.22000 Y0.51500
X0.20800 Y0.51700
X0.20600 Y0.52100
X0.20000 Y0.52100
X0.20000 Y0.51800
X0.19800 Y0.51700
X0.19600 Y0.51200
X0.18900 Y0.51200
X0.18700 Y0.51400
X0.18500 Y0.52300
X0.17600 Y0.52700
X0.16500 Y0.53800
X0.16500 Y0.54100
X0.16100 Y0.54600
X0.16200 Y0.57100
X0.15900 Y0.57200
X0.15900 Y0.63700
X0.16200 Y0.63900
X0.16100 Y0.64400
X0.16200 Y0.67400
X0.16900 Y0.68200
X0.17200 Y0.69400
X0.17500 Y0.69400
X0.20600 Y0.72600
X0.20900 Y0.72600
X0.21000 Y0.72800
X0.21600 Y0.73000
X0.22300 Y0.73900
X0.22300 Y0.74200
X0.22600 Y0.74700
X0.22500 Y0.76700
X0.22100 Y0.77500
X0.21400 Y0.78200
X0.21000 Y0.78300
X0.20900 Y0.78500
X0.20400 Y0.78500
X0.20300 Y0.78700
X0.18700 Y0.78700
X0.18500 Y0.78500
X0.18000 Y0.78500
X0.17700 Y0.78200
G04 P0 ( dwell for no time -- G64 should not smooth over this point )
G00 Z0.19685 ( retract )

G00 X0.27100 Y0.83200 ( rapid move to begin. )
F0.98425
G01 Z-0.01969
G04 P0 ( dwell for no time -- G64 should not smooth over this point )
F1.96850
X0.27100 Y0.83200
X0.26400 Y0.82600
X0.25800 Y0.81300
X0.25900 Y0.79300
X0.26100 Y0.79200
X0.26200 Y0.78800
X0.26400 Y0.78700
X0.26500 Y0.78300
X0.26900 Y0.78000
X0.26900 Y0.77800
X0.27900 Y0.77100
X0.29200 Y0.76800
X0.30700 Y0.77000
X0.31700 Y0.77500
X0.32700 Y0.78600
X0.33100 Y0.79700
X0.33200 Y0.80800
X0.32700 Y0.82500
X0.31700 Y0.83500
X0.30300 Y0.84200
X0.28300 Y0.84100
X0.27400 Y0.83600
X0.27100 Y0.83200
G04 P0 ( dwell for no time -- G64 should not smooth over this point )
G00 Z0.19685 ( retract )

G00 X0.27100 Y0.93200 ( rapid move to begin. )
F0.98425
G01 Z-0.01969
G04 P0 ( dwell for no time -- G64 should not smooth over this point )
F1.96850
X0.27100 Y0.93200
X0.26400 Y0.92600
X0.25800 Y0.91300
X0.25900 Y0.89300
X0.26100 Y0.89200
X0.26200 Y0.88800
X0.26400 Y0.88700
X0.26500 Y0.88300
X0.26900 Y0.88000
X0.26900 Y0.87800
X0.27900 Y0.87100
X0.29200 Y0.86800
X0.30700 Y0.87000
X0.31700 Y0.87500
X0.32700 Y0.88600
X0.33100 Y0.89700
X0.33200 Y0.90800
X0.32700 Y0.92500
X0.31700 Y0.93500
X0.30300 Y0.94200
X0.28300 Y0.94100
X0.27400 Y0.93600
X0.27100 Y0.93200
G04 P0 ( dwell for no time -- G64 should not smooth over this point )
G00 Z0.19685 ( retract )

G00 X0.27100 Y0.73200 ( rapid move to begin. )
F0.98425
G01 Z-0.01969
G04 P0 ( dwell for no time -- G64 should not smooth over this point )
F1.96850
X0.27100 Y0.73200
X0.26400 Y0.72600
X0.25800 Y0.71300
X0.25900 Y0.69300
X0.26400 Y0.68700
X0.26500 Y0.68300
X0.26900 Y0.68000
X0.26900 Y0.67800
X0.27900 Y0.67100
X0.29200 Y0.66800
X0.30700 Y0.67000
X0.31700 Y0.67500
X0.32700 Y0.68600
X0.33100 Y0.69700
X0.33200 Y0.70800
X0.32700 Y0.72500
X0.31700 Y0.73500
X0.30300 Y0.74200
X0.28300 Y0.74100
X0.27400 Y0.73600
X0.27100 Y0.73200
G04 P0 ( dwell for no time -- G64 should not smooth over this point )
G00 Z0.19685 ( retract )

G00 X0.27700 Y0.63200 ( rapid move to begin. )
F0.98425
G01 Z-0.01969
G04 P0 ( dwell for no time -- G64 should not smooth over this point )
F1.96850
X0.27700 Y0.63200
X0.26700 Y0.62300
X0.26500 Y0.61900
X0.26500 Y0.61500
X0.26300 Y0.61300
X0.26300 Y0.59700
X0.26500 Y0.59600
X0.26500 Y0.59200
X0.26800 Y0.58600
X0.27200 Y0.58300
X0.27200 Y0.58100
X0.27900 Y0.57800
X0.28300 Y0.55900
X0.35900 Y0.48300
X0.38500 Y0.48300
X0.38600 Y0.48500
X0.39700 Y0.48500
X0.40000 Y0.48400
X0.41100 Y0.47300
X0.41200 Y0.46700
X0.41400 Y0.46500
X0.41400 Y0.37100
X0.42900 Y0.37000
X0.48500 Y0.31400
X0.48700 Y0.30300
X0.49000 Y0.30000
X0.49200 Y0.30000
X0.49500 Y0.29600
X0.49700 Y0.29600
X0.49700 Y0.29400
X0.50100 Y0.29100
X0.50300 Y0.28700
X0.50800 Y0.28700
X0.51700 Y0.28400
X0.51700 Y0.28100
X0.56800 Y0.23100
X0.56900 Y0.22600
X0.56700 Y0.21600
X0.56700 Y0.19500
X0.57100 Y0.17200
X0.57500 Y0.16400
X0.57700 Y0.15500
X0.57900 Y0.15400
X0.58800 Y0.13500
X0.59800 Y0.12500
X0.60200 Y0.11800
X0.60900 Y0.11400
X0.61900 Y0.10400
X0.62700 Y0.10100
X0.62800 Y0.09900
X0.63400 Y0.09700
X0.63900 Y0.09300
X0.66400 Y0.08500
X0.67900 Y0.08300
X0.70000 Y0.08300
X0.72400 Y0.08700
X0.72600 Y0.08900
X0.74500 Y0.09500
X0.75400 Y0.10200
X0.76000 Y0.10400
X0.77000 Y0.11400
X0.77700 Y0.11800
X0.78100 Y0.12500
X0.79100 Y0.13500
X0.79300 Y0.14100
X0.79500 Y0.14200
X0.79600 Y0.14600
X0.80100 Y0.15200
X0.80200 Y0.15800
X0.80400 Y0.16000
X0.80800 Y0.17200
X0.81200 Y0.19500
X0.81100 Y0.22600
X0.80200 Y0.25600
X0.79800 Y0.26100
X0.79600 Y0.26700
X0.79400 Y0.26800
X0.79100 Y0.27600
X0.78100 Y0.28600
X0.77700 Y0.29300
X0.77000 Y0.29700
X0.76000 Y0.30700
X0.74100 Y0.31600
X0.74000 Y0.31800
X0.73100 Y0.32000
X0.72600 Y0.32300
X0.70000 Y0.32800
X0.67000 Y0.32700
X0.66700 Y0.32500
X0.65700 Y0.32400
X0.64900 Y0.32000
X0.63900 Y0.31800
X0.63800 Y0.31600
X0.61900 Y0.30700
X0.60900 Y0.29700
X0.60200 Y0.29300
X0.59800 Y0.28600
X0.58800 Y0.27600
X0.58300 Y0.26500
X0.57900 Y0.26400
X0.57400 Y0.26600
X0.54100 Y0.29900
X0.54100 Y0.30100
X0.44500 Y0.39600
X0.44400 Y0.47900
X0.44200 Y0.48100
X0.44200 Y0.48400
X0.41100 Y0.51400
X0.37500 Y0.51600
X0.31700 Y0.57400
X0.31600 Y0.57700
X0.31700 Y0.58200
X0.32300 Y0.58900
X0.32300 Y0.59200
X0.32600 Y0.59700
X0.32600 Y0.61400
X0.32300 Y0.61900
X0.32300 Y0.62200
X0.31400 Y0.63200
X0.31000 Y0.63300
X0.30900 Y0.63500
X0.30400 Y0.63500
X0.30300 Y0.63700
X0.28700 Y0.63700
X0.28500 Y0.63500
X0.28000 Y0.63500
X0.27700 Y0.63200
G04 P0 ( dwell for no time -- G64 should not smooth over this point )
G00 Z0.19685 ( retract )

G00 X0.38700 Y0.48000 ( rapid move to begin. )
F0.98425
G01 Z-0.01969
G04 P0 ( dwell for no time -- G64 should not smooth over this point )
F1.96850
X0.38700 Y0.48000
X0.38800 Y0.47700
X0.40000 Y0.46500
X0.40300 Y0.46400
X0.41300 Y0.46500
X0.41100 Y0.47300
X0.40000 Y0.48400
X0.38600 Y0.48500
X0.38500 Y0.48200
X0.38700 Y0.48000
G04 P0 ( dwell for no time -- G64 should not smooth over this point )
G00 Z0.19685 ( retract )

G00 X0.41300 Y0.36600 ( rapid move to begin. )
F0.98425
G01 Z-0.01969
G04 P0 ( dwell for no time -- G64 should not smooth over this point )
F1.96850
X0.41300 Y0.36600
X0.41400 Y0.32800
X0.42400 Y0.32800
X0.42800 Y0.32600
X0.43900 Y0.32500
X0.45100 Y0.32100
X0.45500 Y0.31800
X0.45800 Y0.31800
X0.47700 Y0.30600
X0.48700 Y0.30400
X0.48500 Y0.31400
X0.42900 Y0.37000
X0.41300 Y0.37100
X0.41300 Y0.36600
G04 P0 ( dwell for no time -- G64 should not smooth over this point )
G00 Z0.19685 ( retract )

G00 X0.62300 Y0.67400 ( rapid move to begin. )
F0.98425
G01 Z-0.01969
G04 P0 ( dwell for no time -- G64 should not smooth over this point )
F1.96850
X0.62300 Y0.67400
X0.62200 Y0.51900
X0.62700 Y0.51900
X0.62700 Y0.52100
X0.81900 Y0.52000
X0.82500 Y0.52300
X0.82700 Y0.52800
X0.82700 Y0.67600
X0.82200 Y0.68300
X0.62900 Y0.68400
X0.62300 Y0.67800
X0.62300 Y0.67400
G04 P0 ( dwell for no time -- G64 should not smooth over this point )
G00 Z0.19685 ( retract )

G00 X0.62300 Y0.89200 ( rapid move to begin. )
F0.98425
G01 Z-0.01969
G04 P0 ( dwell for no time -- G64 should not smooth over this point )
F1.96850
X0.62300 Y0.89200
X0.62300 Y0.74400
X0.62700 Y0.73900
X0.81900 Y0.73800
X0.82500 Y0.74100
X0.82700 Y0.74600
X0.82700 Y0.89400
X0.82200 Y0.90100
X0.62900 Y0.90200
X0.62300 Y0.89600
X0.62300 Y0.89200
G04 P0 ( dwell for no time -- G64 should not smooth over this point )
G00 Z0.19685 ( retract )

G00 X0.68200 Y1.08900 ( rapid move to begin. )
F0.98425
G01 Z-0.01969
G04 P0 ( dwell for no time -- G64 should not smooth over this point )
F1.96850
X0.68200 Y1.08900
X0.01300 Y1.09000
X0.01000 Y1.08700
X0.01000 Y0.89400
X0.03300 Y0.87100
X0.11800 Y0.87100
X0.12500 Y0.86400
X0.12600 Y0.68500
X0.12800 Y0.68500
X0.13100 Y0.68800
X0.13200 Y0.69400
X0.13600 Y0.69600
X0.16800 Y0.72800
X0.16900 Y0.73600
X0.16500 Y0.74200
X0.16500 Y0.74600
X0.16300 Y0.74700
X0.16300 Y0.76300
X0.16800 Y0.77400
X0.17700 Y0.78300
X0.17900 Y0.78300
X0.18000 Y0.78500
X0.18500 Y0.78500
X0.18700 Y0.78700
X0.20300 Y0.78700
X0.20400 Y0.78500
X0.20900 Y0.78500
X0.22100 Y0.77500
X0.22600 Y0.76400
X0.22600 Y0.74700
X0.21900 Y0.73300
X0.21600 Y0.73000
X0.21000 Y0.72800
X0.20900 Y0.72600
X0.20600 Y0.72600
X0.17500 Y0.69400
X0.17200 Y0.69400
X0.16900 Y0.68500
X0.16900 Y0.68200
X0.17400 Y0.68200
X0.18500 Y0.68500
X0.18700 Y0.68700
X0.20300 Y0.68700
X0.20400 Y0.68500
X0.20900 Y0.68500
X0.21000 Y0.68300
X0.21400 Y0.68200
X0.22100 Y0.67500
X0.22600 Y0.66400
X0.22500 Y0.64400
X0.22300 Y0.64200
X0.22300 Y0.63900
X0.21600 Y0.63000
X0.20300 Y0.62400
X0.18600 Y0.62400
X0.17300 Y0.63000
X0.16900 Y0.63600
X0.16400 Y0.63700
X0.16300 Y0.63900
X0.15900 Y0.63700
X0.15900 Y0.57200
X0.16400 Y0.57100
X0.16500 Y0.57300
X0.16800 Y0.57300
X0.18000 Y0.58500
X0.18500 Y0.58500
X0.18700 Y0.58700
X0.20300 Y0.58700
X0.20400 Y0.58500
X0.20900 Y0.58500
X0.21000 Y0.58300
X0.21400 Y0.58200
X0.22400 Y0.57000
X0.26200 Y0.57000
X0.26800 Y0.56800
X0.27400 Y0.56200
X0.28300 Y0.56000
X0.27900 Y0.57800
X0.27200 Y0.58100
X0.27200 Y0.58300
X0.26800 Y0.58600
X0.26500 Y0.59200
X0.26500 Y0.59600
X0.26300 Y0.59700
X0.26300 Y0.61300
X0.26500 Y0.61500
X0.26500 Y0.61900
X0.26700 Y0.62300
X0.28000 Y0.63500
X0.28500 Y0.63500
X0.28700 Y0.63700
X0.30300 Y0.63700
X0.30400 Y0.63500
X0.30900 Y0.63500
X0.32100 Y0.62500
X0.32600 Y0.61400
X0.32600 Y0.59700
X0.32300 Y0.59200
X0.32300 Y0.58900
X0.31700 Y0.58200
X0.31600 Y0.57900
X0.31700 Y0.57400
X0.37500 Y0.51600
X0.41100 Y0.51400
X0.44200 Y0.48400
X0.44200 Y0.48100
X0.44400 Y0.47900
X0.44500 Y0.39600
X0.54100 Y0.30100
X0.54100 Y0.29900
X0.57400 Y0.26600
X0.57900 Y0.26400
X0.58300 Y0.26500
X0.58800 Y0.27600
X0.59800 Y0.28600
X0.60200 Y0.29300
X0.60900 Y0.29700
X0.61900 Y0.30700
X0.63800 Y0.31600
X0.63900 Y0.31800
X0.64900 Y0.32000
X0.65700 Y0.32400
X0.66700 Y0.32500
X0.67000 Y0.32700
X0.67900 Y0.32800
X0.71000 Y0.32700
X0.74000 Y0.31800
X0.74100 Y0.31600
X0.76000 Y0.30700
X0.77000 Y0.29700
X0.77700 Y0.29300
X0.78100 Y0.28600
X0.79100 Y0.27600
X0.79400 Y0.26800
X0.79600 Y0.26700
X0.79800 Y0.26100
X0.80000 Y0.26000
X0.81000 Y0.23100
X0.81200 Y0.21600
X0.81200 Y0.19500
X0.80800 Y0.17200
X0.80000 Y0.15000
X0.79600 Y0.14600
X0.79100 Y0.13500
X0.78100 Y0.12500
X0.77700 Y0.11800
X0.77000 Y0.11400
X0.76000 Y0.10400
X0.75400 Y0.10200
X0.74500 Y0.09500
X0.71800 Y0.08500
X0.70000 Y0.08300
X0.66900 Y0.08400
X0.63900 Y0.09300
X0.63400 Y0.09700
X0.62800 Y0.09900
X0.62700 Y0.10100
X0.61900 Y0.10400
X0.60900 Y0.11400
X0.60200 Y0.11800
X0.59800 Y0.12500
X0.58800 Y0.13500
X0.57900 Y0.15400
X0.57700 Y0.15500
X0.56900 Y0.18000
X0.56700 Y0.19500
X0.56700 Y0.21600
X0.56900 Y0.22600
X0.56800 Y0.23100
X0.51700 Y0.28100
X0.51700 Y0.28400
X0.50400 Y0.28700
X0.50700 Y0.27400
X0.50900 Y0.27400
X0.51700 Y0.25700
X0.51900 Y0.25600
X0.52100 Y0.24600
X0.52300 Y0.24400
X0.52500 Y0.23400
X0.52700 Y0.23100
X0.52900 Y0.21600
X0.52900 Y0.19500
X0.52500 Y0.17200
X0.52100 Y0.16400
X0.51900 Y0.15500
X0.51700 Y0.15400
X0.50800 Y0.13500
X0.49800 Y0.12500
X0.49400 Y0.11800
X0.48700 Y0.11400
X0.47700 Y0.10400
X0.46900 Y0.10100
X0.46800 Y0.09900
X0.46200 Y0.09700
X0.45700 Y0.09300
X0.44800 Y0.09100
X0.44000 Y0.08700
X0.41700 Y0.08300
X0.39600 Y0.08300
X0.37300 Y0.08700
X0.35100 Y0.09500
X0.34200 Y0.10200
X0.33600 Y0.10400
X0.32600 Y0.11400
X0.31900 Y0.11800
X0.31500 Y0.12500
X0.30500 Y0.13500
X0.30200 Y0.14300
X0.29600 Y0.15000
X0.28800 Y0.17200
X0.28500 Y0.18500
X0.28400 Y0.21600
X0.28500 Y0.22600
X0.29400 Y0.25600
X0.29800 Y0.26100
X0.30000 Y0.26700
X0.30200 Y0.26800
X0.30500 Y0.27600
X0.31500 Y0.28600
X0.31900 Y0.29300
X0.32600 Y0.29700
X0.33600 Y0.30700
X0.35500 Y0.31600
X0.35600 Y0.31800
X0.36500 Y0.32000
X0.37300 Y0.32400
X0.38400 Y0.32600
X0.38400 Y0.43700
X0.38300 Y0.44000
X0.37300 Y0.45000
X0.34600 Y0.45100
X0.33900 Y0.45400
X0.25400 Y0.54000
X0.22400 Y0.54100
X0.21600 Y0.53000
X0.20900 Y0.52700
X0.20900 Y0.52500
X0.20600 Y0.52200
X0.20600 Y0.51900
X0.20800 Y0.51700
X0.22200 Y0.51400
X0.22900 Y0.50700
X0.22900 Y0.50200
X0.23100 Y0.50000
X0.23200 Y0.49400
X0.23700 Y0.48900
X0.23700 Y0.48600
X0.23900 Y0.48400
X0.23900 Y0.36400
X0.24100 Y0.35900
X0.25200 Y0.34900
X0.25200 Y0.34600
X0.25400 Y0.34400
X0.25400 Y0.27200
X0.25000 Y0.26400
X0.22000 Y0.23500
X0.21700 Y0.22600
X0.21700 Y0.18700
X0.21500 Y0.18000
X0.20800 Y0.17800
X0.15100 Y0.17800
X0.14400 Y0.18000
X0.14200 Y0.18900
X0.14200 Y0.24100
X0.14400 Y0.25000
X0.15400 Y0.25300
X0.19000 Y0.25300
X0.20100 Y0.25700
X0.22300 Y0.27900
X0.22500 Y0.28400
X0.22500 Y0.29900
X0.22100 Y0.30300
X0.21700 Y0.30300
X0.21300 Y0.30000
X0.21300 Y0.29700
X0.20400 Y0.28600
X0.19700 Y0.28200
X0.18100 Y0.27800
X0.17100 Y0.27900
X0.16900 Y0.28100
X0.16500 Y0.28100
X0.15800 Y0.28400
X0.14600 Y0.29800
X0.14600 Y0.30200
X0.14300 Y0.30700
X0.14300 Y0.32400
X0.14500 Y0.32600
X0.14700 Y0.33400
X0.15500 Y0.34400
X0.17100 Y0.35200
X0.18800 Y0.35200
X0.19000 Y0.35000
X0.19700 Y0.34900
X0.20000 Y0.34600
X0.20500 Y0.34500
X0.21000 Y0.34600
X0.21000 Y0.47200
X0.20300 Y0.47600
X0.19900 Y0.47600
X0.19200 Y0.48100
X0.18100 Y0.48100
X0.17400 Y0.48400
X0.13400 Y0.52400
X0.13100 Y0.53300
X0.12800 Y0.53600
X0.12600 Y0.53600
X0.12500 Y0.17400
X0.14800 Y0.15100
X0.22300 Y0.15100
X0.23000 Y0.14400
X0.23000 Y0.04900
X0.25300 Y0.02600
X0.86100 Y0.02600
X0.86400 Y0.02900
X0.86400 Y1.08700
X0.86100 Y1.09000
X0.68200 Y1.08900
G04 P0 ( dwell for no time -- G64 should not smooth over this point )
G00 Z0.19685 ( retract )

G00 X0.03700 Y1.06500 ( rapid move to begin. )
F0.98425
G01 Z-0.01969
G04 P0 ( dwell for no time -- G64 should not smooth over this point )
F1.96850
X0.03700 Y1.06500
X0.03200 Y1.05900
X0.02900 Y1.04900
X0.02900 Y1.02200
X0.03200 Y1.01100
X0.04300 Y0.99900
X0.05600 Y0.99500
X0.08300 Y0.99500
X0.09600 Y0.99900
X0.10400 Y1.00600
X0.10400 Y1.00800
X0.10800 Y1.01200
X0.11000 Y1.02200
X0.11000 Y1.04900
X0.10600 Y1.06200
X0.09700 Y1.07100
X0.09500 Y1.07100
X0.09200 Y1.07400
X0.08300 Y1.07600
X0.05600 Y1.07600
X0.04600 Y1.07300
X0.03700 Y1.06500
G04 P0 ( dwell for no time -- G64 should not smooth over this point )
G00 Z0.19685 ( retract )

G00 X0.02900 Y0.96500 ( rapid move to begin. )
F0.98425
G01 Z-0.01969
G04 P0 ( dwell for no time -- G64 should not smooth over this point )
F1.96850
X0.02900 Y0.96500
X0.02900 Y0.89500
X0.11000 Y0.89500
X0.10900 Y0.97600
X0.03000 Y0.97600
X0.02900 Y0.96500

G04 P0 ( dwell for no time -- G64 should not smooth over this point )
G00 Z0.197 ( retract )

M5 ( Spindle off. )
M9 ( Coolant off. )
M2 ( Program end. )

