( pcb2gcode 1.2.2 )
( Software-independent Gcode )
      
G94 ( Inches per minute feed rate. )
G20 ( Units == INCHES. )

G90 ( Absolute coordinates. )
S10000 ( RPM spindle speed. )
G64 P0.00200 ( set maximum deviation from commanded toolpath )
F1.96850 ( Feedrate. )

F1.96850 ( Feedrate. )
M3 ( Spindle on clockwise. )
G04 P0 ( dwell for no time -- G64 should not smooth over this point )
G00 Z0.19685 ( retract )

G00 X0.06200 Y0.30600 ( rapid move to begin. )
F0.98425
G01 Z-0.01969
G04 P0 ( dwell for no time -- G64 should not smooth over this point )
F1.96850
X0.06200 Y0.30600
X0.06300 Y0.30600
X0.06300 Y0.30500
X0.06400 Y0.30500
X0.06400 Y0.30400
X0.06500 Y0.30400
X0.06500 Y0.30300
X0.06600 Y0.30300
X0.06600 Y0.30200
X0.06700 Y0.30200
X0.06700 Y0.30100
X0.06800 Y0.30100
X0.06800 Y0.30000
X0.06900 Y0.30000
X0.06900 Y0.29900
X0.07000 Y0.29900
X0.07000 Y0.29800
X0.07100 Y0.29800
X0.07100 Y0.29700
X0.07200 Y0.29700
X0.07200 Y0.29600
X0.07300 Y0.29600
X0.07300 Y0.29500
X0.07400 Y0.29500
X0.07400 Y0.29400
X0.07500 Y0.29400
X0.07500 Y0.29300
X0.07600 Y0.29300
X0.07600 Y0.29200
X0.07700 Y0.29200
X0.07700 Y0.29100
X0.07800 Y0.29100
X0.07800 Y0.29000
X0.07900 Y0.29000
X0.07900 Y0.28900
X0.08000 Y0.28900
X0.08000 Y0.28800
X0.08100 Y0.28800
X0.08100 Y0.28700
X0.08200 Y0.28700
X0.08200 Y0.28600
X0.08300 Y0.28600
X0.08300 Y0.28500
X0.08400 Y0.28500
X0.08400 Y0.28400
X0.08500 Y0.28400
X0.08500 Y0.28200
X0.08600 Y0.28200
X0.08600 Y0.27900
X0.08500 Y0.27900
X0.08500 Y0.27600
X0.08400 Y0.27600
X0.08400 Y0.27500
X0.08300 Y0.27500
X0.08300 Y0.27300
X0.08200 Y0.27300
X0.08200 Y0.27200
X0.08100 Y0.27200
X0.08100 Y0.27000
X0.08000 Y0.27000
X0.08000 Y0.26900
X0.07900 Y0.26900
X0.07900 Y0.26700
X0.07800 Y0.26700
X0.07800 Y0.26500
X0.07700 Y0.26500
X0.07700 Y0.26400
X0.07600 Y0.26400
X0.07600 Y0.26200
X0.07500 Y0.26200
X0.07500 Y0.26000
X0.07400 Y0.26000
X0.07400 Y0.25800
X0.07300 Y0.25800
X0.07300 Y0.25600
X0.07200 Y0.25600
X0.07200 Y0.25300
X0.07100 Y0.25300
X0.07100 Y0.25100
X0.07000 Y0.25100
X0.07000 Y0.24700
X0.06900 Y0.24700
X0.06900 Y0.24400
X0.06800 Y0.24400
X0.06800 Y0.24100
X0.06700 Y0.24100
X0.06700 Y0.23800
X0.06600 Y0.23800
X0.06600 Y0.23400
X0.06500 Y0.23400
X0.06500 Y0.22700
X0.06400 Y0.22700
X0.06400 Y0.22300
X0.06300 Y0.22300
X0.06300 Y0.21600
X0.06200 Y0.21600
X0.06200 Y0.19500
X0.06300 Y0.19500
X0.06300 Y0.18800
X0.06400 Y0.18800
X0.06400 Y0.18400
X0.06500 Y0.18400
X0.06500 Y0.17700
X0.06600 Y0.17700
X0.06600 Y0.17300
X0.06700 Y0.17300
X0.06700 Y0.17000
X0.06800 Y0.17000
X0.06800 Y0.16700
X0.06900 Y0.16700
X0.06900 Y0.16400
X0.07000 Y0.16400
X0.07000 Y0.16000
X0.07100 Y0.16000
X0.07100 Y0.15700
X0.07200 Y0.15700
X0.07200 Y0.15400
X0.07300 Y0.15400
X0.07300 Y0.15300
X0.07400 Y0.15300
X0.07400 Y0.15100
X0.07500 Y0.15100
X0.07500 Y0.14900
X0.07600 Y0.14900
X0.07600 Y0.14700
X0.07700 Y0.14700
X0.07700 Y0.14500
X0.07800 Y0.14500
X0.07800 Y0.14300
X0.07900 Y0.14300
X0.07900 Y0.14200
X0.08000 Y0.14200
X0.08000 Y0.14000
X0.08100 Y0.14000
X0.08100 Y0.13800
X0.08200 Y0.13800
X0.08200 Y0.13700
X0.08300 Y0.13700
X0.08300 Y0.13500
X0.08400 Y0.13500
X0.08400 Y0.13400
X0.08500 Y0.13400
X0.08500 Y0.13200
X0.08600 Y0.13200
X0.08600 Y0.13100
X0.08700 Y0.13100
X0.08700 Y0.13000
X0.08800 Y0.13000
X0.08800 Y0.12900
X0.08900 Y0.12900
X0.08900 Y0.12800
X0.09000 Y0.12800
X0.09000 Y0.12700
X0.09100 Y0.12700
X0.09100 Y0.12500
X0.09200 Y0.12500
X0.09200 Y0.12400
X0.09300 Y0.12400
X0.09300 Y0.12300
X0.09400 Y0.12300
X0.09400 Y0.12200
X0.09500 Y0.12200
X0.09500 Y0.12100
X0.09600 Y0.12100
X0.09600 Y0.12000
X0.09700 Y0.12000
X0.09700 Y0.11900
X0.09800 Y0.11900
X0.09800 Y0.11800
X0.09900 Y0.11800
X0.09900 Y0.11700
X0.10000 Y0.11700
X0.10000 Y0.11600
X0.10100 Y0.11600
X0.10100 Y0.11500
X0.10200 Y0.11500
X0.10200 Y0.11400
X0.10300 Y0.11400
X0.10300 Y0.11300
X0.10400 Y0.11300
X0.10400 Y0.11200
X0.10500 Y0.11200
X0.10500 Y0.11100
X0.10700 Y0.11100
X0.10700 Y0.11000
X0.10800 Y0.11000
X0.10800 Y0.10900
X0.10900 Y0.10900
X0.10900 Y0.10800
X0.11000 Y0.10800
X0.11000 Y0.10700
X0.11100 Y0.10700
X0.11100 Y0.10600
X0.11200 Y0.10600
X0.11200 Y0.10500
X0.11400 Y0.10500
X0.11400 Y0.10400
X0.11500 Y0.10400
X0.11500 Y0.10300
X0.11700 Y0.10300
X0.11700 Y0.10200
X0.11800 Y0.10200
X0.11800 Y0.10100
X0.12000 Y0.10100
X0.12000 Y0.10000
X0.12200 Y0.10000
X0.12200 Y0.09900
X0.12300 Y0.09900
X0.12300 Y0.09800
X0.12500 Y0.09800
X0.12500 Y0.09700
X0.12700 Y0.09700
X0.12700 Y0.09600
X0.12900 Y0.09600
X0.12900 Y0.09500
X0.13100 Y0.09500
X0.13100 Y0.09400
X0.13300 Y0.09400
X0.13300 Y0.09300
X0.13400 Y0.09300
X0.13400 Y0.09200
X0.13700 Y0.09200
X0.13700 Y0.09100
X0.14000 Y0.09100
X0.14000 Y0.09000
X0.14400 Y0.09000
X0.14400 Y0.08800
X0.14500 Y0.08800
X0.14500 Y0.08600
X0.14600 Y0.08600
X0.14600 Y0.08500
X0.14700 Y0.08500
X0.14700 Y0.08300
X0.14600 Y0.08300
X0.14600 Y0.08200
X0.14500 Y0.08200
X0.14500 Y0.08100
X0.08300 Y0.08100
X0.08300 Y0.08200
X0.08000 Y0.08200
X0.08000 Y0.08300
X0.07900 Y0.08300
X0.07900 Y0.08400
X0.07800 Y0.08400
X0.07800 Y0.08500
X0.07700 Y0.08500
X0.07700 Y0.08600
X0.07600 Y0.08600
X0.07600 Y0.08700
X0.07500 Y0.08700
X0.07500 Y0.08800
X0.07400 Y0.08800
X0.07400 Y0.08900
X0.07300 Y0.08900
X0.07300 Y0.09000
X0.07200 Y0.09000
X0.07200 Y0.09100
X0.07100 Y0.09100
X0.07100 Y0.09200
X0.07000 Y0.09200
X0.07000 Y0.09300
X0.06900 Y0.09300
X0.06900 Y0.09400
X0.06800 Y0.09400
X0.06800 Y0.09500
X0.06700 Y0.09500
X0.06700 Y0.09600
X0.06600 Y0.09600
X0.06600 Y0.09700
X0.06500 Y0.09700
X0.06500 Y0.09800
X0.06400 Y0.09800
X0.06400 Y0.09900
X0.06300 Y0.09900
X0.06300 Y0.10000
X0.06200 Y0.10000
X0.06200 Y0.10100
X0.06100 Y0.10100
X0.06100 Y0.10200
X0.06000 Y0.10200
X0.06000 Y0.10300
X0.05900 Y0.10300
X0.05900 Y0.10400
X0.05800 Y0.10400
X0.05800 Y0.10500
X0.05700 Y0.10500
X0.05700 Y0.10600
X0.05600 Y0.10600
X0.05600 Y0.10700
X0.05500 Y0.10700
X0.05500 Y0.10800
X0.05400 Y0.10800
X0.05400 Y0.10900
X0.05300 Y0.10900
X0.05300 Y0.11000
X0.05200 Y0.11000
X0.05200 Y0.11300
X0.05100 Y0.11300
X0.05100 Y0.31200
X0.05200 Y0.31200
X0.05200 Y0.31300
X0.05400 Y0.31300
X0.05400 Y0.31200
X0.05600 Y0.31200
X0.05600 Y0.31100
X0.05800 Y0.31100
X0.05800 Y0.31000
X0.06000 Y0.31000
X0.06000 Y0.30800
X0.06100 Y0.30800
X0.06100 Y0.30700
X0.06200 Y0.30700
X0.06200 Y0.30600
G04 P0 ( dwell for no time -- G64 should not smooth over this point )
G00 Z0.19685 ( retract )

G00 X0.39000 Y0.38100 ( rapid move to begin. )
F0.98425
G01 Z-0.01969
G04 P0 ( dwell for no time -- G64 should not smooth over this point )
F1.96850
X0.39000 Y0.38100
X0.39000 Y0.30100
X0.38900 Y0.30100
X0.38900 Y0.29900
X0.38800 Y0.29900
X0.38800 Y0.29800
X0.38700 Y0.29800
X0.38700 Y0.29700
X0.38600 Y0.29700
X0.38600 Y0.29600
X0.38400 Y0.29600
X0.38400 Y0.29500
X0.38300 Y0.29500
X0.38300 Y0.29400
X0.38200 Y0.29400
X0.38200 Y0.29300
X0.38100 Y0.29300
X0.38100 Y0.29200
X0.38000 Y0.29200
X0.38000 Y0.29100
X0.37900 Y0.29100
X0.37900 Y0.29000
X0.37800 Y0.29000
X0.37800 Y0.28900
X0.37700 Y0.28900
X0.37700 Y0.28700
X0.37600 Y0.28700
X0.37600 Y0.28600
X0.37500 Y0.28600
X0.37500 Y0.28500
X0.37400 Y0.28500
X0.37400 Y0.28400
X0.37300 Y0.28400
X0.37300 Y0.28300
X0.37200 Y0.28300
X0.37200 Y0.28100
X0.37100 Y0.28100
X0.37100 Y0.28000
X0.37000 Y0.28000
X0.37000 Y0.27900
X0.36900 Y0.27900
X0.36900 Y0.27800
X0.36800 Y0.27800
X0.36800 Y0.27600
X0.36700 Y0.27600
X0.36700 Y0.27400
X0.36600 Y0.27400
X0.36600 Y0.27300
X0.36500 Y0.27300
X0.36500 Y0.27100
X0.36400 Y0.27100
X0.36400 Y0.26900
X0.36300 Y0.26900
X0.36300 Y0.26800
X0.36200 Y0.26800
X0.36200 Y0.26600
X0.36100 Y0.26600
X0.36100 Y0.26400
X0.36000 Y0.26400
X0.36000 Y0.26300
X0.35900 Y0.26300
X0.35900 Y0.26100
X0.35800 Y0.26100
X0.35800 Y0.25900
X0.35700 Y0.25900
X0.35700 Y0.25600
X0.35600 Y0.25600
X0.35600 Y0.25400
X0.35500 Y0.25400
X0.35500 Y0.25200
X0.35400 Y0.25200
X0.35400 Y0.24900
X0.35300 Y0.24900
X0.35300 Y0.24700
X0.35200 Y0.24700
X0.35200 Y0.24400
X0.35100 Y0.24400
X0.35100 Y0.24100
X0.35000 Y0.24100
X0.35000 Y0.23800
X0.34900 Y0.23800
X0.34900 Y0.23400
X0.34800 Y0.23400
X0.34800 Y0.22700
X0.34700 Y0.22700
X0.34700 Y0.22300
X0.34600 Y0.22300
X0.34600 Y0.21100
X0.34500 Y0.21100
X0.34500 Y0.20000
X0.34600 Y0.20000
X0.34600 Y0.18800
X0.34700 Y0.18800
X0.34700 Y0.18400
X0.34800 Y0.18400
X0.34800 Y0.17700
X0.34900 Y0.17700
X0.34900 Y0.17300
X0.35000 Y0.17300
X0.35000 Y0.17000
X0.35100 Y0.17000
X0.35100 Y0.16700
X0.35200 Y0.16700
X0.35200 Y0.16400
X0.35300 Y0.16400
X0.35300 Y0.16100
X0.35400 Y0.16100
X0.35400 Y0.15800
X0.35500 Y0.15800
X0.35500 Y0.15600
X0.35600 Y0.15600
X0.35600 Y0.15400
X0.35700 Y0.15400
X0.35700 Y0.15100
X0.35800 Y0.15100
X0.35800 Y0.14900
X0.35900 Y0.14900
X0.35900 Y0.14700
X0.36000 Y0.14700
X0.36000 Y0.14600
X0.36100 Y0.14600
X0.36100 Y0.14400
X0.36200 Y0.14400
X0.36200 Y0.14200
X0.36300 Y0.14200
X0.36300 Y0.14100
X0.36400 Y0.14100
X0.36400 Y0.13900
X0.36500 Y0.13900
X0.36500 Y0.13700
X0.36600 Y0.13700
X0.36600 Y0.13600
X0.36700 Y0.13600
X0.36700 Y0.13400
X0.36800 Y0.13400
X0.36800 Y0.13200
X0.36900 Y0.13200
X0.36900 Y0.12700
X0.36800 Y0.12700
X0.36800 Y0.12400
X0.36700 Y0.12400
X0.36700 Y0.12300
X0.36600 Y0.12300
X0.36600 Y0.12200
X0.36500 Y0.12200
X0.36500 Y0.12100
X0.36400 Y0.12100
X0.36400 Y0.12000
X0.36300 Y0.12000
X0.36300 Y0.11900
X0.36200 Y0.11900
X0.36200 Y0.11800
X0.36100 Y0.11800
X0.36100 Y0.11700
X0.36000 Y0.11700
X0.36000 Y0.11600
X0.35900 Y0.11600
X0.35900 Y0.11500
X0.35800 Y0.11500
X0.35800 Y0.11400
X0.35700 Y0.11400
X0.35700 Y0.11300
X0.35600 Y0.11300
X0.35600 Y0.11200
X0.35500 Y0.11200
X0.35500 Y0.11100
X0.35400 Y0.11100
X0.35400 Y0.11000
X0.35300 Y0.11000
X0.35300 Y0.10900
X0.35200 Y0.10900
X0.35200 Y0.10800
X0.35100 Y0.10800
X0.35100 Y0.10700
X0.35000 Y0.10700
X0.35000 Y0.10600
X0.34900 Y0.10600
X0.34900 Y0.10500
X0.34800 Y0.10500
X0.34800 Y0.10400
X0.34700 Y0.10400
X0.34700 Y0.10300
X0.34600 Y0.10300
X0.34600 Y0.10200
X0.34500 Y0.10200
X0.34500 Y0.10100
X0.34400 Y0.10100
X0.34400 Y0.10000
X0.34300 Y0.10000
X0.34300 Y0.09900
X0.34200 Y0.09900
X0.34200 Y0.09800
X0.34100 Y0.09800
X0.34100 Y0.09700
X0.34000 Y0.09700
X0.34000 Y0.09600
X0.33900 Y0.09600
X0.33900 Y0.09500
X0.33800 Y0.09500
X0.33800 Y0.09400
X0.33700 Y0.09400
X0.33700 Y0.09300
X0.33600 Y0.09300
X0.33600 Y0.09200
X0.33500 Y0.09200
X0.33500 Y0.09100
X0.33400 Y0.09100
X0.33400 Y0.09000
X0.33300 Y0.09000
X0.33300 Y0.08900
X0.33200 Y0.08900
X0.33200 Y0.08800
X0.33100 Y0.08800
X0.33100 Y0.08700
X0.33000 Y0.08700
X0.33000 Y0.08600
X0.32900 Y0.08600
X0.32900 Y0.08500
X0.32800 Y0.08500
X0.32800 Y0.08400
X0.32700 Y0.08400
X0.32700 Y0.08300
X0.32600 Y0.08300
X0.32600 Y0.08200
X0.32300 Y0.08200
X0.32300 Y0.08100
X0.22600 Y0.08100
X0.22600 Y0.08200
X0.22500 Y0.08200
X0.22500 Y0.08300
X0.22400 Y0.08300
X0.22400 Y0.08500
X0.22500 Y0.08500
X0.22500 Y0.08600
X0.22600 Y0.08600
X0.22600 Y0.08800
X0.22700 Y0.08800
X0.22700 Y0.09000
X0.23100 Y0.09000
X0.23100 Y0.09100
X0.23400 Y0.09100
X0.23400 Y0.09200
X0.23600 Y0.09200
X0.23600 Y0.09300
X0.23800 Y0.09300
X0.23800 Y0.09400
X0.24000 Y0.09400
X0.24000 Y0.09500
X0.24200 Y0.09500
X0.24200 Y0.09600
X0.24400 Y0.09600
X0.24400 Y0.09700
X0.24500 Y0.09700
X0.24500 Y0.09800
X0.24700 Y0.09800
X0.24700 Y0.09900
X0.24900 Y0.09900
X0.24900 Y0.10000
X0.25000 Y0.10000
X0.25000 Y0.10100
X0.25200 Y0.10100
X0.25200 Y0.10200
X0.25300 Y0.10200
X0.25300 Y0.10300
X0.25500 Y0.10300
X0.25500 Y0.10400
X0.25600 Y0.10400
X0.25600 Y0.10500
X0.25800 Y0.10500
X0.25800 Y0.10600
X0.25900 Y0.10600
X0.25900 Y0.10700
X0.26000 Y0.10700
X0.26000 Y0.10800
X0.26100 Y0.10800
X0.26100 Y0.10900
X0.26300 Y0.10900
X0.26300 Y0.11000
X0.26400 Y0.11000
X0.26400 Y0.11100
X0.26500 Y0.11100
X0.26500 Y0.11200
X0.26600 Y0.11200
X0.26600 Y0.11300
X0.26700 Y0.11300
X0.26700 Y0.11400
X0.26900 Y0.11400
X0.26900 Y0.11500
X0.27000 Y0.11500
X0.27000 Y0.11600
X0.27100 Y0.11600
X0.27100 Y0.11700
X0.27200 Y0.11700
X0.27200 Y0.11800
X0.27300 Y0.11800
X0.27300 Y0.11900
X0.27400 Y0.11900
X0.27400 Y0.12000
X0.27500 Y0.12000
X0.27500 Y0.12100
X0.27600 Y0.12100
X0.27600 Y0.12200
X0.27700 Y0.12200
X0.27700 Y0.12300
X0.27800 Y0.12300
X0.27800 Y0.12400
X0.27900 Y0.12400
X0.27900 Y0.12600
X0.28000 Y0.12600
X0.28000 Y0.12700
X0.28100 Y0.12700
X0.28100 Y0.12800
X0.28200 Y0.12800
X0.28200 Y0.12900
X0.28300 Y0.12900
X0.28300 Y0.13000
X0.28400 Y0.13000
X0.28400 Y0.13100
X0.28500 Y0.13100
X0.28500 Y0.13200
X0.28600 Y0.13200
X0.28600 Y0.13400
X0.28700 Y0.13400
X0.28700 Y0.13600
X0.28800 Y0.13600
X0.28800 Y0.13700
X0.28900 Y0.13700
X0.28900 Y0.13900
X0.29000 Y0.13900
X0.29000 Y0.14100
X0.29100 Y0.14100
X0.29100 Y0.14200
X0.29200 Y0.14200
X0.29200 Y0.14400
X0.29300 Y0.14400
X0.29300 Y0.14600
X0.29400 Y0.14600
X0.29400 Y0.14700
X0.29500 Y0.14700
X0.29500 Y0.14900
X0.29600 Y0.14900
X0.29600 Y0.15100
X0.29700 Y0.15100
X0.29700 Y0.15400
X0.29800 Y0.15400
X0.29800 Y0.15600
X0.29900 Y0.15600
X0.29900 Y0.15800
X0.30000 Y0.15800
X0.30000 Y0.16100
X0.30100 Y0.16100
X0.30100 Y0.16400
X0.30200 Y0.16400
X0.30200 Y0.16700
X0.30300 Y0.16700
X0.30300 Y0.17000
X0.30400 Y0.17000
X0.30400 Y0.17300
X0.30500 Y0.17300
X0.30500 Y0.17700
X0.30600 Y0.17700
X0.30600 Y0.18400
X0.30700 Y0.18400
X0.30700 Y0.18800
X0.30800 Y0.18800
X0.30800 Y0.20000
X0.30900 Y0.20000
X0.30900 Y0.21100
X0.30800 Y0.21100
X0.30800 Y0.22300
X0.30700 Y0.22300
X0.30700 Y0.22700
X0.30600 Y0.22700
X0.30600 Y0.23400
X0.30500 Y0.23400
X0.30500 Y0.23800
X0.30400 Y0.23800
X0.30400 Y0.24100
X0.30300 Y0.24100
X0.30300 Y0.24400
X0.30200 Y0.24400
X0.30200 Y0.24700
X0.30100 Y0.24700
X0.30100 Y0.24900
X0.30000 Y0.24900
X0.30000 Y0.25200
X0.29900 Y0.25200
X0.29900 Y0.25400
X0.29800 Y0.25400
X0.29800 Y0.25600
X0.29700 Y0.25600
X0.29700 Y0.25900
X0.29600 Y0.25900
X0.29600 Y0.26100
X0.29500 Y0.26100
X0.29500 Y0.26300
X0.29400 Y0.26300
X0.29400 Y0.26400
X0.29300 Y0.26400
X0.29300 Y0.26600
X0.29200 Y0.26600
X0.29200 Y0.26800
X0.29100 Y0.26800
X0.29100 Y0.26900
X0.29000 Y0.26900
X0.29000 Y0.27100
X0.28900 Y0.27100
X0.28900 Y0.27300
X0.28800 Y0.27300
X0.28800 Y0.27400
X0.28700 Y0.27400
X0.28700 Y0.27600
X0.28600 Y0.27600
X0.28600 Y0.27700
X0.28500 Y0.27700
X0.28500 Y0.27800
X0.28400 Y0.27800
X0.28400 Y0.27900
X0.28300 Y0.27900
X0.28300 Y0.28700
X0.28400 Y0.28700
X0.28400 Y0.28800
X0.28500 Y0.28800
X0.28500 Y0.28900
X0.28600 Y0.28900
X0.28600 Y0.29000
X0.28700 Y0.29000
X0.28700 Y0.29100
X0.28800 Y0.29100
X0.28800 Y0.29200
X0.28900 Y0.29200
X0.28900 Y0.29300
X0.29000 Y0.29300
X0.29000 Y0.29400
X0.29100 Y0.29400
X0.29100 Y0.29500
X0.29200 Y0.29500
X0.29200 Y0.29600
X0.29300 Y0.29600
X0.29300 Y0.29700
X0.29400 Y0.29700
X0.29400 Y0.29800
X0.29500 Y0.29800
X0.29500 Y0.29900
X0.29600 Y0.29900
X0.29600 Y0.30000
X0.29700 Y0.30000
X0.29700 Y0.30100
X0.29800 Y0.30100
X0.29800 Y0.30200
X0.29900 Y0.30200
X0.29900 Y0.30300
X0.30000 Y0.30300
X0.30000 Y0.30400
X0.30100 Y0.30400
X0.30100 Y0.30500
X0.30200 Y0.30500
X0.30200 Y0.30600
X0.30300 Y0.30600
X0.30300 Y0.30700
X0.30400 Y0.30700
X0.30400 Y0.30800
X0.30500 Y0.30800
X0.30500 Y0.30900
X0.30600 Y0.30900
X0.30600 Y0.31000
X0.30700 Y0.31000
X0.30700 Y0.31100
X0.30800 Y0.31100
X0.30800 Y0.31200
X0.30900 Y0.31200
X0.30900 Y0.31300
X0.31000 Y0.31300
X0.31000 Y0.31400
X0.31100 Y0.31400
X0.31100 Y0.31500
X0.31200 Y0.31500
X0.31200 Y0.31600
X0.31300 Y0.31600
X0.31300 Y0.31700
X0.31400 Y0.31700
X0.31400 Y0.31800
X0.31500 Y0.31800
X0.31500 Y0.31900
X0.31600 Y0.31900
X0.31600 Y0.32000
X0.31700 Y0.32000
X0.31700 Y0.32100
X0.31800 Y0.32100
X0.31800 Y0.32200
X0.31900 Y0.32200
X0.31900 Y0.32300
X0.32000 Y0.32300
X0.32000 Y0.32400
X0.32100 Y0.32400
X0.32100 Y0.32500
X0.32200 Y0.32500
X0.32200 Y0.32600
X0.32300 Y0.32600
X0.32300 Y0.32700
X0.32400 Y0.32700
X0.32400 Y0.32800
X0.32500 Y0.32800
X0.32500 Y0.32900
X0.32600 Y0.32900
X0.32600 Y0.33000
X0.32700 Y0.33000
X0.32700 Y0.33100
X0.32800 Y0.33100
X0.32800 Y0.33200
X0.32900 Y0.33200
X0.32900 Y0.33300
X0.33000 Y0.33300
X0.33000 Y0.33400
X0.33100 Y0.33400
X0.33100 Y0.33500
X0.33200 Y0.33500
X0.33200 Y0.33600
X0.33300 Y0.33600
X0.33300 Y0.33700
X0.33400 Y0.33700
X0.33400 Y0.33800
X0.33500 Y0.33800
X0.33500 Y0.33900
X0.33600 Y0.33900
X0.33600 Y0.34000
X0.33700 Y0.34000
X0.33700 Y0.34100
X0.33800 Y0.34100
X0.33800 Y0.34200
X0.33900 Y0.34200
X0.33900 Y0.34300
X0.34000 Y0.34300
X0.34000 Y0.34400
X0.34100 Y0.34400
X0.34100 Y0.34500
X0.34200 Y0.34500
X0.34200 Y0.34600
X0.34300 Y0.34600
X0.34300 Y0.34700
X0.34400 Y0.34700
X0.34400 Y0.34800
X0.34500 Y0.34800
X0.34500 Y0.34900
X0.34600 Y0.34900
X0.34600 Y0.35000
X0.34700 Y0.35000
X0.34700 Y0.35100
X0.34800 Y0.35100
X0.34800 Y0.35200
X0.34900 Y0.35200
X0.34900 Y0.35300
X0.35000 Y0.35300
X0.35000 Y0.35400
X0.35100 Y0.35400
X0.35100 Y0.35500
X0.35200 Y0.35500
X0.35200 Y0.35600
X0.35300 Y0.35600
X0.35300 Y0.35700
X0.35400 Y0.35700
X0.35400 Y0.35800
X0.35500 Y0.35800
X0.35500 Y0.35900
X0.35600 Y0.35900
X0.35600 Y0.36000
X0.35700 Y0.36000
X0.35700 Y0.36100
X0.35800 Y0.36100
X0.35800 Y0.36200
X0.35900 Y0.36200
X0.35900 Y0.36300
X0.36000 Y0.36300
X0.36000 Y0.36400
X0.36100 Y0.36400
X0.36100 Y0.36500
X0.36200 Y0.36500
X0.36200 Y0.36600
X0.36300 Y0.36600
X0.36300 Y0.36700
X0.36400 Y0.36700
X0.36400 Y0.36800
X0.36500 Y0.36800
X0.36500 Y0.36900
X0.36600 Y0.36900
X0.36600 Y0.37000
X0.36700 Y0.37000
X0.36700 Y0.37100
X0.36800 Y0.37100
X0.36800 Y0.37200
X0.36900 Y0.37200
X0.36900 Y0.37300
X0.37000 Y0.37300
X0.37000 Y0.37400
X0.37100 Y0.37400
X0.37100 Y0.37500
X0.37200 Y0.37500
X0.37200 Y0.37600
X0.37300 Y0.37600
X0.37300 Y0.37700
X0.37400 Y0.37700
X0.37400 Y0.37800
X0.37500 Y0.37800
X0.37500 Y0.37900
X0.37600 Y0.37900
X0.37600 Y0.38000
X0.37700 Y0.38000
X0.37700 Y0.38100
X0.37800 Y0.38100
X0.37800 Y0.38200
X0.37900 Y0.38200
X0.37900 Y0.38300
X0.38000 Y0.38300
X0.38000 Y0.38400
X0.38100 Y0.38400
X0.38100 Y0.38500
X0.38400 Y0.38500
X0.38400 Y0.38600
X0.38700 Y0.38600
X0.38700 Y0.38700
X0.39000 Y0.38700
X0.39000 Y0.38100
G04 P0 ( dwell for no time -- G64 should not smooth over this point )
G00 Z0.19685 ( retract )

G00 X0.67900 Y0.51200 ( rapid move to begin. )
F0.98425
G01 Z-0.01969
G04 P0 ( dwell for no time -- G64 should not smooth over this point )
F1.96850
X0.67900 Y0.51200
X0.68000 Y0.51200
X0.68000 Y0.51100
X0.68100 Y0.51100
X0.68100 Y0.51000
X0.68200 Y0.51000
X0.68200 Y0.50900
X0.68300 Y0.50900
X0.68300 Y0.50800
X0.68400 Y0.50800
X0.68400 Y0.50600
X0.68500 Y0.50600
X0.68500 Y0.50200
X0.68600 Y0.50200
X0.68600 Y0.49700
X0.68700 Y0.49700
X0.68700 Y0.49300
X0.68600 Y0.49300
X0.68600 Y0.48900
X0.68500 Y0.48900
X0.68500 Y0.48500
X0.68400 Y0.48500
X0.68400 Y0.48300
X0.68300 Y0.48300
X0.68300 Y0.48200
X0.68200 Y0.48200
X0.68200 Y0.48000
X0.68100 Y0.48000
X0.68100 Y0.47900
X0.67900 Y0.47900
X0.67900 Y0.47800
X0.67800 Y0.47800
X0.67800 Y0.47700
X0.67600 Y0.47700
X0.67600 Y0.47600
X0.67200 Y0.47600
X0.67200 Y0.47500
X0.67000 Y0.47500
X0.67000 Y0.47400
X0.66000 Y0.47400
X0.66000 Y0.47500
X0.65800 Y0.47500
X0.65800 Y0.47600
X0.65500 Y0.47600
X0.65500 Y0.47700
X0.65300 Y0.47700
X0.65300 Y0.47800
X0.65200 Y0.47800
X0.65200 Y0.47900
X0.65000 Y0.47900
X0.65000 Y0.48000
X0.64900 Y0.48000
X0.64900 Y0.48200
X0.64800 Y0.48200
X0.64800 Y0.48300
X0.64700 Y0.48300
X0.64700 Y0.48500
X0.64600 Y0.48500
X0.64600 Y0.48800
X0.64500 Y0.48800
X0.64500 Y0.49000
X0.64400 Y0.49000
X0.64400 Y0.50000
X0.64500 Y0.50000
X0.64500 Y0.50200
X0.64600 Y0.50200
X0.64600 Y0.50700
X0.64700 Y0.50700
X0.64700 Y0.50800
X0.64800 Y0.50800
X0.64800 Y0.50900
X0.64900 Y0.50900
X0.64900 Y0.51000
X0.65000 Y0.51000
X0.65000 Y0.51100
X0.65100 Y0.51100
X0.65100 Y0.51200
X0.65200 Y0.51200
X0.65200 Y0.51300
X0.65300 Y0.51300
X0.65300 Y0.51400
X0.65500 Y0.51400
X0.65500 Y0.51500
X0.65900 Y0.51500
X0.65900 Y0.51600
X0.66300 Y0.51600
X0.66300 Y0.51700
X0.66700 Y0.51700
X0.66700 Y0.51800
X0.66800 Y0.51800
X0.66800 Y0.51900
X0.66900 Y0.51900
X0.66900 Y0.52000
X0.67400 Y0.52000
X0.67400 Y0.51900
X0.67500 Y0.51900
X0.67500 Y0.51700
X0.67600 Y0.51700
X0.67600 Y0.51600
X0.67700 Y0.51600
X0.67700 Y0.51400
X0.67800 Y0.51400
X0.67800 Y0.51300
X0.67900 Y0.51300
X0.67900 Y0.51200
G04 P0 ( dwell for no time -- G64 should not smooth over this point )
G00 Z0.19685 ( retract )

G00 X0.71500 Y0.63100 ( rapid move to begin. )
F0.98425
G01 Z-0.01969
G04 P0 ( dwell for no time -- G64 should not smooth over this point )
F1.96850
X0.71500 Y0.63100
X0.71500 Y0.57200
X0.71100 Y0.57200
X0.71100 Y0.57300
X0.70900 Y0.57300
X0.70900 Y0.57400
X0.70700 Y0.57400
X0.70700 Y0.57500
X0.70600 Y0.57500
X0.70600 Y0.57600
X0.70500 Y0.57600
X0.70500 Y0.57800
X0.70400 Y0.57800
X0.70400 Y0.57900
X0.70300 Y0.57900
X0.70300 Y0.58000
X0.70200 Y0.58000
X0.70200 Y0.58100
X0.70000 Y0.58100
X0.70000 Y0.58200
X0.69800 Y0.58200
X0.69800 Y0.58300
X0.69700 Y0.58300
X0.69700 Y0.58500
X0.69600 Y0.58500
X0.69600 Y0.62600
X0.69700 Y0.62600
X0.69700 Y0.62700
X0.69800 Y0.62700
X0.69800 Y0.62800
X0.70000 Y0.62800
X0.70000 Y0.62900
X0.70100 Y0.62900
X0.70100 Y0.63000
X0.70200 Y0.63000
X0.70200 Y0.63100
X0.70300 Y0.63100
X0.70300 Y0.63200
X0.70400 Y0.63200
X0.70400 Y0.63300
X0.70500 Y0.63300
X0.70500 Y0.63400
X0.70600 Y0.63400
X0.70600 Y0.63500
X0.70800 Y0.63500
X0.70800 Y0.63600
X0.71000 Y0.63600
X0.71000 Y0.63700
X0.71200 Y0.63700
X0.71200 Y0.63800
X0.71400 Y0.63800
X0.71400 Y0.63700
X0.71500 Y0.63700
X0.71500 Y0.63100
G04 P0 ( dwell for no time -- G64 should not smooth over this point )
G00 Z0.19685 ( retract )

G00 X0.69800 Y0.78200 ( rapid move to begin. )
F0.98425
G01 Z-0.01969
G04 P0 ( dwell for no time -- G64 should not smooth over this point )
F1.96850
X0.69800 Y0.78200
X0.69900 Y0.78200
X0.69900 Y0.78100
X0.70000 Y0.78100
X0.70000 Y0.78000
X0.70100 Y0.78000
X0.70100 Y0.77900
X0.70200 Y0.77900
X0.70200 Y0.77800
X0.70300 Y0.77800
X0.70300 Y0.77700
X0.70400 Y0.77700
X0.70400 Y0.77600
X0.70500 Y0.77600
X0.70500 Y0.77500
X0.70600 Y0.77500
X0.70600 Y0.77400
X0.70700 Y0.77400
X0.70700 Y0.77200
X0.70800 Y0.77200
X0.70800 Y0.77100
X0.70900 Y0.77100
X0.70900 Y0.76900
X0.71000 Y0.76900
X0.71000 Y0.76500
X0.71100 Y0.76500
X0.71100 Y0.76300
X0.71200 Y0.76300
X0.71200 Y0.74700
X0.71100 Y0.74700
X0.71100 Y0.74600
X0.71000 Y0.74600
X0.71000 Y0.74200
X0.70900 Y0.74200
X0.70900 Y0.74000
X0.70800 Y0.74000
X0.70800 Y0.73800
X0.70700 Y0.73800
X0.70700 Y0.73600
X0.70600 Y0.73600
X0.70600 Y0.73500
X0.70500 Y0.73500
X0.70500 Y0.73400
X0.70400 Y0.73400
X0.70400 Y0.73300
X0.70300 Y0.73300
X0.70300 Y0.73200
X0.70200 Y0.73200
X0.70200 Y0.73100
X0.70100 Y0.73100
X0.70100 Y0.73000
X0.70000 Y0.73000
X0.70000 Y0.72900
X0.69900 Y0.72900
X0.69900 Y0.72700
X0.69800 Y0.72700
X0.69800 Y0.72500
X0.69700 Y0.72500
X0.69700 Y0.72200
X0.66300 Y0.72200
X0.66300 Y0.72600
X0.66200 Y0.72600
X0.66200 Y0.72800
X0.66100 Y0.72800
X0.66100 Y0.73000
X0.65900 Y0.73000
X0.65900 Y0.73100
X0.65800 Y0.73100
X0.65800 Y0.73200
X0.65700 Y0.73200
X0.65700 Y0.73300
X0.65600 Y0.73300
X0.65600 Y0.73500
X0.65500 Y0.73500
X0.65500 Y0.73600
X0.65400 Y0.73600
X0.65400 Y0.73800
X0.65300 Y0.73800
X0.65300 Y0.73900
X0.65200 Y0.73900
X0.65200 Y0.74200
X0.65100 Y0.74200
X0.65100 Y0.74400
X0.65000 Y0.74400
X0.65000 Y0.74700
X0.64900 Y0.74700
X0.64900 Y0.76400
X0.65000 Y0.76400
X0.65000 Y0.76700
X0.65100 Y0.76700
X0.65100 Y0.76900
X0.65200 Y0.76900
X0.65200 Y0.77200
X0.65300 Y0.77200
X0.65300 Y0.77300
X0.65400 Y0.77300
X0.65400 Y0.77500
X0.65500 Y0.77500
X0.65500 Y0.77600
X0.65600 Y0.77600
X0.65600 Y0.77700
X0.65700 Y0.77700
X0.65700 Y0.77800
X0.65800 Y0.77800
X0.65800 Y0.77900
X0.65900 Y0.77900
X0.65900 Y0.78000
X0.66000 Y0.78000
X0.66000 Y0.78100
X0.66100 Y0.78100
X0.66100 Y0.78200
X0.66300 Y0.78200
X0.66300 Y0.78300
X0.66500 Y0.78300
X0.66500 Y0.78400
X0.66600 Y0.78400
X0.66600 Y0.78500
X0.67100 Y0.78500
X0.67100 Y0.78600
X0.67200 Y0.78600
X0.67200 Y0.78700
X0.68800 Y0.78700
X0.68800 Y0.78600
X0.69000 Y0.78600
X0.69000 Y0.78500
X0.69500 Y0.78500
X0.69500 Y0.78400
X0.69600 Y0.78400
X0.69600 Y0.78300
X0.69800 Y0.78300
X0.69800 Y0.78200
G04 P0 ( dwell for no time -- G64 should not smooth over this point )
G00 Z0.19685 ( retract )

G00 X0.59800 Y0.73200 ( rapid move to begin. )
F0.98425
G01 Z-0.01969
G04 P0 ( dwell for no time -- G64 should not smooth over this point )
F1.96850
X0.59800 Y0.73200
X0.59900 Y0.73200
X0.59900 Y0.73100
X0.60000 Y0.73100
X0.60000 Y0.73000
X0.60100 Y0.73000
X0.60100 Y0.72900
X0.60200 Y0.72900
X0.60200 Y0.72800
X0.60300 Y0.72800
X0.60300 Y0.72700
X0.60400 Y0.72700
X0.60400 Y0.72600
X0.60500 Y0.72600
X0.60500 Y0.72500
X0.60600 Y0.72500
X0.60600 Y0.72400
X0.60700 Y0.72400
X0.60700 Y0.72300
X0.60800 Y0.72300
X0.60800 Y0.72200
X0.60900 Y0.72200
X0.60900 Y0.72100
X0.61000 Y0.72100
X0.61000 Y0.72000
X0.66200 Y0.72000
X0.66200 Y0.72100
X0.66300 Y0.72100
X0.66300 Y0.72200
X0.69700 Y0.72200
X0.69700 Y0.72100
X0.69800 Y0.72100
X0.69800 Y0.72000
X0.71300 Y0.72000
X0.71300 Y0.71900
X0.71700 Y0.71900
X0.71700 Y0.71800
X0.71900 Y0.71800
X0.71900 Y0.71700
X0.72000 Y0.71700
X0.72000 Y0.71600
X0.72100 Y0.71600
X0.72100 Y0.71400
X0.72200 Y0.71400
X0.72200 Y0.71300
X0.72300 Y0.71300
X0.72300 Y0.71200
X0.72400 Y0.71200
X0.72400 Y0.71100
X0.72500 Y0.71100
X0.72500 Y0.71000
X0.72600 Y0.71000
X0.72600 Y0.70900
X0.72700 Y0.70900
X0.72700 Y0.70800
X0.72800 Y0.70800
X0.72800 Y0.70700
X0.72900 Y0.70700
X0.72900 Y0.70600
X0.73000 Y0.70600
X0.73000 Y0.70500
X0.73100 Y0.70500
X0.73100 Y0.70400
X0.73200 Y0.70400
X0.73200 Y0.70300
X0.73300 Y0.70300
X0.73300 Y0.70200
X0.73400 Y0.70200
X0.73400 Y0.70100
X0.73500 Y0.70100
X0.73500 Y0.70000
X0.73600 Y0.70000
X0.73600 Y0.69900
X0.73700 Y0.69900
X0.73700 Y0.69800
X0.73800 Y0.69800
X0.73800 Y0.69700
X0.73900 Y0.69700
X0.73900 Y0.69600
X0.74100 Y0.69600
X0.74100 Y0.69500
X0.74200 Y0.69500
X0.74200 Y0.69400
X0.74300 Y0.69400
X0.74300 Y0.69100
X0.74400 Y0.69100
X0.74400 Y0.68800
X0.74500 Y0.68800
X0.74500 Y0.68700
X0.74600 Y0.68700
X0.74600 Y0.68600
X0.74700 Y0.68600
X0.74700 Y0.68500
X0.74900 Y0.68500
X0.74900 Y0.49100
X0.74700 Y0.49100
X0.74700 Y0.49000
X0.74600 Y0.49000
X0.74600 Y0.48900
X0.74500 Y0.48900
X0.74500 Y0.48800
X0.74400 Y0.48800
X0.74400 Y0.48500
X0.74300 Y0.48500
X0.74300 Y0.48200
X0.74200 Y0.48200
X0.74200 Y0.48100
X0.74100 Y0.48100
X0.74100 Y0.47900
X0.74000 Y0.47900
X0.74000 Y0.47800
X0.73900 Y0.47800
X0.73900 Y0.47700
X0.73800 Y0.47700
X0.73800 Y0.47600
X0.73700 Y0.47600
X0.73700 Y0.47500
X0.73600 Y0.47500
X0.73600 Y0.47400
X0.73500 Y0.47400
X0.73500 Y0.47300
X0.73400 Y0.47300
X0.73400 Y0.47200
X0.73300 Y0.47200
X0.73300 Y0.47100
X0.73200 Y0.47100
X0.73200 Y0.47000
X0.73100 Y0.47000
X0.73100 Y0.46900
X0.73000 Y0.46900
X0.73000 Y0.46800
X0.72900 Y0.46800
X0.72900 Y0.46700
X0.72800 Y0.46700
X0.72800 Y0.46600
X0.72700 Y0.46600
X0.72700 Y0.46500
X0.72600 Y0.46500
X0.72600 Y0.46400
X0.72500 Y0.46400
X0.72500 Y0.46300
X0.72400 Y0.46300
X0.72400 Y0.46200
X0.72300 Y0.46200
X0.72300 Y0.46100
X0.72200 Y0.46100
X0.72200 Y0.46000
X0.72100 Y0.46000
X0.72100 Y0.45900
X0.72000 Y0.45900
X0.72000 Y0.45800
X0.71900 Y0.45800
X0.71900 Y0.45700
X0.71800 Y0.45700
X0.71800 Y0.45600
X0.71700 Y0.45600
X0.71700 Y0.45500
X0.71600 Y0.45500
X0.71600 Y0.45400
X0.71500 Y0.45400
X0.71500 Y0.45300
X0.71400 Y0.45300
X0.71400 Y0.45200
X0.71300 Y0.45200
X0.71300 Y0.45100
X0.71200 Y0.45100
X0.71200 Y0.45000
X0.71100 Y0.45000
X0.71100 Y0.44700
X0.71000 Y0.44700
X0.71000 Y0.35000
X0.71100 Y0.35000
X0.71100 Y0.34900
X0.71200 Y0.34900
X0.71200 Y0.34800
X0.71400 Y0.34800
X0.71400 Y0.34700
X0.71500 Y0.34700
X0.71500 Y0.34600
X0.71700 Y0.34600
X0.71700 Y0.34500
X0.71800 Y0.34500
X0.71800 Y0.34400
X0.72000 Y0.34400
X0.72000 Y0.34300
X0.72100 Y0.34300
X0.72100 Y0.34200
X0.72200 Y0.34200
X0.72200 Y0.34100
X0.72300 Y0.34100
X0.72300 Y0.34000
X0.72400 Y0.34000
X0.72400 Y0.33800
X0.72500 Y0.33800
X0.72500 Y0.33700
X0.72600 Y0.33700
X0.72600 Y0.33500
X0.72700 Y0.33500
X0.72700 Y0.33400
X0.72800 Y0.33400
X0.72800 Y0.33200
X0.72900 Y0.33200
X0.72900 Y0.32900
X0.73000 Y0.32900
X0.73000 Y0.32600
X0.73100 Y0.32600
X0.73100 Y0.32400
X0.73200 Y0.32400
X0.73200 Y0.30700
X0.73100 Y0.30700
X0.73100 Y0.30500
X0.73000 Y0.30500
X0.73000 Y0.30200
X0.72900 Y0.30200
X0.72900 Y0.29800
X0.72800 Y0.29800
X0.72800 Y0.29600
X0.72700 Y0.29600
X0.72700 Y0.29500
X0.72600 Y0.29500
X0.72600 Y0.29300
X0.72500 Y0.29300
X0.72500 Y0.29200
X0.72400 Y0.29200
X0.72400 Y0.29100
X0.72300 Y0.29100
X0.72300 Y0.29000
X0.72200 Y0.29000
X0.72200 Y0.28900
X0.72100 Y0.28900
X0.72100 Y0.28800
X0.72000 Y0.28800
X0.72000 Y0.28700
X0.71900 Y0.28700
X0.71900 Y0.28600
X0.71800 Y0.28600
X0.71800 Y0.28500
X0.71700 Y0.28500
X0.71700 Y0.28400
X0.71500 Y0.28400
X0.71500 Y0.28300
X0.71300 Y0.28300
X0.71300 Y0.28200
X0.71000 Y0.28200
X0.71000 Y0.28100
X0.70600 Y0.28100
X0.70600 Y0.28000
X0.70400 Y0.28000
X0.70400 Y0.27900
X0.69700 Y0.27900
X0.69700 Y0.27800
X0.69400 Y0.27800
X0.69400 Y0.27900
X0.68700 Y0.27900
X0.68700 Y0.28000
X0.68400 Y0.28000
X0.68400 Y0.28100
X0.68100 Y0.28100
X0.68100 Y0.28200
X0.67800 Y0.28200
X0.67800 Y0.28300
X0.67600 Y0.28300
X0.67600 Y0.28400
X0.67400 Y0.28400
X0.67400 Y0.28500
X0.67300 Y0.28500
X0.67300 Y0.28600
X0.67100 Y0.28600
X0.67100 Y0.28700
X0.67000 Y0.28700
X0.67000 Y0.28800
X0.66900 Y0.28800
X0.66900 Y0.28900
X0.66800 Y0.28900
X0.66800 Y0.29000
X0.66700 Y0.29000
X0.66700 Y0.29100
X0.66600 Y0.29100
X0.66600 Y0.29300
X0.66500 Y0.29300
X0.66500 Y0.29400
X0.66400 Y0.29400
X0.66400 Y0.29600
X0.66300 Y0.29600
X0.66300 Y0.29700
X0.66200 Y0.29700
X0.66200 Y0.30200
X0.66100 Y0.30200
X0.66100 Y0.30400
X0.66000 Y0.30400
X0.66000 Y0.30700
X0.65900 Y0.30700
X0.65900 Y0.31400
X0.65800 Y0.31400
X0.65800 Y0.31700
X0.65900 Y0.31700
X0.65900 Y0.32400
X0.66000 Y0.32400
X0.66000 Y0.32600
X0.66100 Y0.32600
X0.66100 Y0.32900
X0.66200 Y0.32900
X0.66200 Y0.33300
X0.66300 Y0.33300
X0.66300 Y0.33500
X0.66400 Y0.33500
X0.66400 Y0.33700
X0.66500 Y0.33700
X0.66500 Y0.33800
X0.66600 Y0.33800
X0.66600 Y0.33900
X0.66700 Y0.33900
X0.66700 Y0.34000
X0.66800 Y0.34000
X0.66800 Y0.34100
X0.66900 Y0.34100
X0.66900 Y0.34200
X0.67000 Y0.34200
X0.67000 Y0.34300
X0.67100 Y0.34300
X0.67100 Y0.34400
X0.67200 Y0.34400
X0.67200 Y0.34500
X0.67300 Y0.34500
X0.67300 Y0.34600
X0.67500 Y0.34600
X0.67500 Y0.34700
X0.67600 Y0.34700
X0.67600 Y0.34800
X0.67800 Y0.34800
X0.67800 Y0.34900
X0.68000 Y0.34900
X0.68000 Y0.35000
X0.68100 Y0.35000
X0.68100 Y0.45900
X0.68200 Y0.45900
X0.68200 Y0.46100
X0.68300 Y0.46100
X0.68300 Y0.46400
X0.68400 Y0.46400
X0.68400 Y0.46500
X0.68500 Y0.46500
X0.68500 Y0.46600
X0.68600 Y0.46600
X0.68600 Y0.46700
X0.68700 Y0.46700
X0.68700 Y0.46800
X0.68800 Y0.46800
X0.68800 Y0.46900
X0.68900 Y0.46900
X0.68900 Y0.47000
X0.69000 Y0.47000
X0.69000 Y0.47100
X0.69100 Y0.47100
X0.69100 Y0.47200
X0.69200 Y0.47200
X0.69200 Y0.47300
X0.69300 Y0.47300
X0.69300 Y0.47400
X0.69400 Y0.47400
X0.69400 Y0.47500
X0.69500 Y0.47500
X0.69500 Y0.47600
X0.69600 Y0.47600
X0.69600 Y0.47700
X0.69700 Y0.47700
X0.69700 Y0.47800
X0.69800 Y0.47800
X0.69800 Y0.47900
X0.69900 Y0.47900
X0.69900 Y0.48000
X0.70000 Y0.48000
X0.70000 Y0.48100
X0.70100 Y0.48100
X0.70100 Y0.48200
X0.70200 Y0.48200
X0.70200 Y0.48300
X0.70300 Y0.48300
X0.70300 Y0.48400
X0.70400 Y0.48400
X0.70400 Y0.48500
X0.70500 Y0.48500
X0.70500 Y0.48600
X0.70600 Y0.48600
X0.70600 Y0.48700
X0.70700 Y0.48700
X0.70700 Y0.48800
X0.70800 Y0.48800
X0.70800 Y0.48900
X0.70900 Y0.48900
X0.70900 Y0.49000
X0.71000 Y0.49000
X0.71000 Y0.49100
X0.71100 Y0.49100
X0.71100 Y0.49200
X0.71200 Y0.49200
X0.71200 Y0.49300
X0.71300 Y0.49300
X0.71300 Y0.49400
X0.71400 Y0.49400
X0.71400 Y0.49600
X0.71500 Y0.49600
X0.71500 Y0.49900
X0.71600 Y0.49900
X0.71600 Y0.53700
X0.71500 Y0.53700
X0.71500 Y0.53800
X0.71400 Y0.53800
X0.71400 Y0.57200
X0.71500 Y0.57200
X0.71500 Y0.63700
X0.71400 Y0.63700
X0.71400 Y0.67300
X0.71300 Y0.67300
X0.71300 Y0.67600
X0.71200 Y0.67600
X0.71200 Y0.67700
X0.71100 Y0.67700
X0.71100 Y0.67800
X0.71000 Y0.67800
X0.71000 Y0.67900
X0.70900 Y0.67900
X0.70900 Y0.68000
X0.70800 Y0.68000
X0.70800 Y0.68100
X0.70700 Y0.68100
X0.70700 Y0.68200
X0.70600 Y0.68200
X0.70600 Y0.68300
X0.70500 Y0.68300
X0.70500 Y0.68400
X0.70400 Y0.68400
X0.70400 Y0.68500
X0.70300 Y0.68500
X0.70300 Y0.68600
X0.70200 Y0.68600
X0.70200 Y0.68700
X0.70000 Y0.68700
X0.70000 Y0.68800
X0.69900 Y0.68800
X0.69900 Y0.68900
X0.66400 Y0.68900
X0.66400 Y0.69000
X0.66300 Y0.69000
X0.66300 Y0.69100
X0.61000 Y0.69100
X0.61000 Y0.69000
X0.60900 Y0.69000
X0.60900 Y0.68900
X0.60800 Y0.68900
X0.60800 Y0.68800
X0.60700 Y0.68800
X0.60700 Y0.68600
X0.60600 Y0.68600
X0.60600 Y0.68500
X0.60500 Y0.68500
X0.60500 Y0.68400
X0.60400 Y0.68400
X0.60400 Y0.68300
X0.60300 Y0.68300
X0.60300 Y0.68100
X0.60200 Y0.68100
X0.60200 Y0.68000
X0.60000 Y0.68000
X0.60000 Y0.67900
X0.59800 Y0.67900
X0.59800 Y0.67800
X0.59600 Y0.67800
X0.59600 Y0.67700
X0.59500 Y0.67700
X0.59500 Y0.67600
X0.59200 Y0.67600
X0.59200 Y0.67500
X0.58900 Y0.67500
X0.58900 Y0.67400
X0.57100 Y0.67400
X0.57100 Y0.67500
X0.56900 Y0.67500
X0.56900 Y0.67600
X0.56600 Y0.67600
X0.56600 Y0.67700
X0.56500 Y0.67700
X0.56500 Y0.67800
X0.56300 Y0.67800
X0.56300 Y0.67900
X0.56100 Y0.67900
X0.56100 Y0.68000
X0.55900 Y0.68000
X0.55900 Y0.68100
X0.55800 Y0.68100
X0.55800 Y0.68200
X0.55700 Y0.68200
X0.55700 Y0.68300
X0.55600 Y0.68300
X0.55600 Y0.68500
X0.55500 Y0.68500
X0.55500 Y0.68600
X0.55400 Y0.68600
X0.55400 Y0.68800
X0.55300 Y0.68800
X0.55300 Y0.68900
X0.55200 Y0.68900
X0.55200 Y0.69200
X0.55100 Y0.69200
X0.55100 Y0.69400
X0.55000 Y0.69400
X0.55000 Y0.69700
X0.54900 Y0.69700
X0.54900 Y0.71400
X0.55000 Y0.71400
X0.55000 Y0.71700
X0.55100 Y0.71700
X0.55100 Y0.71900
X0.55200 Y0.71900
X0.55200 Y0.72200
X0.55300 Y0.72200
X0.55300 Y0.72300
X0.55400 Y0.72300
X0.55400 Y0.72500
X0.55500 Y0.72500
X0.55500 Y0.72600
X0.55600 Y0.72600
X0.55600 Y0.72700
X0.55700 Y0.72700
X0.55700 Y0.72800
X0.55800 Y0.72800
X0.55800 Y0.72900
X0.55900 Y0.72900
X0.55900 Y0.73000
X0.56000 Y0.73000
X0.56000 Y0.73100
X0.56100 Y0.73100
X0.56100 Y0.73200
X0.56300 Y0.73200
X0.56300 Y0.73300
X0.56500 Y0.73300
X0.56500 Y0.73400
X0.56600 Y0.73400
X0.56600 Y0.73500
X0.57100 Y0.73500
X0.57100 Y0.73600
X0.57200 Y0.73600
X0.57200 Y0.73700
X0.58800 Y0.73700
X0.58800 Y0.73600
X0.59000 Y0.73600
X0.59000 Y0.73500
X0.59500 Y0.73500
X0.59500 Y0.73400
X0.59600 Y0.73400
X0.59600 Y0.73300
X0.59800 Y0.73300
X0.59800 Y0.73200
G04 P0 ( dwell for no time -- G64 should not smooth over this point )
G00 Z0.19685 ( retract )

G00 X0.60400 Y0.93200 ( rapid move to begin. )
F0.98425
G01 Z-0.01969
G04 P0 ( dwell for no time -- G64 should not smooth over this point )
F1.96850
X0.60400 Y0.93200
X0.60500 Y0.93200
X0.60500 Y0.93100
X0.60600 Y0.93100
X0.60600 Y0.93000
X0.60700 Y0.93000
X0.60700 Y0.92900
X0.60800 Y0.92900
X0.60800 Y0.92800
X0.60900 Y0.92800
X0.60900 Y0.92700
X0.61000 Y0.92700
X0.61000 Y0.92600
X0.61100 Y0.92600
X0.61100 Y0.92400
X0.61200 Y0.92400
X0.61200 Y0.92300
X0.61300 Y0.92300
X0.61300 Y0.92100
X0.61400 Y0.92100
X0.61400 Y0.91900
X0.61500 Y0.91900
X0.61500 Y0.91700
X0.61600 Y0.91700
X0.61600 Y0.91300
X0.61700 Y0.91300
X0.61700 Y0.89700
X0.61600 Y0.89700
X0.61600 Y0.89300
X0.61500 Y0.89300
X0.61500 Y0.89200
X0.61400 Y0.89200
X0.61400 Y0.89000
X0.61300 Y0.89000
X0.61300 Y0.88800
X0.61200 Y0.88800
X0.61200 Y0.88700
X0.61100 Y0.88700
X0.61100 Y0.88500
X0.61000 Y0.88500
X0.61000 Y0.88300
X0.60900 Y0.88300
X0.60900 Y0.88200
X0.60800 Y0.88200
X0.60800 Y0.88100
X0.60700 Y0.88100
X0.60700 Y0.88000
X0.60600 Y0.88000
X0.60600 Y0.87800
X0.60500 Y0.87800
X0.60500 Y0.87700
X0.60400 Y0.87700
X0.60400 Y0.87600
X0.60300 Y0.87600
X0.60300 Y0.87500
X0.60100 Y0.87500
X0.60100 Y0.87400
X0.60000 Y0.87400
X0.60000 Y0.87300
X0.59800 Y0.87300
X0.59800 Y0.87200
X0.59600 Y0.87200
X0.59600 Y0.87100
X0.59300 Y0.87100
X0.59300 Y0.87000
X0.58900 Y0.87000
X0.58900 Y0.86900
X0.58300 Y0.86900
X0.58300 Y0.86800
X0.57800 Y0.86800
X0.57800 Y0.86900
X0.57200 Y0.86900
X0.57200 Y0.87000
X0.56700 Y0.87000
X0.56700 Y0.87100
X0.56500 Y0.87100
X0.56500 Y0.87200
X0.56300 Y0.87200
X0.56300 Y0.87300
X0.56100 Y0.87300
X0.56100 Y0.87400
X0.56000 Y0.87400
X0.56000 Y0.87500
X0.55800 Y0.87500
X0.55800 Y0.87600
X0.55700 Y0.87600
X0.55700 Y0.87700
X0.55600 Y0.87700
X0.55600 Y0.87800
X0.55500 Y0.87800
X0.55500 Y0.87900
X0.55400 Y0.87900
X0.55400 Y0.88000
X0.55300 Y0.88000
X0.55300 Y0.88100
X0.55200 Y0.88100
X0.55200 Y0.88200
X0.55100 Y0.88200
X0.55100 Y0.88300
X0.55000 Y0.88300
X0.55000 Y0.88500
X0.54900 Y0.88500
X0.54900 Y0.88600
X0.54800 Y0.88600
X0.54800 Y0.88800
X0.54700 Y0.88800
X0.54700 Y0.89000
X0.54600 Y0.89000
X0.54600 Y0.89300
X0.54500 Y0.89300
X0.54500 Y0.89700
X0.54400 Y0.89700
X0.54400 Y0.90300
X0.54300 Y0.90300
X0.54300 Y0.90800
X0.54400 Y0.90800
X0.54400 Y0.91400
X0.54500 Y0.91400
X0.54500 Y0.91800
X0.54600 Y0.91800
X0.54600 Y0.92100
X0.54700 Y0.92100
X0.54700 Y0.92300
X0.54800 Y0.92300
X0.54800 Y0.92500
X0.54900 Y0.92500
X0.54900 Y0.92600
X0.55000 Y0.92600
X0.55000 Y0.92700
X0.55100 Y0.92700
X0.55100 Y0.92800
X0.55200 Y0.92800
X0.55200 Y0.92900
X0.55300 Y0.92900
X0.55300 Y0.93000
X0.55400 Y0.93000
X0.55400 Y0.93100
X0.55500 Y0.93100
X0.55500 Y0.93200
X0.55600 Y0.93200
X0.55600 Y0.93300
X0.55700 Y0.93300
X0.55700 Y0.93400
X0.55800 Y0.93400
X0.55800 Y0.93500
X0.56000 Y0.93500
X0.56000 Y0.93600
X0.56200 Y0.93600
X0.56200 Y0.93700
X0.56300 Y0.93700
X0.56300 Y0.93800
X0.56500 Y0.93800
X0.56500 Y0.93900
X0.56700 Y0.93900
X0.56700 Y0.94000
X0.56800 Y0.94000
X0.56800 Y0.94100
X0.57200 Y0.94100
X0.57200 Y0.94200
X0.58800 Y0.94200
X0.58800 Y0.94100
X0.59200 Y0.94100
X0.59200 Y0.94000
X0.59400 Y0.94000
X0.59400 Y0.93900
X0.59600 Y0.93900
X0.59600 Y0.93800
X0.59800 Y0.93800
X0.59800 Y0.93700
X0.59900 Y0.93700
X0.59900 Y0.93600
X0.60100 Y0.93600
X0.60100 Y0.93500
X0.60200 Y0.93500
X0.60200 Y0.93400
X0.60300 Y0.93400
X0.60300 Y0.93300
X0.60400 Y0.93300
X0.60400 Y0.93200
G04 P0 ( dwell for no time -- G64 should not smooth over this point )
G00 Z0.19685 ( retract )

G00 X0.75600 Y1.00500 ( rapid move to begin. )
F0.98425
G01 Z-0.01969
G04 P0 ( dwell for no time -- G64 should not smooth over this point )
F1.96850
X0.75600 Y1.00500
X0.75700 Y1.00500
X0.75700 Y1.00400
X0.75800 Y1.00400
X0.75800 Y1.00300
X0.75900 Y1.00300
X0.75900 Y1.00200
X0.76000 Y1.00200
X0.76000 Y1.00100
X0.76100 Y1.00100
X0.76100 Y1.00000
X0.76200 Y1.00000
X0.76200 Y0.99900
X0.76300 Y0.99900
X0.76300 Y0.99800
X0.76400 Y0.99800
X0.76400 Y0.99700
X0.76500 Y0.99700
X0.76500 Y0.99600
X0.76600 Y0.99600
X0.76600 Y0.99500
X0.76700 Y0.99500
X0.76700 Y0.99400
X0.76800 Y0.99400
X0.76800 Y0.99300
X0.76900 Y0.99300
X0.76900 Y0.99200
X0.77000 Y0.99200
X0.77000 Y0.99100
X0.77100 Y0.99100
X0.77100 Y0.99000
X0.77200 Y0.99000
X0.77200 Y0.98900
X0.77300 Y0.98900
X0.77300 Y0.98800
X0.77400 Y0.98800
X0.77400 Y0.98700
X0.77500 Y0.98700
X0.77500 Y0.98600
X0.77600 Y0.98600
X0.77600 Y0.98500
X0.77700 Y0.98500
X0.77700 Y0.98400
X0.77800 Y0.98400
X0.77800 Y0.98300
X0.77900 Y0.98300
X0.77900 Y0.98200
X0.78000 Y0.98200
X0.78000 Y0.98100
X0.78100 Y0.98100
X0.78100 Y0.98000
X0.78200 Y0.98000
X0.78200 Y0.97900
X0.78300 Y0.97900
X0.78300 Y0.97800
X0.78400 Y0.97800
X0.78400 Y0.97700
X0.78600 Y0.97700
X0.78600 Y0.97600
X0.78900 Y0.97600
X0.78900 Y0.97500
X0.79200 Y0.97500
X0.79200 Y0.97400
X0.79500 Y0.97400
X0.79500 Y0.97300
X0.83100 Y0.97300
X0.83100 Y0.97200
X0.83700 Y0.97200
X0.83700 Y0.97100
X0.84000 Y0.97100
X0.84000 Y0.97000
X0.84100 Y0.97000
X0.84100 Y0.96700
X0.84200 Y0.96700
X0.84200 Y0.96100
X0.84300 Y0.96100
X0.84300 Y0.90900
X0.84200 Y0.90900
X0.84200 Y0.90400
X0.84100 Y0.90400
X0.84100 Y0.90000
X0.83800 Y0.90000
X0.83800 Y0.89900
X0.83400 Y0.89900
X0.83400 Y0.89800
X0.77700 Y0.89800
X0.77700 Y0.89900
X0.77300 Y0.89900
X0.77300 Y0.90000
X0.77000 Y0.90000
X0.77000 Y0.90300
X0.76900 Y0.90300
X0.76900 Y0.90700
X0.76800 Y0.90700
X0.76800 Y0.94600
X0.76700 Y0.94600
X0.76700 Y0.94900
X0.76600 Y0.94900
X0.76600 Y0.95200
X0.76500 Y0.95200
X0.76500 Y0.95500
X0.76400 Y0.95500
X0.76400 Y0.95600
X0.76300 Y0.95600
X0.76300 Y0.95700
X0.76200 Y0.95700
X0.76200 Y0.95800
X0.76100 Y0.95800
X0.76100 Y0.95900
X0.76000 Y0.95900
X0.76000 Y0.96000
X0.75900 Y0.96000
X0.75900 Y0.96100
X0.75800 Y0.96100
X0.75800 Y0.96200
X0.75700 Y0.96200
X0.75700 Y0.96300
X0.75600 Y0.96300
X0.75600 Y0.96400
X0.75500 Y0.96400
X0.75500 Y0.96500
X0.75400 Y0.96500
X0.75400 Y0.96600
X0.75300 Y0.96600
X0.75300 Y0.96700
X0.75200 Y0.96700
X0.75200 Y0.96800
X0.75100 Y0.96800
X0.75100 Y0.96900
X0.75000 Y0.96900
X0.75000 Y0.97000
X0.74900 Y0.97000
X0.74900 Y0.97100
X0.74800 Y0.97100
X0.74800 Y0.97200
X0.74700 Y0.97200
X0.74700 Y0.97300
X0.74600 Y0.97300
X0.74600 Y0.97400
X0.74500 Y0.97400
X0.74500 Y0.97500
X0.74400 Y0.97500
X0.74400 Y0.97600
X0.74300 Y0.97600
X0.74300 Y0.97700
X0.74200 Y0.97700
X0.74200 Y0.97800
X0.74100 Y0.97800
X0.74100 Y0.97900
X0.74000 Y0.97900
X0.74000 Y0.98000
X0.73700 Y0.98000
X0.73700 Y0.98100
X0.48900 Y0.98100
X0.48900 Y0.98000
X0.48600 Y0.98000
X0.48600 Y0.97900
X0.48500 Y0.97900
X0.48500 Y0.97800
X0.48400 Y0.97800
X0.48400 Y0.97700
X0.48300 Y0.97700
X0.48300 Y0.97600
X0.48200 Y0.97600
X0.48200 Y0.97500
X0.48100 Y0.97500
X0.48100 Y0.97200
X0.48000 Y0.97200
X0.48000 Y0.89300
X0.47900 Y0.89300
X0.47900 Y0.89000
X0.47800 Y0.89000
X0.47800 Y0.88700
X0.47700 Y0.88700
X0.47700 Y0.88600
X0.47600 Y0.88600
X0.47600 Y0.88400
X0.47500 Y0.88400
X0.47500 Y0.88300
X0.47400 Y0.88300
X0.47400 Y0.88200
X0.47300 Y0.88200
X0.47300 Y0.88100
X0.47200 Y0.88100
X0.47200 Y0.88000
X0.47100 Y0.88000
X0.47100 Y0.87900
X0.47000 Y0.87900
X0.47000 Y0.87800
X0.46900 Y0.87800
X0.46900 Y0.87700
X0.46800 Y0.87700
X0.46800 Y0.87600
X0.46700 Y0.87600
X0.46700 Y0.87500
X0.46600 Y0.87500
X0.46600 Y0.87400
X0.46500 Y0.87400
X0.46500 Y0.87300
X0.46400 Y0.87300
X0.46400 Y0.87200
X0.46300 Y0.87200
X0.46300 Y0.87100
X0.46200 Y0.87100
X0.46200 Y0.87000
X0.46100 Y0.87000
X0.46100 Y0.86900
X0.46000 Y0.86900
X0.46000 Y0.86800
X0.45900 Y0.86800
X0.45900 Y0.86700
X0.45800 Y0.86700
X0.45800 Y0.86600
X0.45700 Y0.86600
X0.45700 Y0.86500
X0.45600 Y0.86500
X0.45600 Y0.86400
X0.45500 Y0.86400
X0.45500 Y0.86300
X0.45400 Y0.86300
X0.45400 Y0.86200
X0.45300 Y0.86200
X0.45300 Y0.86100
X0.45200 Y0.86100
X0.45200 Y0.86000
X0.45100 Y0.86000
X0.45100 Y0.85900
X0.45000 Y0.85900
X0.45000 Y0.85800
X0.44900 Y0.85800
X0.44900 Y0.85700
X0.44800 Y0.85700
X0.44800 Y0.85600
X0.44700 Y0.85600
X0.44700 Y0.85500
X0.44600 Y0.85500
X0.44600 Y0.85400
X0.44500 Y0.85400
X0.44500 Y0.85300
X0.44400 Y0.85300
X0.44400 Y0.85200
X0.44300 Y0.85200
X0.44300 Y0.85100
X0.44200 Y0.85100
X0.44200 Y0.85000
X0.44100 Y0.85000
X0.44100 Y0.84900
X0.44000 Y0.84900
X0.44000 Y0.84800
X0.43900 Y0.84800
X0.43900 Y0.84700
X0.43800 Y0.84700
X0.43800 Y0.84600
X0.43700 Y0.84600
X0.43700 Y0.84500
X0.43600 Y0.84500
X0.43600 Y0.84400
X0.43500 Y0.84400
X0.43500 Y0.84300
X0.43400 Y0.84300
X0.43400 Y0.84200
X0.43300 Y0.84200
X0.43300 Y0.84100
X0.43200 Y0.84100
X0.43200 Y0.84000
X0.43100 Y0.84000
X0.43100 Y0.83900
X0.43000 Y0.83900
X0.43000 Y0.83800
X0.42900 Y0.83800
X0.42900 Y0.83700
X0.42800 Y0.83700
X0.42800 Y0.83600
X0.42700 Y0.83600
X0.42700 Y0.83500
X0.42600 Y0.83500
X0.42600 Y0.83400
X0.42500 Y0.83400
X0.42500 Y0.83300
X0.42400 Y0.83300
X0.42400 Y0.83200
X0.42300 Y0.83200
X0.42300 Y0.83100
X0.42200 Y0.83100
X0.42200 Y0.83000
X0.42100 Y0.83000
X0.42100 Y0.82900
X0.42000 Y0.82900
X0.42000 Y0.82800
X0.41900 Y0.82800
X0.41900 Y0.82700
X0.41800 Y0.82700
X0.41800 Y0.82600
X0.41700 Y0.82600
X0.41700 Y0.82500
X0.41600 Y0.82500
X0.41600 Y0.82400
X0.41500 Y0.82400
X0.41500 Y0.82300
X0.41400 Y0.82300
X0.41400 Y0.82200
X0.41300 Y0.82200
X0.41300 Y0.82100
X0.41200 Y0.82100
X0.41200 Y0.82000
X0.41100 Y0.82000
X0.41100 Y0.81900
X0.41000 Y0.81900
X0.41000 Y0.81800
X0.40900 Y0.81800
X0.40900 Y0.81700
X0.40800 Y0.81700
X0.40800 Y0.81600
X0.40700 Y0.81600
X0.40700 Y0.81500
X0.40600 Y0.81500
X0.40600 Y0.81400
X0.40500 Y0.81400
X0.40500 Y0.81300
X0.40400 Y0.81300
X0.40400 Y0.81200
X0.40300 Y0.81200
X0.40300 Y0.81100
X0.40100 Y0.81100
X0.40100 Y0.81000
X0.39900 Y0.81000
X0.39900 Y0.80900
X0.39500 Y0.80900
X0.39500 Y0.80800
X0.30600 Y0.80800
X0.30600 Y0.80700
X0.30300 Y0.80700
X0.30300 Y0.80600
X0.30200 Y0.80600
X0.30200 Y0.80500
X0.30100 Y0.80500
X0.30100 Y0.80400
X0.30000 Y0.80400
X0.30000 Y0.80300
X0.29900 Y0.80300
X0.29900 Y0.80200
X0.29800 Y0.80200
X0.29800 Y0.80100
X0.29700 Y0.80100
X0.29700 Y0.80000
X0.29600 Y0.80000
X0.29600 Y0.79900
X0.29500 Y0.79900
X0.29500 Y0.79800
X0.29400 Y0.79800
X0.29400 Y0.79700
X0.29300 Y0.79700
X0.29300 Y0.79600
X0.29200 Y0.79600
X0.29200 Y0.79500
X0.29100 Y0.79500
X0.29100 Y0.79400
X0.29000 Y0.79400
X0.29000 Y0.79300
X0.28900 Y0.79300
X0.28900 Y0.79200
X0.28800 Y0.79200
X0.28800 Y0.79100
X0.28700 Y0.79100
X0.28700 Y0.79000
X0.28600 Y0.79000
X0.28600 Y0.78900
X0.28500 Y0.78900
X0.28500 Y0.78800
X0.28400 Y0.78800
X0.28400 Y0.78700
X0.28300 Y0.78700
X0.28300 Y0.78600
X0.28200 Y0.78600
X0.28200 Y0.78500
X0.28100 Y0.78500
X0.28100 Y0.78400
X0.28000 Y0.78400
X0.28000 Y0.78300
X0.27900 Y0.78300
X0.27900 Y0.78200
X0.27800 Y0.78200
X0.27800 Y0.78100
X0.27700 Y0.78100
X0.27700 Y0.78000
X0.27600 Y0.78000
X0.27600 Y0.77900
X0.27500 Y0.77900
X0.27500 Y0.77800
X0.27400 Y0.77800
X0.27400 Y0.77700
X0.27300 Y0.77700
X0.27300 Y0.77600
X0.27200 Y0.77600
X0.27200 Y0.77500
X0.27100 Y0.77500
X0.27100 Y0.77400
X0.26900 Y0.77400
X0.26900 Y0.77300
X0.26700 Y0.77300
X0.26700 Y0.77200
X0.26400 Y0.77200
X0.26400 Y0.77100
X0.21900 Y0.77100
X0.21900 Y0.77000
X0.21600 Y0.77000
X0.21600 Y0.76900
X0.21500 Y0.76900
X0.21500 Y0.76800
X0.21400 Y0.76800
X0.21400 Y0.76700
X0.21300 Y0.76700
X0.21300 Y0.76600
X0.21200 Y0.76600
X0.21200 Y0.76500
X0.21100 Y0.76500
X0.21100 Y0.76400
X0.21000 Y0.76400
X0.21000 Y0.76300
X0.20900 Y0.76300
X0.20900 Y0.76200
X0.20800 Y0.76200
X0.20800 Y0.76100
X0.20700 Y0.76100
X0.20700 Y0.76000
X0.20600 Y0.76000
X0.20600 Y0.75900
X0.20500 Y0.75900
X0.20500 Y0.75800
X0.20400 Y0.75800
X0.20400 Y0.75700
X0.20300 Y0.75700
X0.20300 Y0.75600
X0.20200 Y0.75600
X0.20200 Y0.75500
X0.20100 Y0.75500
X0.20100 Y0.75200
X0.20000 Y0.75200
X0.20000 Y0.63500
X0.19900 Y0.63500
X0.19900 Y0.63200
X0.19800 Y0.63200
X0.19800 Y0.62900
X0.19700 Y0.62900
X0.19700 Y0.62800
X0.19600 Y0.62800
X0.19600 Y0.62600
X0.19500 Y0.62600
X0.19500 Y0.62500
X0.19400 Y0.62500
X0.19400 Y0.62400
X0.19300 Y0.62400
X0.19300 Y0.62300
X0.19200 Y0.62300
X0.19200 Y0.62200
X0.19100 Y0.62200
X0.19100 Y0.62100
X0.19000 Y0.62100
X0.19000 Y0.62000
X0.18900 Y0.62000
X0.18900 Y0.61900
X0.18800 Y0.61900
X0.18800 Y0.61800
X0.18700 Y0.61800
X0.18700 Y0.61700
X0.18600 Y0.61700
X0.18600 Y0.61600
X0.18500 Y0.61600
X0.18500 Y0.61500
X0.18400 Y0.61500
X0.18400 Y0.61400
X0.18300 Y0.61400
X0.18300 Y0.61300
X0.18200 Y0.61300
X0.18200 Y0.61200
X0.18100 Y0.61200
X0.18100 Y0.61100
X0.18000 Y0.61100
X0.18000 Y0.61000
X0.17900 Y0.61000
X0.17900 Y0.60900
X0.17800 Y0.60900
X0.17800 Y0.60800
X0.17700 Y0.60800
X0.17700 Y0.60700
X0.17600 Y0.60700
X0.17600 Y0.60600
X0.17500 Y0.60600
X0.17500 Y0.60500
X0.17400 Y0.60500
X0.17400 Y0.60400
X0.17300 Y0.60400
X0.17300 Y0.60300
X0.17200 Y0.60300
X0.17200 Y0.60000
X0.17100 Y0.60000
X0.17100 Y0.59600
X0.17000 Y0.59600
X0.17000 Y0.59200
X0.16900 Y0.59200
X0.16900 Y0.59000
X0.16800 Y0.59000
X0.16800 Y0.58900
X0.16700 Y0.58900
X0.16700 Y0.58700
X0.16600 Y0.58700
X0.16600 Y0.58600
X0.16400 Y0.58600
X0.16400 Y0.58500
X0.16300 Y0.58500
X0.16300 Y0.58400
X0.16100 Y0.58400
X0.16100 Y0.58300
X0.15700 Y0.58300
X0.15700 Y0.58200
X0.15500 Y0.58200
X0.15500 Y0.58100
X0.15200 Y0.58100
X0.15200 Y0.58000
X0.14900 Y0.58000
X0.14900 Y0.57900
X0.14800 Y0.57900
X0.14800 Y0.57800
X0.14700 Y0.57800
X0.14700 Y0.57700
X0.14600 Y0.57700
X0.14600 Y0.57600
X0.14500 Y0.57600
X0.14500 Y0.57500
X0.14400 Y0.57500
X0.14400 Y0.57400
X0.14300 Y0.57400
X0.14300 Y0.57300
X0.14200 Y0.57300
X0.14200 Y0.57200
X0.14100 Y0.57200
X0.14100 Y0.57100
X0.14000 Y0.57100
X0.14000 Y0.57000
X0.13900 Y0.57000
X0.13900 Y0.56900
X0.13800 Y0.56900
X0.13800 Y0.56800
X0.13700 Y0.56800
X0.13700 Y0.56700
X0.13600 Y0.56700
X0.13600 Y0.56600
X0.13500 Y0.56600
X0.13500 Y0.56500
X0.13400 Y0.56500
X0.13400 Y0.56400
X0.13300 Y0.56400
X0.13300 Y0.56300
X0.13200 Y0.56300
X0.13200 Y0.56200
X0.13100 Y0.56200
X0.13100 Y0.56100
X0.13000 Y0.56100
X0.13000 Y0.56000
X0.12900 Y0.56000
X0.12900 Y0.55900
X0.12800 Y0.55900
X0.12800 Y0.55800
X0.12700 Y0.55800
X0.12700 Y0.55700
X0.12600 Y0.55700
X0.12600 Y0.55600
X0.12500 Y0.55600
X0.12500 Y0.55500
X0.12400 Y0.55500
X0.12400 Y0.55400
X0.12300 Y0.55400
X0.12300 Y0.55300
X0.12200 Y0.55300
X0.12200 Y0.55200
X0.12100 Y0.55200
X0.12100 Y0.55100
X0.12000 Y0.55100
X0.12000 Y0.55000
X0.11900 Y0.55000
X0.11900 Y0.54900
X0.11800 Y0.54900
X0.11800 Y0.54800
X0.11700 Y0.54800
X0.11700 Y0.54700
X0.11600 Y0.54700
X0.11600 Y0.54600
X0.11500 Y0.54600
X0.11500 Y0.54500
X0.11400 Y0.54500
X0.11400 Y0.54400
X0.11300 Y0.54400
X0.11300 Y0.54300
X0.11200 Y0.54300
X0.11200 Y0.54200
X0.11100 Y0.54200
X0.11100 Y0.54100
X0.11000 Y0.54100
X0.11000 Y0.54000
X0.10900 Y0.54000
X0.10900 Y0.53900
X0.10800 Y0.53900
X0.10800 Y0.53800
X0.10700 Y0.53800
X0.10700 Y0.53700
X0.10600 Y0.53700
X0.10600 Y0.53600
X0.10500 Y0.53600
X0.10500 Y0.53500
X0.10400 Y0.53500
X0.10400 Y0.53400
X0.10300 Y0.53400
X0.10300 Y0.53300
X0.10200 Y0.53300
X0.10200 Y0.53200
X0.10100 Y0.53200
X0.10100 Y0.53100
X0.10000 Y0.53100
X0.10000 Y0.53000
X0.09900 Y0.53000
X0.09900 Y0.52900
X0.09800 Y0.52900
X0.09800 Y0.52800
X0.09700 Y0.52800
X0.09700 Y0.52700
X0.09600 Y0.52700
X0.09600 Y0.52600
X0.09500 Y0.52600
X0.09500 Y0.52500
X0.09400 Y0.52500
X0.09400 Y0.52400
X0.09300 Y0.52400
X0.09300 Y0.52300
X0.09200 Y0.52300
X0.09200 Y0.52200
X0.09100 Y0.52200
X0.09100 Y0.52100
X0.09000 Y0.52100
X0.09000 Y0.52000
X0.08900 Y0.52000
X0.08900 Y0.51900
X0.08800 Y0.51900
X0.08800 Y0.51800
X0.08700 Y0.51800
X0.08700 Y0.51700
X0.08600 Y0.51700
X0.08600 Y0.51400
X0.08500 Y0.51400
X0.08500 Y0.32900
X0.08600 Y0.32900
X0.08600 Y0.32600
X0.08700 Y0.32600
X0.08700 Y0.32400
X0.08800 Y0.32400
X0.08800 Y0.32300
X0.08900 Y0.32300
X0.08900 Y0.32200
X0.09000 Y0.32200
X0.09000 Y0.32100
X0.09100 Y0.32100
X0.09100 Y0.32000
X0.09200 Y0.32000
X0.09200 Y0.31900
X0.09300 Y0.31900
X0.09300 Y0.31800
X0.09400 Y0.31800
X0.09400 Y0.31700
X0.09500 Y0.31700
X0.09500 Y0.31600
X0.09600 Y0.31600
X0.09600 Y0.31500
X0.09700 Y0.31500
X0.09700 Y0.31400
X0.09800 Y0.31400
X0.09800 Y0.31300
X0.09900 Y0.31300
X0.09900 Y0.31200
X0.10000 Y0.31200
X0.10000 Y0.31100
X0.10100 Y0.31100
X0.10100 Y0.31000
X0.10200 Y0.31000
X0.10200 Y0.30900
X0.10300 Y0.30900
X0.10300 Y0.30800
X0.10400 Y0.30800
X0.10400 Y0.30700
X0.10500 Y0.30700
X0.10500 Y0.30600
X0.10700 Y0.30600
X0.10700 Y0.30500
X0.11400 Y0.30500
X0.11400 Y0.30600
X0.11500 Y0.30600
X0.11500 Y0.30700
X0.11700 Y0.30700
X0.11700 Y0.30800
X0.11900 Y0.30800
X0.11900 Y0.30900
X0.12100 Y0.30900
X0.12100 Y0.31000
X0.12300 Y0.31000
X0.12300 Y0.31100
X0.12400 Y0.31100
X0.12400 Y0.31200
X0.12600 Y0.31200
X0.12600 Y0.31300
X0.12800 Y0.31300
X0.12800 Y0.31400
X0.13000 Y0.31400
X0.13000 Y0.31500
X0.13200 Y0.31500
X0.13200 Y0.31600
X0.13400 Y0.31600
X0.13400 Y0.31700
X0.13500 Y0.31700
X0.13500 Y0.31800
X0.13800 Y0.31800
X0.13800 Y0.31900
X0.14100 Y0.31900
X0.14100 Y0.32000
X0.14400 Y0.32000
X0.14400 Y0.32100
X0.14600 Y0.32100
X0.14600 Y0.32200
X0.14900 Y0.32200
X0.14900 Y0.32300
X0.15200 Y0.32300
X0.15200 Y0.32400
X0.15600 Y0.32400
X0.15600 Y0.32500
X0.16000 Y0.32500
X0.16000 Y0.32600
X0.16500 Y0.32600
X0.16500 Y0.32700
X0.17500 Y0.32700
X0.17500 Y0.32800
X0.19600 Y0.32800
X0.19600 Y0.32700
X0.20500 Y0.32700
X0.20500 Y0.32600
X0.20800 Y0.32600
X0.20800 Y0.32500
X0.21300 Y0.32500
X0.21300 Y0.32400
X0.21800 Y0.32400
X0.21800 Y0.32300
X0.22100 Y0.32300
X0.22100 Y0.32200
X0.22400 Y0.32200
X0.22400 Y0.32100
X0.22600 Y0.32100
X0.22600 Y0.32000
X0.23000 Y0.32000
X0.23000 Y0.31900
X0.23300 Y0.31900
X0.23300 Y0.31800
X0.23600 Y0.31800
X0.23600 Y0.31700
X0.23700 Y0.31700
X0.23700 Y0.31600
X0.23900 Y0.31600
X0.23900 Y0.31500
X0.24100 Y0.31500
X0.24100 Y0.31400
X0.24300 Y0.31400
X0.24300 Y0.31300
X0.24500 Y0.31300
X0.24500 Y0.31200
X0.24700 Y0.31200
X0.24700 Y0.31100
X0.24800 Y0.31100
X0.24800 Y0.31000
X0.25000 Y0.31000
X0.25000 Y0.30900
X0.25200 Y0.30900
X0.25200 Y0.30800
X0.25400 Y0.30800
X0.25400 Y0.30700
X0.26100 Y0.30700
X0.26100 Y0.30800
X0.26200 Y0.30800
X0.26200 Y0.30900
X0.26400 Y0.30900
X0.26400 Y0.31000
X0.26500 Y0.31000
X0.26500 Y0.31100
X0.26600 Y0.31100
X0.26600 Y0.31200
X0.26700 Y0.31200
X0.26700 Y0.31300
X0.26800 Y0.31300
X0.26800 Y0.31400
X0.26900 Y0.31400
X0.26900 Y0.31500
X0.27000 Y0.31500
X0.27000 Y0.31600
X0.27100 Y0.31600
X0.27100 Y0.31700
X0.27200 Y0.31700
X0.27200 Y0.31800
X0.27300 Y0.31800
X0.27300 Y0.31900
X0.27400 Y0.31900
X0.27400 Y0.32000
X0.27500 Y0.32000
X0.27500 Y0.32100
X0.27600 Y0.32100
X0.27600 Y0.32200
X0.27700 Y0.32200
X0.27700 Y0.32300
X0.27800 Y0.32300
X0.27800 Y0.32400
X0.27900 Y0.32400
X0.27900 Y0.32500
X0.28000 Y0.32500
X0.28000 Y0.32600
X0.28100 Y0.32600
X0.28100 Y0.32700
X0.28200 Y0.32700
X0.28200 Y0.32800
X0.28300 Y0.32800
X0.28300 Y0.32900
X0.28400 Y0.32900
X0.28400 Y0.33000
X0.28500 Y0.33000
X0.28500 Y0.33100
X0.28600 Y0.33100
X0.28600 Y0.33200
X0.28700 Y0.33200
X0.28700 Y0.33300
X0.28800 Y0.33300
X0.28800 Y0.33400
X0.28900 Y0.33400
X0.28900 Y0.33500
X0.29000 Y0.33500
X0.29000 Y0.33600
X0.29100 Y0.33600
X0.29100 Y0.33700
X0.29200 Y0.33700
X0.29200 Y0.33800
X0.29300 Y0.33800
X0.29300 Y0.33900
X0.29400 Y0.33900
X0.29400 Y0.34000
X0.29500 Y0.34000
X0.29500 Y0.34100
X0.29600 Y0.34100
X0.29600 Y0.34200
X0.29700 Y0.34200
X0.29700 Y0.34300
X0.29800 Y0.34300
X0.29800 Y0.34400
X0.29900 Y0.34400
X0.29900 Y0.34500
X0.30000 Y0.34500
X0.30000 Y0.34600
X0.30100 Y0.34600
X0.30100 Y0.34700
X0.30200 Y0.34700
X0.30200 Y0.34800
X0.30300 Y0.34800
X0.30300 Y0.34900
X0.30400 Y0.34900
X0.30400 Y0.35000
X0.30500 Y0.35000
X0.30500 Y0.35100
X0.30600 Y0.35100
X0.30600 Y0.35200
X0.30700 Y0.35200
X0.30700 Y0.35300
X0.30800 Y0.35300
X0.30800 Y0.35400
X0.30900 Y0.35400
X0.30900 Y0.35500
X0.31000 Y0.35500
X0.31000 Y0.35600
X0.31100 Y0.35600
X0.31100 Y0.35700
X0.31200 Y0.35700
X0.31200 Y0.35800
X0.31300 Y0.35800
X0.31300 Y0.35900
X0.31400 Y0.35900
X0.31400 Y0.36000
X0.31500 Y0.36000
X0.31500 Y0.36100
X0.31600 Y0.36100
X0.31600 Y0.36200
X0.31700 Y0.36200
X0.31700 Y0.36300
X0.31800 Y0.36300
X0.31800 Y0.36400
X0.31900 Y0.36400
X0.31900 Y0.36500
X0.32000 Y0.36500
X0.32000 Y0.36600
X0.32100 Y0.36600
X0.32100 Y0.36700
X0.32200 Y0.36700
X0.32200 Y0.36800
X0.32300 Y0.36800
X0.32300 Y0.36900
X0.32400 Y0.36900
X0.32400 Y0.37000
X0.32500 Y0.37000
X0.32500 Y0.37100
X0.32600 Y0.37100
X0.32600 Y0.37200
X0.32700 Y0.37200
X0.32700 Y0.37300
X0.32800 Y0.37300
X0.32800 Y0.37400
X0.32900 Y0.37400
X0.32900 Y0.37500
X0.33000 Y0.37500
X0.33000 Y0.37600
X0.33100 Y0.37600
X0.33100 Y0.37700
X0.33200 Y0.37700
X0.33200 Y0.37800
X0.33300 Y0.37800
X0.33300 Y0.37900
X0.33400 Y0.37900
X0.33400 Y0.38100
X0.33500 Y0.38100
X0.33500 Y0.38200
X0.33600 Y0.38200
X0.33600 Y0.38300
X0.33700 Y0.38300
X0.33700 Y0.38400
X0.33800 Y0.38400
X0.33800 Y0.38500
X0.33900 Y0.38500
X0.33900 Y0.38600
X0.34000 Y0.38600
X0.34000 Y0.38700
X0.34100 Y0.38700
X0.34100 Y0.38800
X0.34200 Y0.38800
X0.34200 Y0.38900
X0.34300 Y0.38900
X0.34300 Y0.39000
X0.34400 Y0.39000
X0.34400 Y0.39100
X0.34500 Y0.39100
X0.34500 Y0.39200
X0.34600 Y0.39200
X0.34600 Y0.39300
X0.34700 Y0.39300
X0.34700 Y0.39400
X0.34800 Y0.39400
X0.34800 Y0.39500
X0.34900 Y0.39500
X0.34900 Y0.39600
X0.35000 Y0.39600
X0.35000 Y0.39700
X0.35100 Y0.39700
X0.35100 Y0.39800
X0.35200 Y0.39800
X0.35200 Y0.39900
X0.35300 Y0.39900
X0.35300 Y0.40000
X0.35400 Y0.40000
X0.35400 Y0.40100
X0.35500 Y0.40100
X0.35500 Y0.40200
X0.35600 Y0.40200
X0.35600 Y0.40300
X0.35700 Y0.40300
X0.35700 Y0.40400
X0.35800 Y0.40400
X0.35800 Y0.40500
X0.35900 Y0.40500
X0.35900 Y0.40600
X0.36000 Y0.40600
X0.36000 Y0.40700
X0.36100 Y0.40700
X0.36100 Y0.40800
X0.36200 Y0.40800
X0.36200 Y0.40900
X0.36300 Y0.40900
X0.36300 Y0.41000
X0.36400 Y0.41000
X0.36400 Y0.41100
X0.36500 Y0.41100
X0.36500 Y0.41200
X0.36600 Y0.41200
X0.36600 Y0.41300
X0.36700 Y0.41300
X0.36700 Y0.41400
X0.36800 Y0.41400
X0.36800 Y0.41500
X0.36900 Y0.41500
X0.36900 Y0.41600
X0.37000 Y0.41600
X0.37000 Y0.41700
X0.37100 Y0.41700
X0.37100 Y0.41800
X0.37200 Y0.41800
X0.37200 Y0.41900
X0.37300 Y0.41900
X0.37300 Y0.42000
X0.37400 Y0.42000
X0.37400 Y0.42100
X0.37500 Y0.42100
X0.37500 Y0.42200
X0.37600 Y0.42200
X0.37600 Y0.42300
X0.37700 Y0.42300
X0.37700 Y0.42400
X0.37800 Y0.42400
X0.37800 Y0.42500
X0.37900 Y0.42500
X0.37900 Y0.42600
X0.38000 Y0.42600
X0.38000 Y0.42700
X0.38100 Y0.42700
X0.38100 Y0.42800
X0.38200 Y0.42800
X0.38200 Y0.42900
X0.38300 Y0.42900
X0.38300 Y0.43000
X0.38400 Y0.43000
X0.38400 Y0.43100
X0.38500 Y0.43100
X0.38500 Y0.43200
X0.38600 Y0.43200
X0.38600 Y0.43300
X0.38700 Y0.43300
X0.38700 Y0.43400
X0.38800 Y0.43400
X0.38800 Y0.43500
X0.38900 Y0.43500
X0.38900 Y0.43600
X0.39000 Y0.43600
X0.39000 Y0.43700
X0.39100 Y0.43700
X0.39100 Y0.43800
X0.39200 Y0.43800
X0.39200 Y0.43900
X0.39300 Y0.43900
X0.39300 Y0.44000
X0.39400 Y0.44000
X0.39400 Y0.44100
X0.39500 Y0.44100
X0.39500 Y0.44200
X0.39600 Y0.44200
X0.39600 Y0.44300
X0.39700 Y0.44300
X0.39700 Y0.44400
X0.39800 Y0.44400
X0.39800 Y0.44500
X0.39900 Y0.44500
X0.39900 Y0.44600
X0.40000 Y0.44600
X0.40000 Y0.44700
X0.40100 Y0.44700
X0.40100 Y0.44800
X0.40200 Y0.44800
X0.40200 Y0.44900
X0.40300 Y0.44900
X0.40300 Y0.45000
X0.40400 Y0.45000
X0.40400 Y0.45100
X0.40500 Y0.45100
X0.40500 Y0.45200
X0.40600 Y0.45200
X0.40600 Y0.45300
X0.40700 Y0.45300
X0.40700 Y0.45400
X0.40800 Y0.45400
X0.40800 Y0.45500
X0.40900 Y0.45500
X0.40900 Y0.45600
X0.41000 Y0.45600
X0.41000 Y0.45700
X0.41100 Y0.45700
X0.41100 Y0.45800
X0.41200 Y0.45800
X0.41200 Y0.45900
X0.41300 Y0.45900
X0.41300 Y0.46000
X0.41400 Y0.46000
X0.41400 Y0.46100
X0.41500 Y0.46100
X0.41500 Y0.46200
X0.41600 Y0.46200
X0.41600 Y0.46300
X0.41700 Y0.46300
X0.41700 Y0.46400
X0.41800 Y0.46400
X0.41800 Y0.46500
X0.41900 Y0.46500
X0.41900 Y0.46600
X0.42000 Y0.46600
X0.42000 Y0.46700
X0.42100 Y0.46700
X0.42100 Y0.46800
X0.42200 Y0.46800
X0.42200 Y0.46900
X0.42300 Y0.46900
X0.42300 Y0.47000
X0.42400 Y0.47000
X0.42400 Y0.47100
X0.42500 Y0.47100
X0.42500 Y0.47200
X0.42600 Y0.47200
X0.42600 Y0.47300
X0.42700 Y0.47300
X0.42700 Y0.47400
X0.42800 Y0.47400
X0.42800 Y0.47500
X0.42900 Y0.47500
X0.42900 Y0.47600
X0.43000 Y0.47600
X0.43000 Y0.47700
X0.43100 Y0.47700
X0.43100 Y0.47800
X0.43200 Y0.47800
X0.43200 Y0.47900
X0.43300 Y0.47900
X0.43300 Y0.48000
X0.43400 Y0.48000
X0.43400 Y0.48100
X0.43500 Y0.48100
X0.43500 Y0.48200
X0.43600 Y0.48200
X0.43600 Y0.48300
X0.43700 Y0.48300
X0.43700 Y0.48400
X0.43800 Y0.48400
X0.43800 Y0.48500
X0.43900 Y0.48500
X0.43900 Y0.48600
X0.44000 Y0.48600
X0.44000 Y0.48700
X0.44100 Y0.48700
X0.44100 Y0.48800
X0.44200 Y0.48800
X0.44200 Y0.48900
X0.44300 Y0.48900
X0.44300 Y0.49000
X0.44400 Y0.49000
X0.44400 Y0.49100
X0.44500 Y0.49100
X0.44500 Y0.49200
X0.44600 Y0.49200
X0.44600 Y0.49300
X0.44700 Y0.49300
X0.44700 Y0.49400
X0.44800 Y0.49400
X0.44800 Y0.49500
X0.44900 Y0.49500
X0.44900 Y0.49600
X0.45000 Y0.49600
X0.45000 Y0.49700
X0.45100 Y0.49700
X0.45100 Y0.49800
X0.45200 Y0.49800
X0.45200 Y0.49900
X0.45300 Y0.49900
X0.45300 Y0.50000
X0.45400 Y0.50000
X0.45400 Y0.50100
X0.45500 Y0.50100
X0.45500 Y0.50200
X0.45600 Y0.50200
X0.45600 Y0.50300
X0.45700 Y0.50300
X0.45700 Y0.50400
X0.45800 Y0.50400
X0.45800 Y0.50500
X0.45900 Y0.50500
X0.45900 Y0.50600
X0.46000 Y0.50600
X0.46000 Y0.50700
X0.46100 Y0.50700
X0.46100 Y0.50800
X0.46200 Y0.50800
X0.46200 Y0.50900
X0.46300 Y0.50900
X0.46300 Y0.51000
X0.46400 Y0.51000
X0.46400 Y0.51100
X0.46500 Y0.51100
X0.46500 Y0.51200
X0.46600 Y0.51200
X0.46600 Y0.51300
X0.46700 Y0.51300
X0.46700 Y0.51400
X0.46800 Y0.51400
X0.46800 Y0.51500
X0.46900 Y0.51500
X0.46900 Y0.51600
X0.47000 Y0.51600
X0.47000 Y0.51700
X0.47100 Y0.51700
X0.47100 Y0.51800
X0.47200 Y0.51800
X0.47200 Y0.51900
X0.47300 Y0.51900
X0.47300 Y0.52000
X0.47400 Y0.52000
X0.47400 Y0.52100
X0.47500 Y0.52100
X0.47500 Y0.52200
X0.47600 Y0.52200
X0.47600 Y0.52300
X0.47700 Y0.52300
X0.47700 Y0.52400
X0.47800 Y0.52400
X0.47800 Y0.52500
X0.47900 Y0.52500
X0.47900 Y0.52600
X0.48000 Y0.52600
X0.48000 Y0.52700
X0.48100 Y0.52700
X0.48100 Y0.52800
X0.48200 Y0.52800
X0.48200 Y0.52900
X0.48300 Y0.52900
X0.48300 Y0.53000
X0.48400 Y0.53000
X0.48400 Y0.53100
X0.48500 Y0.53100
X0.48500 Y0.53200
X0.48600 Y0.53200
X0.48600 Y0.53300
X0.48700 Y0.53300
X0.48700 Y0.53400
X0.48800 Y0.53400
X0.48800 Y0.53500
X0.48900 Y0.53500
X0.48900 Y0.53600
X0.49000 Y0.53600
X0.49000 Y0.53700
X0.49100 Y0.53700
X0.49100 Y0.53800
X0.49200 Y0.53800
X0.49200 Y0.53900
X0.49300 Y0.53900
X0.49300 Y0.54000
X0.49400 Y0.54000
X0.49400 Y0.54100
X0.49500 Y0.54100
X0.49500 Y0.54200
X0.49600 Y0.54200
X0.49600 Y0.54300
X0.49700 Y0.54300
X0.49700 Y0.54400
X0.49800 Y0.54400
X0.49800 Y0.54500
X0.49900 Y0.54500
X0.49900 Y0.54600
X0.50000 Y0.54600
X0.50000 Y0.54700
X0.50100 Y0.54700
X0.50100 Y0.54800
X0.50200 Y0.54800
X0.50200 Y0.54900
X0.50300 Y0.54900
X0.50300 Y0.55000
X0.50400 Y0.55000
X0.50400 Y0.55100
X0.50500 Y0.55100
X0.50500 Y0.55200
X0.50600 Y0.55200
X0.50600 Y0.55300
X0.50700 Y0.55300
X0.50700 Y0.55400
X0.50800 Y0.55400
X0.50800 Y0.55500
X0.50900 Y0.55500
X0.50900 Y0.55600
X0.51000 Y0.55600
X0.51000 Y0.55700
X0.51100 Y0.55700
X0.51100 Y0.55800
X0.51200 Y0.55800
X0.51200 Y0.55900
X0.51300 Y0.55900
X0.51300 Y0.56000
X0.51400 Y0.56000
X0.51400 Y0.56100
X0.51500 Y0.56100
X0.51500 Y0.56200
X0.51600 Y0.56200
X0.51600 Y0.56300
X0.51700 Y0.56300
X0.51700 Y0.56400
X0.51800 Y0.56400
X0.51800 Y0.56500
X0.51900 Y0.56500
X0.51900 Y0.56600
X0.52000 Y0.56600
X0.52000 Y0.56700
X0.52100 Y0.56700
X0.52100 Y0.56800
X0.52200 Y0.56800
X0.52200 Y0.56900
X0.52300 Y0.56900
X0.52300 Y0.57000
X0.52400 Y0.57000
X0.52400 Y0.57100
X0.52500 Y0.57100
X0.52500 Y0.57200
X0.52600 Y0.57200
X0.52600 Y0.57300
X0.52700 Y0.57300
X0.52700 Y0.57400
X0.52800 Y0.57400
X0.52800 Y0.57500
X0.52900 Y0.57500
X0.52900 Y0.57600
X0.53000 Y0.57600
X0.53000 Y0.57700
X0.53100 Y0.57700
X0.53100 Y0.57800
X0.53200 Y0.57800
X0.53200 Y0.57900
X0.53300 Y0.57900
X0.53300 Y0.58000
X0.53400 Y0.58000
X0.53400 Y0.58100
X0.53500 Y0.58100
X0.53500 Y0.58200
X0.53600 Y0.58200
X0.53600 Y0.58300
X0.53700 Y0.58300
X0.53700 Y0.58400
X0.53800 Y0.58400
X0.53800 Y0.58500
X0.53900 Y0.58500
X0.53900 Y0.58600
X0.54000 Y0.58600
X0.54000 Y0.58700
X0.54100 Y0.58700
X0.54100 Y0.58800
X0.54200 Y0.58800
X0.54200 Y0.58900
X0.54300 Y0.58900
X0.54300 Y0.59000
X0.54400 Y0.59000
X0.54400 Y0.59100
X0.54500 Y0.59100
X0.54500 Y0.59200
X0.54600 Y0.59200
X0.54600 Y0.59300
X0.54700 Y0.59300
X0.54700 Y0.59400
X0.54800 Y0.59400
X0.54800 Y0.59700
X0.54900 Y0.59700
X0.54900 Y0.61400
X0.54800 Y0.61400
X0.54800 Y0.61700
X0.54700 Y0.61700
X0.54700 Y0.61800
X0.54600 Y0.61800
X0.54600 Y0.61900
X0.54500 Y0.61900
X0.54500 Y0.62000
X0.54400 Y0.62000
X0.54400 Y0.62100
X0.54300 Y0.62100
X0.54300 Y0.62200
X0.54200 Y0.62200
X0.54200 Y0.62300
X0.54100 Y0.62300
X0.54100 Y0.62400
X0.54000 Y0.62400
X0.54000 Y0.62500
X0.53900 Y0.62500
X0.53900 Y0.62600
X0.53800 Y0.62600
X0.53800 Y0.62700
X0.53700 Y0.62700
X0.53700 Y0.62800
X0.53600 Y0.62800
X0.53600 Y0.62900
X0.53500 Y0.62900
X0.53500 Y0.63000
X0.53400 Y0.63000
X0.53400 Y0.63100
X0.53300 Y0.63100
X0.53300 Y0.63200
X0.53200 Y0.63200
X0.53200 Y0.63300
X0.53100 Y0.63300
X0.53100 Y0.63400
X0.53000 Y0.63400
X0.53000 Y0.63500
X0.52900 Y0.63500
X0.52900 Y0.63600
X0.52800 Y0.63600
X0.52800 Y0.63700
X0.52700 Y0.63700
X0.52700 Y0.63800
X0.52600 Y0.63800
X0.52600 Y0.63900
X0.52500 Y0.63900
X0.52500 Y0.64000
X0.52400 Y0.64000
X0.52400 Y0.64100
X0.52300 Y0.64100
X0.52300 Y0.64200
X0.52200 Y0.64200
X0.52200 Y0.64300
X0.52100 Y0.64300
X0.52100 Y0.64400
X0.52000 Y0.64400
X0.52000 Y0.64500
X0.51900 Y0.64500
X0.51900 Y0.64600
X0.51800 Y0.64600
X0.51800 Y0.64700
X0.51700 Y0.64700
X0.51700 Y0.64800
X0.51600 Y0.64800
X0.51600 Y0.64900
X0.51500 Y0.64900
X0.51500 Y0.65000
X0.51400 Y0.65000
X0.51400 Y0.65100
X0.51300 Y0.65100
X0.51300 Y0.65200
X0.51200 Y0.65200
X0.51200 Y0.65300
X0.51100 Y0.65300
X0.51100 Y0.65400
X0.51000 Y0.65400
X0.51000 Y0.65600
X0.50900 Y0.65600
X0.50900 Y0.65700
X0.50800 Y0.65700
X0.50800 Y0.66000
X0.50700 Y0.66000
X0.50700 Y0.66200
X0.50600 Y0.66200
X0.50600 Y0.76400
X0.50700 Y0.76400
X0.50700 Y0.76600
X0.50800 Y0.76600
X0.50800 Y0.76900
X0.50900 Y0.76900
X0.50900 Y0.77000
X0.51000 Y0.77000
X0.51000 Y0.77100
X0.51100 Y0.77100
X0.51100 Y0.77200
X0.51200 Y0.77200
X0.51200 Y0.77300
X0.51300 Y0.77300
X0.51300 Y0.77400
X0.51400 Y0.77400
X0.51400 Y0.77500
X0.51500 Y0.77500
X0.51500 Y0.77600
X0.51600 Y0.77600
X0.51600 Y0.77700
X0.51700 Y0.77700
X0.51700 Y0.77800
X0.51800 Y0.77800
X0.51800 Y0.77900
X0.51900 Y0.77900
X0.51900 Y0.78000
X0.52000 Y0.78000
X0.52000 Y0.78100
X0.52100 Y0.78100
X0.52100 Y0.78200
X0.52200 Y0.78200
X0.52200 Y0.78300
X0.52300 Y0.78300
X0.52300 Y0.78400
X0.52400 Y0.78400
X0.52400 Y0.78500
X0.52500 Y0.78500
X0.52500 Y0.78600
X0.52600 Y0.78600
X0.52600 Y0.78700
X0.52700 Y0.78700
X0.52700 Y0.78800
X0.52800 Y0.78800
X0.52800 Y0.78900
X0.52900 Y0.78900
X0.52900 Y0.79000
X0.53000 Y0.79000
X0.53000 Y0.79100
X0.53100 Y0.79100
X0.53100 Y0.79200
X0.53200 Y0.79200
X0.53200 Y0.79300
X0.53300 Y0.79300
X0.53300 Y0.79400
X0.53400 Y0.79400
X0.53400 Y0.79500
X0.53500 Y0.79500
X0.53500 Y0.79600
X0.53600 Y0.79600
X0.53600 Y0.79700
X0.53700 Y0.79700
X0.53700 Y0.79800
X0.53800 Y0.79800
X0.53800 Y0.79900
X0.53900 Y0.79900
X0.53900 Y0.80000
X0.54000 Y0.80000
X0.54000 Y0.80100
X0.54100 Y0.80100
X0.54100 Y0.80200
X0.54200 Y0.80200
X0.54200 Y0.80300
X0.54300 Y0.80300
X0.54300 Y0.80400
X0.54400 Y0.80400
X0.54400 Y0.80500
X0.54500 Y0.80500
X0.54500 Y0.80600
X0.54600 Y0.80600
X0.54600 Y0.80700
X0.54700 Y0.80700
X0.54700 Y0.80900
X0.54800 Y0.80900
X0.54800 Y0.81000
X0.54900 Y0.81000
X0.54900 Y0.81400
X0.55000 Y0.81400
X0.55000 Y0.81700
X0.55100 Y0.81700
X0.55100 Y0.81900
X0.55200 Y0.81900
X0.55200 Y0.82200
X0.55300 Y0.82200
X0.55300 Y0.82300
X0.55400 Y0.82300
X0.55400 Y0.82500
X0.55500 Y0.82500
X0.55500 Y0.82600
X0.55600 Y0.82600
X0.55600 Y0.82700
X0.55700 Y0.82700
X0.55700 Y0.82800
X0.55800 Y0.82800
X0.55800 Y0.82900
X0.55900 Y0.82900
X0.55900 Y0.83000
X0.56000 Y0.83000
X0.56000 Y0.83100
X0.56100 Y0.83100
X0.56100 Y0.83200
X0.56300 Y0.83200
X0.56300 Y0.83300
X0.56500 Y0.83300
X0.56500 Y0.83400
X0.56600 Y0.83400
X0.56600 Y0.83500
X0.57100 Y0.83500
X0.57100 Y0.83600
X0.57200 Y0.83600
X0.57200 Y0.83700
X0.58800 Y0.83700
X0.58800 Y0.83600
X0.59000 Y0.83600
X0.59000 Y0.83500
X0.59500 Y0.83500
X0.59500 Y0.83400
X0.59600 Y0.83400
X0.59600 Y0.83300
X0.59800 Y0.83300
X0.59800 Y0.83200
X0.59900 Y0.83200
X0.59900 Y0.83100
X0.60000 Y0.83100
X0.60000 Y0.83000
X0.60100 Y0.83000
X0.60100 Y0.82900
X0.60200 Y0.82900
X0.60200 Y0.82800
X0.60300 Y0.82800
X0.60300 Y0.82700
X0.60400 Y0.82700
X0.60400 Y0.82600
X0.60500 Y0.82600
X0.60500 Y0.82500
X0.60600 Y0.82500
X0.60600 Y0.82400
X0.60700 Y0.82400
X0.60700 Y0.82300
X0.60800 Y0.82300
X0.60800 Y0.82100
X0.60900 Y0.82100
X0.60900 Y0.81900
X0.61000 Y0.81900
X0.61000 Y0.81500
X0.61100 Y0.81500
X0.61100 Y0.81300
X0.61200 Y0.81300
X0.61200 Y0.79700
X0.61100 Y0.79700
X0.61100 Y0.79600
X0.61000 Y0.79600
X0.61000 Y0.79200
X0.60900 Y0.79200
X0.60900 Y0.79000
X0.60800 Y0.79000
X0.60800 Y0.78800
X0.60700 Y0.78800
X0.60700 Y0.78600
X0.60600 Y0.78600
X0.60600 Y0.78500
X0.60500 Y0.78500
X0.60500 Y0.78400
X0.60400 Y0.78400
X0.60400 Y0.78300
X0.60300 Y0.78300
X0.60300 Y0.78100
X0.60200 Y0.78100
X0.60200 Y0.78000
X0.60000 Y0.78000
X0.60000 Y0.77900
X0.59800 Y0.77900
X0.59800 Y0.77800
X0.59600 Y0.77800
X0.59600 Y0.77700
X0.59500 Y0.77700
X0.59500 Y0.77600
X0.59200 Y0.77600
X0.59200 Y0.77500
X0.58900 Y0.77500
X0.58900 Y0.77400
X0.57100 Y0.77400
X0.57100 Y0.77500
X0.56900 Y0.77500
X0.56900 Y0.77600
X0.56600 Y0.77600
X0.56600 Y0.77700
X0.55800 Y0.77700
X0.55800 Y0.77600
X0.55700 Y0.77600
X0.55700 Y0.77500
X0.55600 Y0.77500
X0.55600 Y0.77400
X0.55500 Y0.77400
X0.55500 Y0.77300
X0.55400 Y0.77300
X0.55400 Y0.77200
X0.55300 Y0.77200
X0.55300 Y0.77100
X0.55200 Y0.77100
X0.55200 Y0.77000
X0.55100 Y0.77000
X0.55100 Y0.76900
X0.55000 Y0.76900
X0.55000 Y0.76800
X0.54900 Y0.76800
X0.54900 Y0.76700
X0.54800 Y0.76700
X0.54800 Y0.76600
X0.54700 Y0.76600
X0.54700 Y0.76500
X0.54600 Y0.76500
X0.54600 Y0.76400
X0.54500 Y0.76400
X0.54500 Y0.76300
X0.54400 Y0.76300
X0.54400 Y0.76200
X0.54300 Y0.76200
X0.54300 Y0.76100
X0.54200 Y0.76100
X0.54200 Y0.76000
X0.54100 Y0.76000
X0.54100 Y0.75900
X0.54000 Y0.75900
X0.54000 Y0.75800
X0.53900 Y0.75800
X0.53900 Y0.75700
X0.53800 Y0.75700
X0.53800 Y0.75600
X0.53700 Y0.75600
X0.53700 Y0.75500
X0.53600 Y0.75500
X0.53600 Y0.75200
X0.53500 Y0.75200
X0.53500 Y0.67400
X0.53600 Y0.67400
X0.53600 Y0.67100
X0.53700 Y0.67100
X0.53700 Y0.66900
X0.53800 Y0.66900
X0.53800 Y0.66800
X0.53900 Y0.66800
X0.53900 Y0.66700
X0.54000 Y0.66700
X0.54000 Y0.66600
X0.54100 Y0.66600
X0.54100 Y0.66500
X0.54200 Y0.66500
X0.54200 Y0.66400
X0.54300 Y0.66400
X0.54300 Y0.66300
X0.54400 Y0.66300
X0.54400 Y0.66200
X0.54500 Y0.66200
X0.54500 Y0.66100
X0.54600 Y0.66100
X0.54600 Y0.66000
X0.54700 Y0.66000
X0.54700 Y0.65900
X0.54800 Y0.65900
X0.54800 Y0.65800
X0.54900 Y0.65800
X0.54900 Y0.65700
X0.55000 Y0.65700
X0.55000 Y0.65600
X0.55100 Y0.65600
X0.55100 Y0.65500
X0.55200 Y0.65500
X0.55200 Y0.65400
X0.55300 Y0.65400
X0.55300 Y0.65300
X0.55400 Y0.65300
X0.55400 Y0.65200
X0.55500 Y0.65200
X0.55500 Y0.65100
X0.55600 Y0.65100
X0.55600 Y0.65000
X0.55700 Y0.65000
X0.55700 Y0.64900
X0.55800 Y0.64900
X0.55800 Y0.64800
X0.55900 Y0.64800
X0.55900 Y0.64700
X0.56000 Y0.64700
X0.56000 Y0.64600
X0.56100 Y0.64600
X0.56100 Y0.64500
X0.56200 Y0.64500
X0.56200 Y0.64400
X0.56300 Y0.64400
X0.56300 Y0.64300
X0.56400 Y0.64300
X0.56400 Y0.64200
X0.56500 Y0.64200
X0.56500 Y0.64100
X0.56600 Y0.64100
X0.56600 Y0.64000
X0.56700 Y0.64000
X0.56700 Y0.63900
X0.56800 Y0.63900
X0.56800 Y0.63800
X0.57000 Y0.63800
X0.57000 Y0.63700
X0.58800 Y0.63700
X0.58800 Y0.63600
X0.59000 Y0.63600
X0.59000 Y0.63500
X0.59500 Y0.63500
X0.59500 Y0.63400
X0.59600 Y0.63400
X0.59600 Y0.63300
X0.59800 Y0.63300
X0.59800 Y0.63200
X0.59900 Y0.63200
X0.59900 Y0.63100
X0.60000 Y0.63100
X0.60000 Y0.63000
X0.60100 Y0.63000
X0.60100 Y0.62900
X0.60200 Y0.62900
X0.60200 Y0.62800
X0.60300 Y0.62800
X0.60300 Y0.62700
X0.60400 Y0.62700
X0.60400 Y0.62600
X0.60500 Y0.62600
X0.60500 Y0.62500
X0.60600 Y0.62500
X0.60600 Y0.62400
X0.60700 Y0.62400
X0.60700 Y0.62300
X0.60800 Y0.62300
X0.60800 Y0.62100
X0.60900 Y0.62100
X0.60900 Y0.61900
X0.61000 Y0.61900
X0.61000 Y0.61500
X0.61100 Y0.61500
X0.61100 Y0.61300
X0.61200 Y0.61300
X0.61200 Y0.59700
X0.61100 Y0.59700
X0.61100 Y0.59600
X0.61000 Y0.59600
X0.61000 Y0.59200
X0.60900 Y0.59200
X0.60900 Y0.59000
X0.60800 Y0.59000
X0.60800 Y0.58800
X0.60700 Y0.58800
X0.60700 Y0.58600
X0.60600 Y0.58600
X0.60600 Y0.58500
X0.60500 Y0.58500
X0.60500 Y0.58400
X0.60400 Y0.58400
X0.60400 Y0.58300
X0.60300 Y0.58300
X0.60300 Y0.58200
X0.60200 Y0.58200
X0.60200 Y0.58100
X0.60100 Y0.58100
X0.60100 Y0.58000
X0.60000 Y0.58000
X0.60000 Y0.57900
X0.59900 Y0.57900
X0.59900 Y0.57700
X0.59800 Y0.57700
X0.59800 Y0.57500
X0.59700 Y0.57500
X0.59700 Y0.57300
X0.59300 Y0.57300
X0.59300 Y0.57200
X0.57200 Y0.57200
X0.57200 Y0.57100
X0.56900 Y0.57100
X0.56900 Y0.57000
X0.56800 Y0.57000
X0.56800 Y0.56900
X0.56600 Y0.56900
X0.56600 Y0.56800
X0.56400 Y0.56800
X0.56400 Y0.56700
X0.56300 Y0.56700
X0.56300 Y0.56600
X0.56200 Y0.56600
X0.56200 Y0.56500
X0.56100 Y0.56500
X0.56100 Y0.56400
X0.56000 Y0.56400
X0.56000 Y0.56300
X0.55900 Y0.56300
X0.55900 Y0.56200
X0.55800 Y0.56200
X0.55800 Y0.56100
X0.55700 Y0.56100
X0.55700 Y0.56000
X0.55600 Y0.56000
X0.55600 Y0.55900
X0.55500 Y0.55900
X0.55500 Y0.55800
X0.55400 Y0.55800
X0.55400 Y0.55700
X0.55300 Y0.55700
X0.55300 Y0.55600
X0.55200 Y0.55600
X0.55200 Y0.55500
X0.55100 Y0.55500
X0.55100 Y0.55400
X0.55000 Y0.55400
X0.55000 Y0.55300
X0.54900 Y0.55300
X0.54900 Y0.55200
X0.54800 Y0.55200
X0.54800 Y0.55100
X0.54700 Y0.55100
X0.54700 Y0.55000
X0.54600 Y0.55000
X0.54600 Y0.54900
X0.54500 Y0.54900
X0.54500 Y0.54800
X0.54400 Y0.54800
X0.54400 Y0.54700
X0.54300 Y0.54700
X0.54300 Y0.54600
X0.54200 Y0.54600
X0.54200 Y0.54500
X0.54100 Y0.54500
X0.54100 Y0.54400
X0.54000 Y0.54400
X0.54000 Y0.54300
X0.53900 Y0.54300
X0.53900 Y0.54200
X0.53800 Y0.54200
X0.53800 Y0.54100
X0.53700 Y0.54100
X0.53700 Y0.54000
X0.53600 Y0.54000
X0.53600 Y0.53900
X0.53500 Y0.53900
X0.53500 Y0.53800
X0.53400 Y0.53800
X0.53400 Y0.53700
X0.53300 Y0.53700
X0.53300 Y0.53600
X0.53200 Y0.53600
X0.53200 Y0.53500
X0.53100 Y0.53500
X0.53100 Y0.53400
X0.53000 Y0.53400
X0.53000 Y0.53300
X0.52900 Y0.53300
X0.52900 Y0.53200
X0.52800 Y0.53200
X0.52800 Y0.53100
X0.52700 Y0.53100
X0.52700 Y0.53000
X0.52600 Y0.53000
X0.52600 Y0.52900
X0.52500 Y0.52900
X0.52500 Y0.52800
X0.52400 Y0.52800
X0.52400 Y0.52700
X0.52300 Y0.52700
X0.52300 Y0.52600
X0.52200 Y0.52600
X0.52200 Y0.52500
X0.52100 Y0.52500
X0.52100 Y0.52400
X0.52000 Y0.52400
X0.52000 Y0.52300
X0.51900 Y0.52300
X0.51900 Y0.52200
X0.51800 Y0.52200
X0.51800 Y0.52100
X0.51700 Y0.52100
X0.51700 Y0.52000
X0.51600 Y0.52000
X0.51600 Y0.51900
X0.51500 Y0.51900
X0.51500 Y0.51800
X0.51400 Y0.51800
X0.51400 Y0.51700
X0.51300 Y0.51700
X0.51300 Y0.51600
X0.51200 Y0.51600
X0.51200 Y0.51500
X0.51100 Y0.51500
X0.51100 Y0.51400
X0.51000 Y0.51400
X0.51000 Y0.51300
X0.50900 Y0.51300
X0.50900 Y0.51200
X0.50800 Y0.51200
X0.50800 Y0.51100
X0.50700 Y0.51100
X0.50700 Y0.51000
X0.50600 Y0.51000
X0.50600 Y0.50900
X0.50500 Y0.50900
X0.50500 Y0.50800
X0.50400 Y0.50800
X0.50400 Y0.50700
X0.50300 Y0.50700
X0.50300 Y0.50600
X0.50200 Y0.50600
X0.50200 Y0.50500
X0.50100 Y0.50500
X0.50100 Y0.50400
X0.50000 Y0.50400
X0.50000 Y0.50300
X0.49900 Y0.50300
X0.49900 Y0.50200
X0.49800 Y0.50200
X0.49800 Y0.50100
X0.49700 Y0.50100
X0.49700 Y0.50000
X0.49600 Y0.50000
X0.49600 Y0.49900
X0.49500 Y0.49900
X0.49500 Y0.49800
X0.49400 Y0.49800
X0.49400 Y0.49700
X0.49300 Y0.49700
X0.49300 Y0.49600
X0.49200 Y0.49600
X0.49200 Y0.49500
X0.49100 Y0.49500
X0.49100 Y0.49400
X0.49000 Y0.49400
X0.49000 Y0.49300
X0.48900 Y0.49300
X0.48900 Y0.49200
X0.48800 Y0.49200
X0.48800 Y0.49100
X0.48700 Y0.49100
X0.48700 Y0.49000
X0.48600 Y0.49000
X0.48600 Y0.48900
X0.48500 Y0.48900
X0.48500 Y0.48800
X0.48400 Y0.48800
X0.48400 Y0.48700
X0.48300 Y0.48700
X0.48300 Y0.48600
X0.48200 Y0.48600
X0.48200 Y0.48500
X0.48100 Y0.48500
X0.48100 Y0.48400
X0.48000 Y0.48400
X0.48000 Y0.48300
X0.47900 Y0.48300
X0.47900 Y0.48200
X0.47800 Y0.48200
X0.47800 Y0.48100
X0.47700 Y0.48100
X0.47700 Y0.48000
X0.47600 Y0.48000
X0.47600 Y0.47900
X0.47500 Y0.47900
X0.47500 Y0.47800
X0.47400 Y0.47800
X0.47400 Y0.47700
X0.47300 Y0.47700
X0.47300 Y0.47600
X0.47200 Y0.47600
X0.47200 Y0.47500
X0.47100 Y0.47500
X0.47100 Y0.47400
X0.47000 Y0.47400
X0.47000 Y0.47300
X0.46900 Y0.47300
X0.46900 Y0.47200
X0.46800 Y0.47200
X0.46800 Y0.47100
X0.46700 Y0.47100
X0.46700 Y0.47000
X0.46600 Y0.47000
X0.46600 Y0.46900
X0.46500 Y0.46900
X0.46500 Y0.46800
X0.46400 Y0.46800
X0.46400 Y0.46700
X0.46300 Y0.46700
X0.46300 Y0.46600
X0.46200 Y0.46600
X0.46200 Y0.46500
X0.46100 Y0.46500
X0.46100 Y0.46400
X0.46000 Y0.46400
X0.46000 Y0.46300
X0.45900 Y0.46300
X0.45900 Y0.46200
X0.45800 Y0.46200
X0.45800 Y0.46100
X0.45700 Y0.46100
X0.45700 Y0.46000
X0.45600 Y0.46000
X0.45600 Y0.45900
X0.45500 Y0.45900
X0.45500 Y0.45800
X0.45400 Y0.45800
X0.45400 Y0.45700
X0.45300 Y0.45700
X0.45300 Y0.45600
X0.45200 Y0.45600
X0.45200 Y0.45500
X0.45100 Y0.45500
X0.45100 Y0.45400
X0.45000 Y0.45400
X0.45000 Y0.45300
X0.44900 Y0.45300
X0.44900 Y0.45200
X0.44800 Y0.45200
X0.44800 Y0.45100
X0.44700 Y0.45100
X0.44700 Y0.45000
X0.44600 Y0.45000
X0.44600 Y0.44900
X0.44500 Y0.44900
X0.44500 Y0.44800
X0.44400 Y0.44800
X0.44400 Y0.44700
X0.44300 Y0.44700
X0.44300 Y0.44600
X0.44200 Y0.44600
X0.44200 Y0.44500
X0.44100 Y0.44500
X0.44100 Y0.44400
X0.44000 Y0.44400
X0.44000 Y0.44300
X0.43900 Y0.44300
X0.43900 Y0.44200
X0.43800 Y0.44200
X0.43800 Y0.44100
X0.43700 Y0.44100
X0.43700 Y0.44000
X0.43600 Y0.44000
X0.43600 Y0.43900
X0.43500 Y0.43900
X0.43500 Y0.43800
X0.43400 Y0.43800
X0.43400 Y0.43700
X0.43300 Y0.43700
X0.43300 Y0.43600
X0.43200 Y0.43600
X0.43200 Y0.43500
X0.43100 Y0.43500
X0.43100 Y0.43400
X0.43000 Y0.43400
X0.43000 Y0.43300
X0.42900 Y0.43300
X0.42900 Y0.43200
X0.42800 Y0.43200
X0.42800 Y0.43100
X0.42700 Y0.43100
X0.42700 Y0.43000
X0.42600 Y0.43000
X0.42600 Y0.42900
X0.42500 Y0.42900
X0.42500 Y0.42800
X0.42400 Y0.42800
X0.42400 Y0.42700
X0.42300 Y0.42700
X0.42300 Y0.42600
X0.42200 Y0.42600
X0.42200 Y0.42500
X0.42100 Y0.42500
X0.42100 Y0.42400
X0.42000 Y0.42400
X0.42000 Y0.42300
X0.41900 Y0.42300
X0.41900 Y0.42200
X0.41800 Y0.42200
X0.41800 Y0.42100
X0.41700 Y0.42100
X0.41700 Y0.42000
X0.41600 Y0.42000
X0.41600 Y0.41900
X0.41500 Y0.41900
X0.41500 Y0.41800
X0.41400 Y0.41800
X0.41400 Y0.41700
X0.41300 Y0.41700
X0.41300 Y0.41600
X0.41200 Y0.41600
X0.41200 Y0.41500
X0.41100 Y0.41500
X0.41100 Y0.41400
X0.41000 Y0.41400
X0.41000 Y0.41300
X0.40900 Y0.41300
X0.40900 Y0.41200
X0.40800 Y0.41200
X0.40800 Y0.41100
X0.40700 Y0.41100
X0.40700 Y0.41000
X0.40600 Y0.41000
X0.40600 Y0.40900
X0.40500 Y0.40900
X0.40500 Y0.40800
X0.40400 Y0.40800
X0.40400 Y0.40700
X0.40300 Y0.40700
X0.40300 Y0.40600
X0.40200 Y0.40600
X0.40200 Y0.40500
X0.40100 Y0.40500
X0.40100 Y0.40400
X0.40000 Y0.40400
X0.40000 Y0.40300
X0.39900 Y0.40300
X0.39900 Y0.40200
X0.39800 Y0.40200
X0.39800 Y0.40100
X0.39700 Y0.40100
X0.39700 Y0.40000
X0.39600 Y0.40000
X0.39600 Y0.39900
X0.39500 Y0.39900
X0.39500 Y0.39800
X0.39400 Y0.39800
X0.39400 Y0.39600
X0.39300 Y0.39600
X0.39300 Y0.39500
X0.39200 Y0.39500
X0.39200 Y0.39300
X0.39100 Y0.39300
X0.39100 Y0.39200
X0.39000 Y0.39200
X0.39000 Y0.38900
X0.38900 Y0.38900
X0.38900 Y0.38700
X0.38700 Y0.38700
X0.38700 Y0.38600
X0.38400 Y0.38600
X0.38400 Y0.38500
X0.38100 Y0.38500
X0.38100 Y0.38400
X0.38000 Y0.38400
X0.38000 Y0.38300
X0.37900 Y0.38300
X0.37900 Y0.38200
X0.37800 Y0.38200
X0.37800 Y0.38100
X0.37700 Y0.38100
X0.37700 Y0.38000
X0.37600 Y0.38000
X0.37600 Y0.37900
X0.37500 Y0.37900
X0.37500 Y0.37800
X0.37400 Y0.37800
X0.37400 Y0.37700
X0.37300 Y0.37700
X0.37300 Y0.37600
X0.37200 Y0.37600
X0.37200 Y0.37500
X0.37100 Y0.37500
X0.37100 Y0.37400
X0.37000 Y0.37400
X0.37000 Y0.37300
X0.36900 Y0.37300
X0.36900 Y0.37200
X0.36800 Y0.37200
X0.36800 Y0.37100
X0.36700 Y0.37100
X0.36700 Y0.37000
X0.36600 Y0.37000
X0.36600 Y0.36900
X0.36500 Y0.36900
X0.36500 Y0.36800
X0.36400 Y0.36800
X0.36400 Y0.36700
X0.36300 Y0.36700
X0.36300 Y0.36600
X0.36200 Y0.36600
X0.36200 Y0.36500
X0.36100 Y0.36500
X0.36100 Y0.36400
X0.36000 Y0.36400
X0.36000 Y0.36300
X0.35900 Y0.36300
X0.35900 Y0.36200
X0.35800 Y0.36200
X0.35800 Y0.36100
X0.35700 Y0.36100
X0.35700 Y0.36000
X0.35600 Y0.36000
X0.35600 Y0.35900
X0.35500 Y0.35900
X0.35500 Y0.35800
X0.35400 Y0.35800
X0.35400 Y0.35700
X0.35300 Y0.35700
X0.35300 Y0.35600
X0.35200 Y0.35600
X0.35200 Y0.35500
X0.35100 Y0.35500
X0.35100 Y0.35400
X0.35000 Y0.35400
X0.35000 Y0.35300
X0.34900 Y0.35300
X0.34900 Y0.35200
X0.34800 Y0.35200
X0.34800 Y0.35100
X0.34700 Y0.35100
X0.34700 Y0.35000
X0.34600 Y0.35000
X0.34600 Y0.34900
X0.34500 Y0.34900
X0.34500 Y0.34800
X0.34400 Y0.34800
X0.34400 Y0.34700
X0.34300 Y0.34700
X0.34300 Y0.34600
X0.34200 Y0.34600
X0.34200 Y0.34500
X0.34100 Y0.34500
X0.34100 Y0.34400
X0.34000 Y0.34400
X0.34000 Y0.34300
X0.33900 Y0.34300
X0.33900 Y0.34200
X0.33800 Y0.34200
X0.33800 Y0.34100
X0.33700 Y0.34100
X0.33700 Y0.34000
X0.33600 Y0.34000
X0.33600 Y0.33900
X0.33500 Y0.33900
X0.33500 Y0.33800
X0.33400 Y0.33800
X0.33400 Y0.33700
X0.33300 Y0.33700
X0.33300 Y0.33600
X0.33200 Y0.33600
X0.33200 Y0.33500
X0.33100 Y0.33500
X0.33100 Y0.33400
X0.33000 Y0.33400
X0.33000 Y0.33300
X0.32900 Y0.33300
X0.32900 Y0.33200
X0.32800 Y0.33200
X0.32800 Y0.33100
X0.32700 Y0.33100
X0.32700 Y0.33000
X0.32600 Y0.33000
X0.32600 Y0.32900
X0.32500 Y0.32900
X0.32500 Y0.32800
X0.32400 Y0.32800
X0.32400 Y0.32700
X0.32300 Y0.32700
X0.32300 Y0.32600
X0.32200 Y0.32600
X0.32200 Y0.32500
X0.32100 Y0.32500
X0.32100 Y0.32400
X0.32000 Y0.32400
X0.32000 Y0.32300
X0.31900 Y0.32300
X0.31900 Y0.32200
X0.31800 Y0.32200
X0.31800 Y0.32100
X0.31700 Y0.32100
X0.31700 Y0.32000
X0.31600 Y0.32000
X0.31600 Y0.31900
X0.31500 Y0.31900
X0.31500 Y0.31800
X0.31400 Y0.31800
X0.31400 Y0.31700
X0.31300 Y0.31700
X0.31300 Y0.31600
X0.31200 Y0.31600
X0.31200 Y0.31500
X0.31100 Y0.31500
X0.31100 Y0.31400
X0.31000 Y0.31400
X0.31000 Y0.31300
X0.30900 Y0.31300
X0.30900 Y0.31200
X0.30800 Y0.31200
X0.30800 Y0.31100
X0.30700 Y0.31100
X0.30700 Y0.31000
X0.30600 Y0.31000
X0.30600 Y0.30900
X0.30500 Y0.30900
X0.30500 Y0.30800
X0.30400 Y0.30800
X0.30400 Y0.30700
X0.30300 Y0.30700
X0.30300 Y0.30600
X0.30200 Y0.30600
X0.30200 Y0.30500
X0.30100 Y0.30500
X0.30100 Y0.30400
X0.30000 Y0.30400
X0.30000 Y0.30300
X0.29900 Y0.30300
X0.29900 Y0.30200
X0.29800 Y0.30200
X0.29800 Y0.30100
X0.29700 Y0.30100
X0.29700 Y0.30000
X0.29600 Y0.30000
X0.29600 Y0.29900
X0.29500 Y0.29900
X0.29500 Y0.29800
X0.29400 Y0.29800
X0.29400 Y0.29700
X0.29300 Y0.29700
X0.29300 Y0.29600
X0.29200 Y0.29600
X0.29200 Y0.29500
X0.29100 Y0.29500
X0.29100 Y0.29400
X0.29000 Y0.29400
X0.29000 Y0.29300
X0.28900 Y0.29300
X0.28900 Y0.29200
X0.28800 Y0.29200
X0.28800 Y0.29100
X0.28700 Y0.29100
X0.28700 Y0.29000
X0.28600 Y0.29000
X0.28600 Y0.28900
X0.28500 Y0.28900
X0.28500 Y0.28800
X0.28400 Y0.28800
X0.28400 Y0.28700
X0.28300 Y0.28700
X0.28300 Y0.27900
X0.28400 Y0.27900
X0.28400 Y0.27800
X0.28500 Y0.27800
X0.28500 Y0.27700
X0.28600 Y0.27700
X0.28600 Y0.27600
X0.28700 Y0.27600
X0.28700 Y0.27400
X0.28800 Y0.27400
X0.28800 Y0.27300
X0.28900 Y0.27300
X0.28900 Y0.27100
X0.29000 Y0.27100
X0.29000 Y0.26900
X0.29100 Y0.26900
X0.29100 Y0.26800
X0.29200 Y0.26800
X0.29200 Y0.26600
X0.29300 Y0.26600
X0.29300 Y0.26400
X0.29400 Y0.26400
X0.29400 Y0.26300
X0.29500 Y0.26300
X0.29500 Y0.26100
X0.29600 Y0.26100
X0.29600 Y0.25900
X0.29700 Y0.25900
X0.29700 Y0.25600
X0.29800 Y0.25600
X0.29800 Y0.25400
X0.29900 Y0.25400
X0.29900 Y0.25200
X0.30000 Y0.25200
X0.30000 Y0.24900
X0.30100 Y0.24900
X0.30100 Y0.24700
X0.30200 Y0.24700
X0.30200 Y0.24400
X0.30300 Y0.24400
X0.30300 Y0.24100
X0.30400 Y0.24100
X0.30400 Y0.23800
X0.30500 Y0.23800
X0.30500 Y0.23400
X0.30600 Y0.23400
X0.30600 Y0.22700
X0.30700 Y0.22700
X0.30700 Y0.22300
X0.30800 Y0.22300
X0.30800 Y0.21100
X0.30900 Y0.21100
X0.30900 Y0.20000
X0.30800 Y0.20000
X0.30800 Y0.18800
X0.30700 Y0.18800
X0.30700 Y0.18400
X0.30600 Y0.18400
X0.30600 Y0.17700
X0.30500 Y0.17700
X0.30500 Y0.17300
X0.30400 Y0.17300
X0.30400 Y0.17000
X0.30300 Y0.17000
X0.30300 Y0.16700
X0.30200 Y0.16700
X0.30200 Y0.16400
X0.30100 Y0.16400
X0.30100 Y0.16100
X0.30000 Y0.16100
X0.30000 Y0.15800
X0.29900 Y0.15800
X0.29900 Y0.15600
X0.29800 Y0.15600
X0.29800 Y0.15400
X0.29700 Y0.15400
X0.29700 Y0.15100
X0.29600 Y0.15100
X0.29600 Y0.14900
X0.29500 Y0.14900
X0.29500 Y0.14700
X0.29400 Y0.14700
X0.29400 Y0.14600
X0.29300 Y0.14600
X0.29300 Y0.14400
X0.29200 Y0.14400
X0.29200 Y0.14200
X0.29100 Y0.14200
X0.29100 Y0.14100
X0.29000 Y0.14100
X0.29000 Y0.13900
X0.28900 Y0.13900
X0.28900 Y0.13700
X0.28800 Y0.13700
X0.28800 Y0.13600
X0.28700 Y0.13600
X0.28700 Y0.13400
X0.28600 Y0.13400
X0.28600 Y0.13200
X0.28500 Y0.13200
X0.28500 Y0.13100
X0.28400 Y0.13100
X0.28400 Y0.13000
X0.28300 Y0.13000
X0.28300 Y0.12900
X0.28200 Y0.12900
X0.28200 Y0.12800
X0.28100 Y0.12800
X0.28100 Y0.12700
X0.28000 Y0.12700
X0.28000 Y0.12600
X0.27900 Y0.12600
X0.27900 Y0.12400
X0.27800 Y0.12400
X0.27800 Y0.12300
X0.27700 Y0.12300
X0.27700 Y0.12200
X0.27600 Y0.12200
X0.27600 Y0.12100
X0.27500 Y0.12100
X0.27500 Y0.12000
X0.27400 Y0.12000
X0.27400 Y0.11900
X0.27300 Y0.11900
X0.27300 Y0.11800
X0.27200 Y0.11800
X0.27200 Y0.11700
X0.27100 Y0.11700
X0.27100 Y0.11600
X0.27000 Y0.11600
X0.27000 Y0.11500
X0.26900 Y0.11500
X0.26900 Y0.11400
X0.26700 Y0.11400
X0.26700 Y0.11300
X0.26600 Y0.11300
X0.26600 Y0.11200
X0.26500 Y0.11200
X0.26500 Y0.11100
X0.26400 Y0.11100
X0.26400 Y0.11000
X0.26300 Y0.11000
X0.26300 Y0.10900
X0.26100 Y0.10900
X0.26100 Y0.10800
X0.26000 Y0.10800
X0.26000 Y0.10700
X0.25900 Y0.10700
X0.25900 Y0.10600
X0.25800 Y0.10600
X0.25800 Y0.10500
X0.25600 Y0.10500
X0.25600 Y0.10400
X0.25500 Y0.10400
X0.25500 Y0.10300
X0.25300 Y0.10300
X0.25300 Y0.10200
X0.25200 Y0.10200
X0.25200 Y0.10100
X0.25000 Y0.10100
X0.25000 Y0.10000
X0.24900 Y0.10000
X0.24900 Y0.09900
X0.24700 Y0.09900
X0.24700 Y0.09800
X0.24500 Y0.09800
X0.24500 Y0.09700
X0.24400 Y0.09700
X0.24400 Y0.09600
X0.24200 Y0.09600
X0.24200 Y0.09500
X0.24000 Y0.09500
X0.24000 Y0.09400
X0.23800 Y0.09400
X0.23800 Y0.09300
X0.23600 Y0.09300
X0.23600 Y0.09200
X0.23400 Y0.09200
X0.23400 Y0.09100
X0.23100 Y0.09100
X0.23100 Y0.09000
X0.22700 Y0.09000
X0.22700 Y0.08800
X0.22600 Y0.08800
X0.22600 Y0.08600
X0.22500 Y0.08600
X0.22500 Y0.08500
X0.22400 Y0.08500
X0.22400 Y0.08400
X0.22100 Y0.08400
X0.22100 Y0.08300
X0.20800 Y0.08300
X0.20800 Y0.08200
X0.16300 Y0.08200
X0.16300 Y0.08300
X0.15000 Y0.08300
X0.15000 Y0.08400
X0.14700 Y0.08400
X0.14700 Y0.08500
X0.14600 Y0.08500
X0.14600 Y0.08600
X0.14500 Y0.08600
X0.14500 Y0.08800
X0.14400 Y0.08800
X0.14400 Y0.09000
X0.14000 Y0.09000
X0.14000 Y0.09100
X0.13700 Y0.09100
X0.13700 Y0.09200
X0.13400 Y0.09200
X0.13400 Y0.09300
X0.13300 Y0.09300
X0.13300 Y0.09400
X0.13100 Y0.09400
X0.13100 Y0.09500
X0.12900 Y0.09500
X0.12900 Y0.09600
X0.12700 Y0.09600
X0.12700 Y0.09700
X0.12500 Y0.09700
X0.12500 Y0.09800
X0.12300 Y0.09800
X0.12300 Y0.09900
X0.12200 Y0.09900
X0.12200 Y0.10000
X0.12000 Y0.10000
X0.12000 Y0.10100
X0.11800 Y0.10100
X0.11800 Y0.10200
X0.11700 Y0.10200
X0.11700 Y0.10300
X0.11500 Y0.10300
X0.11500 Y0.10400
X0.11400 Y0.10400
X0.11400 Y0.10500
X0.11200 Y0.10500
X0.11200 Y0.10600
X0.11100 Y0.10600
X0.11100 Y0.10700
X0.11000 Y0.10700
X0.11000 Y0.10800
X0.10900 Y0.10800
X0.10900 Y0.10900
X0.10800 Y0.10900
X0.10800 Y0.11000
X0.10700 Y0.11000
X0.10700 Y0.11100
X0.10500 Y0.11100
X0.10500 Y0.11200
X0.10400 Y0.11200
X0.10400 Y0.11300
X0.10300 Y0.11300
X0.10300 Y0.11400
X0.10200 Y0.11400
X0.10200 Y0.11500
X0.10100 Y0.11500
X0.10100 Y0.11600
X0.10000 Y0.11600
X0.10000 Y0.11700
X0.09900 Y0.11700
X0.09900 Y0.11800
X0.09800 Y0.11800
X0.09800 Y0.11900
X0.09700 Y0.11900
X0.09700 Y0.12000
X0.09600 Y0.12000
X0.09600 Y0.12100
X0.09500 Y0.12100
X0.09500 Y0.12200
X0.09400 Y0.12200
X0.09400 Y0.12300
X0.09300 Y0.12300
X0.09300 Y0.12400
X0.09200 Y0.12400
X0.09200 Y0.12500
X0.09100 Y0.12500
X0.09100 Y0.12700
X0.09000 Y0.12700
X0.09000 Y0.12800
X0.08900 Y0.12800
X0.08900 Y0.12900
X0.08800 Y0.12900
X0.08800 Y0.13000
X0.08700 Y0.13000
X0.08700 Y0.13100
X0.08600 Y0.13100
X0.08600 Y0.13200
X0.08500 Y0.13200
X0.08500 Y0.13400
X0.08400 Y0.13400
X0.08400 Y0.13500
X0.08300 Y0.13500
X0.08300 Y0.13700
X0.08200 Y0.13700
X0.08200 Y0.13800
X0.08100 Y0.13800
X0.08100 Y0.14000
X0.08000 Y0.14000
X0.08000 Y0.14200
X0.07900 Y0.14200
X0.07900 Y0.14300
X0.07800 Y0.14300
X0.07800 Y0.14500
X0.07700 Y0.14500
X0.07700 Y0.14700
X0.07600 Y0.14700
X0.07600 Y0.14900
X0.07500 Y0.14900
X0.07500 Y0.15100
X0.07400 Y0.15100
X0.07400 Y0.15300
X0.07300 Y0.15300
X0.07300 Y0.15400
X0.07200 Y0.15400
X0.07200 Y0.15700
X0.07100 Y0.15700
X0.07100 Y0.16000
X0.07000 Y0.16000
X0.07000 Y0.16400
X0.06900 Y0.16400
X0.06900 Y0.16700
X0.06800 Y0.16700
X0.06800 Y0.17000
X0.06700 Y0.17000
X0.06700 Y0.17300
X0.06600 Y0.17300
X0.06600 Y0.17700
X0.06500 Y0.17700
X0.06500 Y0.18400
X0.06400 Y0.18400
X0.06400 Y0.18800
X0.06300 Y0.18800
X0.06300 Y0.19500
X0.06200 Y0.19500
X0.06200 Y0.21600
X0.06300 Y0.21600
X0.06300 Y0.22300
X0.06400 Y0.22300
X0.06400 Y0.22700
X0.06500 Y0.22700
X0.06500 Y0.23400
X0.06600 Y0.23400
X0.06600 Y0.23800
X0.06700 Y0.23800
X0.06700 Y0.24100
X0.06800 Y0.24100
X0.06800 Y0.24400
X0.06900 Y0.24400
X0.06900 Y0.24700
X0.07000 Y0.24700
X0.07000 Y0.25100
X0.07100 Y0.25100
X0.07100 Y0.25300
X0.07200 Y0.25300
X0.07200 Y0.25600
X0.07300 Y0.25600
X0.07300 Y0.25800
X0.07400 Y0.25800
X0.07400 Y0.26000
X0.07500 Y0.26000
X0.07500 Y0.26200
X0.07600 Y0.26200
X0.07600 Y0.26400
X0.07700 Y0.26400
X0.07700 Y0.26500
X0.07800 Y0.26500
X0.07800 Y0.26700
X0.07900 Y0.26700
X0.07900 Y0.26900
X0.08000 Y0.26900
X0.08000 Y0.27000
X0.08100 Y0.27000
X0.08100 Y0.27200
X0.08200 Y0.27200
X0.08200 Y0.27300
X0.08300 Y0.27300
X0.08300 Y0.27500
X0.08400 Y0.27500
X0.08400 Y0.27600
X0.08500 Y0.27600
X0.08500 Y0.27900
X0.08600 Y0.27900
X0.08600 Y0.28200
X0.08500 Y0.28200
X0.08500 Y0.28400
X0.08400 Y0.28400
X0.08400 Y0.28500
X0.08300 Y0.28500
X0.08300 Y0.28600
X0.08200 Y0.28600
X0.08200 Y0.28700
X0.08100 Y0.28700
X0.08100 Y0.28800
X0.08000 Y0.28800
X0.08000 Y0.28900
X0.07900 Y0.28900
X0.07900 Y0.29000
X0.07800 Y0.29000
X0.07800 Y0.29100
X0.07700 Y0.29100
X0.07700 Y0.29200
X0.07600 Y0.29200
X0.07600 Y0.29300
X0.07500 Y0.29300
X0.07500 Y0.29400
X0.07400 Y0.29400
X0.07400 Y0.29500
X0.07300 Y0.29500
X0.07300 Y0.29600
X0.07200 Y0.29600
X0.07200 Y0.29700
X0.07100 Y0.29700
X0.07100 Y0.29800
X0.07000 Y0.29800
X0.07000 Y0.29900
X0.06900 Y0.29900
X0.06900 Y0.30000
X0.06800 Y0.30000
X0.06800 Y0.30100
X0.06700 Y0.30100
X0.06700 Y0.30200
X0.06600 Y0.30200
X0.06600 Y0.30300
X0.06500 Y0.30300
X0.06500 Y0.30400
X0.06400 Y0.30400
X0.06400 Y0.30500
X0.06300 Y0.30500
X0.06300 Y0.30600
X0.06200 Y0.30600
X0.06200 Y0.30700
X0.06100 Y0.30700
X0.06100 Y0.30800
X0.06000 Y0.30800
X0.06000 Y0.31000
X0.05800 Y0.31000
X0.05800 Y0.31100
X0.05600 Y0.31100
X0.05600 Y0.31200
X0.05400 Y0.31200
X0.05400 Y0.31300
X0.05300 Y0.31300
X0.05300 Y0.52900
X0.05400 Y0.52900
X0.05400 Y0.53000
X0.05600 Y0.53000
X0.05600 Y0.53100
X0.05700 Y0.53100
X0.05700 Y0.53200
X0.06000 Y0.53200
X0.06000 Y0.53400
X0.06100 Y0.53400
X0.06100 Y0.53500
X0.06200 Y0.53500
X0.06200 Y0.53600
X0.06300 Y0.53600
X0.06300 Y0.53700
X0.06400 Y0.53700
X0.06400 Y0.53800
X0.06500 Y0.53800
X0.06500 Y0.53900
X0.06600 Y0.53900
X0.06600 Y0.54000
X0.06700 Y0.54000
X0.06700 Y0.54100
X0.06800 Y0.54100
X0.06800 Y0.54200
X0.06900 Y0.54200
X0.06900 Y0.54300
X0.07000 Y0.54300
X0.07000 Y0.54400
X0.07100 Y0.54400
X0.07100 Y0.54500
X0.07200 Y0.54500
X0.07200 Y0.54600
X0.07300 Y0.54600
X0.07300 Y0.54700
X0.07400 Y0.54700
X0.07400 Y0.54800
X0.07500 Y0.54800
X0.07500 Y0.54900
X0.07600 Y0.54900
X0.07600 Y0.55000
X0.07700 Y0.55000
X0.07700 Y0.55100
X0.07800 Y0.55100
X0.07800 Y0.55200
X0.07900 Y0.55200
X0.07900 Y0.55300
X0.08000 Y0.55300
X0.08000 Y0.55400
X0.08100 Y0.55400
X0.08100 Y0.55500
X0.08200 Y0.55500
X0.08200 Y0.55600
X0.08300 Y0.55600
X0.08300 Y0.55700
X0.08400 Y0.55700
X0.08400 Y0.55800
X0.08500 Y0.55800
X0.08500 Y0.55900
X0.08600 Y0.55900
X0.08600 Y0.56000
X0.08700 Y0.56000
X0.08700 Y0.56100
X0.08800 Y0.56100
X0.08800 Y0.56200
X0.08900 Y0.56200
X0.08900 Y0.56300
X0.09000 Y0.56300
X0.09000 Y0.56400
X0.09100 Y0.56400
X0.09100 Y0.56500
X0.09200 Y0.56500
X0.09200 Y0.56600
X0.09300 Y0.56600
X0.09300 Y0.56700
X0.09400 Y0.56700
X0.09400 Y0.56800
X0.09500 Y0.56800
X0.09500 Y0.56900
X0.09600 Y0.56900
X0.09600 Y0.57000
X0.09700 Y0.57000
X0.09700 Y0.57100
X0.09800 Y0.57100
X0.09800 Y0.57200
X0.09900 Y0.57200
X0.09900 Y0.57300
X0.10000 Y0.57300
X0.10000 Y0.57400
X0.10100 Y0.57400
X0.10100 Y0.57500
X0.10200 Y0.57500
X0.10200 Y0.57600
X0.10300 Y0.57600
X0.10300 Y0.57700
X0.10400 Y0.57700
X0.10400 Y0.57800
X0.10500 Y0.57800
X0.10500 Y0.57900
X0.10600 Y0.57900
X0.10600 Y0.58000
X0.10700 Y0.58000
X0.10700 Y0.58100
X0.10800 Y0.58100
X0.10800 Y0.58200
X0.10900 Y0.58200
X0.10900 Y0.58300
X0.11000 Y0.58300
X0.11000 Y0.58400
X0.11100 Y0.58400
X0.11100 Y0.58500
X0.11200 Y0.58500
X0.11200 Y0.58600
X0.11300 Y0.58600
X0.11300 Y0.58700
X0.11400 Y0.58700
X0.11400 Y0.58800
X0.11500 Y0.58800
X0.11500 Y0.58900
X0.11600 Y0.58900
X0.11600 Y0.59000
X0.11700 Y0.59000
X0.11700 Y0.59100
X0.11800 Y0.59100
X0.11800 Y0.59200
X0.11900 Y0.59200
X0.11900 Y0.59300
X0.12000 Y0.59300
X0.12000 Y0.59400
X0.12100 Y0.59400
X0.12100 Y0.59500
X0.12200 Y0.59500
X0.12200 Y0.59600
X0.12300 Y0.59600
X0.12300 Y0.59700
X0.12400 Y0.59700
X0.12400 Y0.59800
X0.12500 Y0.59800
X0.12500 Y0.59900
X0.12600 Y0.59900
X0.12600 Y0.60000
X0.12700 Y0.60000
X0.12700 Y0.60300
X0.12800 Y0.60300
X0.12800 Y0.60400
X0.12900 Y0.60400
X0.12900 Y0.61000
X0.13000 Y0.61000
X0.13000 Y0.61200
X0.13100 Y0.61200
X0.13100 Y0.61400
X0.13200 Y0.61400
X0.13200 Y0.61500
X0.13300 Y0.61500
X0.13300 Y0.61600
X0.13400 Y0.61600
X0.13400 Y0.61800
X0.13500 Y0.61800
X0.13500 Y0.61900
X0.13700 Y0.61900
X0.13700 Y0.62000
X0.13800 Y0.62000
X0.13800 Y0.62100
X0.13900 Y0.62100
X0.13900 Y0.62200
X0.14000 Y0.62200
X0.14000 Y0.62300
X0.14300 Y0.62300
X0.14300 Y0.62400
X0.14900 Y0.62400
X0.14900 Y0.62500
X0.15100 Y0.62500
X0.15100 Y0.62600
X0.15300 Y0.62600
X0.15300 Y0.62700
X0.15400 Y0.62700
X0.15400 Y0.62800
X0.15500 Y0.62800
X0.15500 Y0.62900
X0.15600 Y0.62900
X0.15600 Y0.63000
X0.15700 Y0.63000
X0.15700 Y0.63100
X0.15800 Y0.63100
X0.15800 Y0.63200
X0.15900 Y0.63200
X0.15900 Y0.63300
X0.16000 Y0.63300
X0.16000 Y0.63400
X0.16100 Y0.63400
X0.16100 Y0.63500
X0.16200 Y0.63500
X0.16200 Y0.63600
X0.16300 Y0.63600
X0.16300 Y0.63700
X0.16400 Y0.63700
X0.16400 Y0.63800
X0.16500 Y0.63800
X0.16500 Y0.63900
X0.16600 Y0.63900
X0.16600 Y0.64000
X0.16700 Y0.64000
X0.16700 Y0.64100
X0.16800 Y0.64100
X0.16800 Y0.64200
X0.16900 Y0.64200
X0.16900 Y0.64500
X0.17000 Y0.64500
X0.17000 Y0.72200
X0.16900 Y0.72200
X0.16900 Y0.72300
X0.16800 Y0.72300
X0.16800 Y0.76700
X0.16900 Y0.76700
X0.16900 Y0.76800
X0.17100 Y0.76800
X0.17100 Y0.76900
X0.17200 Y0.76900
X0.17200 Y0.77000
X0.17500 Y0.77000
X0.17500 Y0.77200
X0.17600 Y0.77200
X0.17600 Y0.77300
X0.17700 Y0.77300
X0.17700 Y0.77400
X0.17800 Y0.77400
X0.17800 Y0.77500
X0.17900 Y0.77500
X0.17900 Y0.77600
X0.18000 Y0.77600
X0.18000 Y0.77700
X0.18100 Y0.77700
X0.18100 Y0.77800
X0.18200 Y0.77800
X0.18200 Y0.77900
X0.18300 Y0.77900
X0.18300 Y0.78000
X0.18400 Y0.78000
X0.18400 Y0.78100
X0.18500 Y0.78100
X0.18500 Y0.78200
X0.18600 Y0.78200
X0.18600 Y0.78300
X0.18700 Y0.78300
X0.18700 Y0.78400
X0.18800 Y0.78400
X0.18800 Y0.78500
X0.18900 Y0.78500
X0.18900 Y0.78600
X0.19000 Y0.78600
X0.19000 Y0.78700
X0.19100 Y0.78700
X0.19100 Y0.78800
X0.19200 Y0.78800
X0.19200 Y0.78900
X0.19300 Y0.78900
X0.19300 Y0.79000
X0.19400 Y0.79000
X0.19400 Y0.79100
X0.19500 Y0.79100
X0.19500 Y0.79200
X0.19600 Y0.79200
X0.19600 Y0.79300
X0.19700 Y0.79300
X0.19700 Y0.79400
X0.19800 Y0.79400
X0.19800 Y0.79500
X0.19900 Y0.79500
X0.19900 Y0.79600
X0.20000 Y0.79600
X0.20000 Y0.79700
X0.20100 Y0.79700
X0.20100 Y0.79900
X0.20200 Y0.79900
X0.20200 Y0.80100
X0.20300 Y0.80100
X0.20300 Y0.80200
X0.20400 Y0.80200
X0.20400 Y0.80300
X0.25100 Y0.80300
X0.25100 Y0.80400
X0.25400 Y0.80400
X0.25400 Y0.80500
X0.25500 Y0.80500
X0.25500 Y0.80600
X0.25600 Y0.80600
X0.25600 Y0.80700
X0.25800 Y0.80700
X0.25800 Y0.80800
X0.25900 Y0.80800
X0.25900 Y0.80900
X0.26000 Y0.80900
X0.26000 Y0.81000
X0.26100 Y0.81000
X0.26100 Y0.81100
X0.26200 Y0.81100
X0.26200 Y0.81200
X0.26300 Y0.81200
X0.26300 Y0.81300
X0.26400 Y0.81300
X0.26400 Y0.81400
X0.26500 Y0.81400
X0.26500 Y0.81500
X0.26600 Y0.81500
X0.26600 Y0.81600
X0.26700 Y0.81600
X0.26700 Y0.81700
X0.26800 Y0.81700
X0.26800 Y0.81800
X0.26900 Y0.81800
X0.26900 Y0.81900
X0.27000 Y0.81900
X0.27000 Y0.82000
X0.27100 Y0.82000
X0.27100 Y0.82100
X0.27200 Y0.82100
X0.27200 Y0.82200
X0.27300 Y0.82200
X0.27300 Y0.82300
X0.27400 Y0.82300
X0.27400 Y0.82400
X0.27500 Y0.82400
X0.27500 Y0.82500
X0.27600 Y0.82500
X0.27600 Y0.82600
X0.27700 Y0.82600
X0.27700 Y0.82700
X0.27800 Y0.82700
X0.27800 Y0.82800
X0.27900 Y0.82800
X0.27900 Y0.82900
X0.28000 Y0.82900
X0.28000 Y0.83000
X0.28100 Y0.83000
X0.28100 Y0.83100
X0.28200 Y0.83100
X0.28200 Y0.83200
X0.28300 Y0.83200
X0.28300 Y0.83300
X0.28400 Y0.83300
X0.28400 Y0.83400
X0.28500 Y0.83400
X0.28500 Y0.83500
X0.28600 Y0.83500
X0.28600 Y0.83600
X0.28700 Y0.83600
X0.28700 Y0.83700
X0.28900 Y0.83700
X0.28900 Y0.83800
X0.29100 Y0.83800
X0.29100 Y0.83900
X0.38400 Y0.83900
X0.38400 Y0.84000
X0.38700 Y0.84000
X0.38700 Y0.84100
X0.38800 Y0.84100
X0.38800 Y0.84200
X0.39000 Y0.84200
X0.39000 Y0.84300
X0.39200 Y0.84300
X0.39200 Y0.84400
X0.39300 Y0.84400
X0.39300 Y0.84500
X0.39400 Y0.84500
X0.39400 Y0.84600
X0.39500 Y0.84600
X0.39500 Y0.84700
X0.39600 Y0.84700
X0.39600 Y0.84800
X0.39700 Y0.84800
X0.39700 Y0.84900
X0.39800 Y0.84900
X0.39800 Y0.85000
X0.39900 Y0.85000
X0.39900 Y0.85100
X0.40000 Y0.85100
X0.40000 Y0.85200
X0.40100 Y0.85200
X0.40100 Y0.85300
X0.40200 Y0.85300
X0.40200 Y0.85400
X0.40300 Y0.85400
X0.40300 Y0.85500
X0.40400 Y0.85500
X0.40400 Y0.85600
X0.40500 Y0.85600
X0.40500 Y0.85700
X0.40600 Y0.85700
X0.40600 Y0.85800
X0.40700 Y0.85800
X0.40700 Y0.85900
X0.40800 Y0.85900
X0.40800 Y0.86000
X0.40900 Y0.86000
X0.40900 Y0.86100
X0.41000 Y0.86100
X0.41000 Y0.86200
X0.41100 Y0.86200
X0.41100 Y0.86300
X0.41200 Y0.86300
X0.41200 Y0.86400
X0.41300 Y0.86400
X0.41300 Y0.86500
X0.41400 Y0.86500
X0.41400 Y0.86600
X0.41500 Y0.86600
X0.41500 Y0.86700
X0.41600 Y0.86700
X0.41600 Y0.86800
X0.41700 Y0.86800
X0.41700 Y0.86900
X0.41800 Y0.86900
X0.41800 Y0.87000
X0.41900 Y0.87000
X0.41900 Y0.87100
X0.42000 Y0.87100
X0.42000 Y0.87200
X0.42100 Y0.87200
X0.42100 Y0.87300
X0.42200 Y0.87300
X0.42200 Y0.87400
X0.42300 Y0.87400
X0.42300 Y0.87500
X0.42400 Y0.87500
X0.42400 Y0.87600
X0.42500 Y0.87600
X0.42500 Y0.87700
X0.42600 Y0.87700
X0.42600 Y0.87800
X0.42700 Y0.87800
X0.42700 Y0.87900
X0.42800 Y0.87900
X0.42800 Y0.88000
X0.42900 Y0.88000
X0.42900 Y0.88100
X0.43000 Y0.88100
X0.43000 Y0.88200
X0.43100 Y0.88200
X0.43100 Y0.88300
X0.43200 Y0.88300
X0.43200 Y0.88400
X0.43300 Y0.88400
X0.43300 Y0.88500
X0.43400 Y0.88500
X0.43400 Y0.88600
X0.43500 Y0.88600
X0.43500 Y0.88700
X0.43600 Y0.88700
X0.43600 Y0.88800
X0.43700 Y0.88800
X0.43700 Y0.88900
X0.43800 Y0.88900
X0.43800 Y0.89000
X0.43900 Y0.89000
X0.43900 Y0.89100
X0.44000 Y0.89100
X0.44000 Y0.89200
X0.44100 Y0.89200
X0.44100 Y0.89300
X0.44200 Y0.89300
X0.44200 Y0.89500
X0.44300 Y0.89500
X0.44300 Y0.89600
X0.44400 Y0.89600
X0.44400 Y0.89800
X0.44500 Y0.89800
X0.44500 Y0.89900
X0.44600 Y0.89900
X0.44600 Y0.90200
X0.44700 Y0.90200
X0.44700 Y0.90500
X0.44800 Y0.90500
X0.44800 Y0.98900
X0.44900 Y0.98900
X0.44900 Y0.99000
X0.45000 Y0.99000
X0.45000 Y0.99200
X0.45100 Y0.99200
X0.45100 Y0.99300
X0.45200 Y0.99300
X0.45200 Y0.99500
X0.45300 Y0.99500
X0.45300 Y0.99600
X0.45400 Y0.99600
X0.45400 Y0.99700
X0.45500 Y0.99700
X0.45500 Y0.99800
X0.45600 Y0.99800
X0.45600 Y0.99900
X0.45700 Y0.99900
X0.45700 Y1.00000
X0.45800 Y1.00000
X0.45800 Y1.00100
X0.45900 Y1.00100
X0.45900 Y1.00200
X0.46000 Y1.00200
X0.46000 Y1.00300
X0.46100 Y1.00300
X0.46100 Y1.00400
X0.46200 Y1.00400
X0.46200 Y1.00500
X0.46300 Y1.00500
X0.46300 Y1.00600
X0.46400 Y1.00600
X0.46400 Y1.00700
X0.46500 Y1.00700
X0.46500 Y1.00800
X0.46600 Y1.00800
X0.46600 Y1.00900
X0.46700 Y1.00900
X0.46700 Y1.01000
X0.46900 Y1.01000
X0.46900 Y1.01100
X0.47100 Y1.01100
X0.47100 Y1.01200
X0.47200 Y1.01200
X0.47200 Y1.01300
X0.75100 Y1.01300
X0.75100 Y1.01200
X0.75200 Y1.01200
X0.75200 Y1.01100
X0.75300 Y1.01100
X0.75300 Y1.00900
X0.75400 Y1.00900
X0.75400 Y1.00700
X0.75500 Y1.00700
X0.75500 Y1.00600
X0.75600 Y1.00600
X0.75600 Y1.00500
G04 P0 ( dwell for no time -- G64 should not smooth over this point )
G00 Z0.19685 ( retract )

G00 X0.82700 Y1.06500 ( rapid move to begin. )
F0.98425
G01 Z-0.01969
G04 P0 ( dwell for no time -- G64 should not smooth over this point )
F1.96850
X0.82700 Y1.06500
X0.82800 Y1.06500
X0.82800 Y1.06400
X0.83000 Y1.06400
X0.83000 Y1.06300
X0.83100 Y1.06300
X0.83100 Y1.06200
X0.83200 Y1.06200
X0.83200 Y1.06100
X0.83300 Y1.06100
X0.83300 Y1.06000
X0.83400 Y1.06000
X0.83400 Y1.05800
X0.83500 Y1.05800
X0.83500 Y1.05700
X0.83600 Y1.05700
X0.83600 Y1.05500
X0.83700 Y1.05500
X0.83700 Y1.05400
X0.83800 Y1.05400
X0.83800 Y1.05200
X0.83900 Y1.05200
X0.83900 Y1.04900
X0.84000 Y1.04900
X0.84000 Y1.04600
X0.84100 Y1.04600
X0.84100 Y1.04400
X0.84200 Y1.04400
X0.84200 Y1.02700
X0.84100 Y1.02700
X0.84100 Y1.02500
X0.84000 Y1.02500
X0.84000 Y1.02200
X0.83900 Y1.02200
X0.83900 Y1.01800
X0.83800 Y1.01800
X0.83800 Y1.01600
X0.83700 Y1.01600
X0.83700 Y1.01500
X0.83600 Y1.01500
X0.83600 Y1.01300
X0.83500 Y1.01300
X0.83500 Y1.01200
X0.83400 Y1.01200
X0.83400 Y1.01100
X0.83300 Y1.01100
X0.83300 Y1.01000
X0.83200 Y1.01000
X0.83200 Y1.00900
X0.83100 Y1.00900
X0.83100 Y1.00800
X0.83000 Y1.00800
X0.83000 Y1.00700
X0.82900 Y1.00700
X0.82900 Y1.00600
X0.82800 Y1.00600
X0.82800 Y1.00500
X0.82700 Y1.00500
X0.82700 Y1.00400
X0.82500 Y1.00400
X0.82500 Y1.00300
X0.82300 Y1.00300
X0.82300 Y1.00200
X0.82000 Y1.00200
X0.82000 Y1.00100
X0.81600 Y1.00100
X0.81600 Y1.00000
X0.81400 Y1.00000
X0.81400 Y0.99900
X0.80700 Y0.99900
X0.80700 Y0.99800
X0.80400 Y0.99800
X0.80400 Y0.99900
X0.79700 Y0.99900
X0.79700 Y1.00000
X0.79400 Y1.00000
X0.79400 Y1.00100
X0.79100 Y1.00100
X0.79100 Y1.00200
X0.78800 Y1.00200
X0.78800 Y1.00300
X0.78600 Y1.00300
X0.78600 Y1.00400
X0.78400 Y1.00400
X0.78400 Y1.00500
X0.78300 Y1.00500
X0.78300 Y1.00600
X0.78100 Y1.00600
X0.78100 Y1.00700
X0.78000 Y1.00700
X0.78000 Y1.00800
X0.77900 Y1.00800
X0.77900 Y1.00900
X0.77800 Y1.00900
X0.77800 Y1.01000
X0.77700 Y1.01000
X0.77700 Y1.01100
X0.77600 Y1.01100
X0.77600 Y1.01300
X0.77500 Y1.01300
X0.77500 Y1.01400
X0.77400 Y1.01400
X0.77400 Y1.01500
