( pcb2gcode 1.2.2 )
( Software-independent Gcode )

G94 ( Inches per minute feed rate. )
G20 ( Units == INCHES. )

G90 ( Absolute coordinates. )
S10000 ( RPM spindle speed. )
G64 P0.00200 ( set maximum deviation from commanded toolpath )
F1.96850 ( Feedrate. )

F1.96850 ( Feedrate. )
M3 ( Spindle on clockwise. )
G04 P0 ( dwell for no time -- G64 should not smooth over this point )
G00 Z0.19685 ( retract )

G00 X0.06200 Y0.30600 ( rapid move to begin. )
F0.98425
G01 Z-0.01969
G04 P0 ( dwell for no time -- G64 should not smooth over this point )
F1.96850
X0.06200 Y0.30600
X0.08600 Y0.28200
X0.08500 Y0.27600
X0.07900 Y0.26900
X0.07000 Y0.25100
X0.07000 Y0.24700
X0.06500 Y0.23400
X0.06500 Y0.22700
X0.06200 Y0.21600
X0.06300 Y0.18800
X0.07200 Y0.15400
X0.07400 Y0.15300
X0.07800 Y0.14300
X0.08000 Y0.14200
X0.08500 Y0.13200
X0.10300 Y0.11300
X0.10700 Y0.11100
X0.11200 Y0.10500
X0.12200 Y0.10000
X0.12300 Y0.09800
X0.13300 Y0.09400
X0.13400 Y0.09200
X0.14400 Y0.09000
X0.14500 Y0.08600
X0.14700 Y0.08500
X0.14500 Y0.08100
X0.08300 Y0.08100
X0.08000 Y0.08200
X0.05200 Y0.11000
X0.05100 Y0.31200
X0.05400 Y0.31300
X0.06000 Y0.31000
X0.06200 Y0.30600
G04 P0 ( dwell for no time -- G64 should not smooth over this point )
G00 Z0.19685 ( retract )

G00 X0.17000 Y0.71600 ( rapid move to begin. )
F0.98425
G01 Z-0.01969
G04 P0 ( dwell for no time -- G64 should not smooth over this point )
F1.96850
X0.17000 Y0.71600
X0.16900 Y0.64200
X0.15300 Y0.62600
X0.14900 Y0.62400
X0.14000 Y0.62300
X0.13700 Y0.61900
X0.13500 Y0.61900
X0.12900 Y0.61000
X0.12900 Y0.60400
X0.12700 Y0.60300
X0.12700 Y0.60000
X0.06000 Y0.53400
X0.06000 Y0.53200
X0.05700 Y0.53200
X0.05600 Y0.53000
X0.05200 Y0.52900
X0.05100 Y0.53000
X0.05200 Y0.68600
X0.06000 Y0.69400
X0.06300 Y0.69500
X0.13700 Y0.69600
X0.16100 Y0.72000
X0.16900 Y0.72300
X0.17000 Y0.71600
G04 P0 ( dwell for no time -- G64 should not smooth over this point )
G00 Z0.19685 ( retract )

G00 X0.20200 Y0.80000 ( rapid move to begin. )
F0.98425
G01 Z-0.01969
G04 P0 ( dwell for no time -- G64 should not smooth over this point )
F1.96850
X0.20200 Y0.80000
X0.20100 Y0.79700
X0.17500 Y0.77200
X0.17500 Y0.77000
X0.17200 Y0.77000
X0.16900 Y0.76700
X0.16600 Y0.76800
X0.16600 Y0.80300
X0.16800 Y0.80500
X0.20300 Y0.80500
X0.20400 Y0.80200
X0.20200 Y0.80000
G04 P0 ( dwell for no time -- G64 should not smooth over this point )
G00 Z0.19685 ( retract )

G00 X0.19300 Y1.08900 ( rapid move to begin. )
F0.98425
G01 Z-0.01969
G04 P0 ( dwell for no time -- G64 should not smooth over this point )
F1.96850
X0.19300 Y1.08900
X0.86200 Y1.09000
X0.86500 Y1.08700
X0.86500 Y0.89400
X0.84200 Y0.87100
X0.75700 Y0.87100
X0.75000 Y0.86400
X0.74900 Y0.68500
X0.74700 Y0.68500
X0.74400 Y0.68800
X0.74300 Y0.69400
X0.73900 Y0.69600
X0.72100 Y0.71400
X0.71900 Y0.71800
X0.71300 Y0.72000
X0.69700 Y0.72100
X0.69900 Y0.72900
X0.70700 Y0.73600
X0.71000 Y0.74200
X0.71000 Y0.74600
X0.71200 Y0.74700
X0.71200 Y0.76300
X0.70700 Y0.77400
X0.69800 Y0.78300
X0.69600 Y0.78300
X0.69500 Y0.78500
X0.69000 Y0.78500
X0.68800 Y0.78700
X0.67200 Y0.78700
X0.67100 Y0.78500
X0.66600 Y0.78500
X0.65400 Y0.77500
X0.65000 Y0.76700
X0.64900 Y0.74700
X0.65200 Y0.74200
X0.65200 Y0.73900
X0.65400 Y0.73800
X0.65600 Y0.73300
X0.65900 Y0.73000
X0.66100 Y0.73000
X0.66300 Y0.72600
X0.66200 Y0.72000
X0.61000 Y0.72000
X0.59500 Y0.73500
X0.59000 Y0.73500
X0.58800 Y0.73700
X0.57200 Y0.73700
X0.57100 Y0.73500
X0.56600 Y0.73500
X0.56500 Y0.73300
X0.56100 Y0.73200
X0.55400 Y0.72500
X0.54900 Y0.71400
X0.54900 Y0.69700
X0.55200 Y0.69200
X0.55200 Y0.68900
X0.55900 Y0.68000
X0.57200 Y0.67400
X0.58900 Y0.67400
X0.59500 Y0.67600
X0.59600 Y0.67800
X0.60200 Y0.68000
X0.61000 Y0.69100
X0.66400 Y0.69000
X0.66200 Y0.68200
X0.65400 Y0.67500
X0.65000 Y0.66700
X0.64900 Y0.64700
X0.65600 Y0.63300
X0.65900 Y0.63000
X0.66500 Y0.62800
X0.66600 Y0.62500
X0.66600 Y0.58600
X0.66500 Y0.58300
X0.66100 Y0.58200
X0.65200 Y0.57200
X0.65200 Y0.56900
X0.64900 Y0.56400
X0.64900 Y0.54700
X0.65600 Y0.53300
X0.65900 Y0.53000
X0.66600 Y0.52700
X0.66600 Y0.52500
X0.66900 Y0.52200
X0.66900 Y0.51900
X0.66700 Y0.51700
X0.65300 Y0.51400
X0.64600 Y0.50700
X0.64600 Y0.50200
X0.64400 Y0.50000
X0.64400 Y0.49000
X0.64900 Y0.48000
X0.66000 Y0.47400
X0.67000 Y0.47400
X0.68100 Y0.47900
X0.68500 Y0.48500
X0.68700 Y0.49700
X0.68400 Y0.50800
X0.67700 Y0.51400
X0.67700 Y0.51600
X0.67400 Y0.51900
X0.67400 Y0.52200
X0.67800 Y0.52400
X0.68900 Y0.52400
X0.69500 Y0.52600
X0.69600 Y0.52800
X0.70200 Y0.53000
X0.70600 Y0.53600
X0.71100 Y0.53700
X0.71200 Y0.53900
X0.71600 Y0.53700
X0.71500 Y0.49600
X0.68300 Y0.46400
X0.68300 Y0.46100
X0.68100 Y0.45900
X0.68100 Y0.35000
X0.67300 Y0.34600
X0.66400 Y0.33700
X0.66100 Y0.32600
X0.65900 Y0.32400
X0.65800 Y0.31700
X0.66200 Y0.29700
X0.66400 Y0.29600
X0.66600 Y0.29100
X0.67400 Y0.28400
X0.68700 Y0.27900
X0.69400 Y0.27800
X0.70400 Y0.27900
X0.70600 Y0.28100
X0.71000 Y0.28100
X0.71700 Y0.28400
X0.72800 Y0.29600
X0.73000 Y0.30500
X0.73200 Y0.30700
X0.73200 Y0.32400
X0.73000 Y0.32600
X0.72800 Y0.33400
X0.72000 Y0.34400
X0.71800 Y0.34400
X0.71700 Y0.34600
X0.71000 Y0.35000
X0.71000 Y0.44700
X0.71100 Y0.45000
X0.74100 Y0.47900
X0.74400 Y0.48800
X0.74700 Y0.49100
X0.74900 Y0.49100
X0.75000 Y0.48400
X0.75000 Y0.17400
X0.72700 Y0.15100
X0.65200 Y0.15100
X0.64500 Y0.14400
X0.64500 Y0.04900
X0.62200 Y0.02600
X0.01400 Y0.02600
X0.01100 Y0.02900
X0.01100 Y1.08700
X0.01400 Y1.09000
X0.19300 Y1.08900
G04 P0 ( dwell for no time -- G64 should not smooth over this point )
G00 Z0.19685 ( retract )

G00 X0.60400 Y0.93200 ( rapid move to begin. )
F0.98425
G01 Z-0.01969
G04 P0 ( dwell for no time -- G64 should not smooth over this point )
F1.96850
X0.60400 Y0.93200
X0.61100 Y0.92600
X0.61700 Y0.91300
X0.61600 Y0.89300
X0.61400 Y0.89200
X0.61300 Y0.88800
X0.61100 Y0.88700
X0.61000 Y0.88300
X0.60600 Y0.88000
X0.60600 Y0.87800
X0.59600 Y0.87100
X0.58300 Y0.86800
X0.56800 Y0.87000
X0.55800 Y0.87500
X0.54800 Y0.88600
X0.54400 Y0.89700
X0.54300 Y0.90300
X0.54400 Y0.91400
X0.54900 Y0.92600
X0.56000 Y0.93700
X0.56300 Y0.93700
X0.56800 Y0.94100
X0.57200 Y0.94200
X0.59200 Y0.94100
X0.60100 Y0.93600
X0.60400 Y0.93200
G04 P0 ( dwell for no time -- G64 should not smooth over this point )
G00 Z0.19685 ( retract )

G00 X0.60400 Y0.83200 ( rapid move to begin. )
F0.98425
G01 Z-0.01969
G04 P0 ( dwell for no time -- G64 should not smooth over this point )
F1.96850
X0.60400 Y0.83200
X0.61100 Y0.82600
X0.61700 Y0.81300
X0.61600 Y0.79300
X0.61400 Y0.79200
X0.61300 Y0.78800
X0.61100 Y0.78700
X0.61000 Y0.78300
X0.60600 Y0.78000
X0.60600 Y0.77800
X0.59600 Y0.77100
X0.58300 Y0.76800
X0.57200 Y0.76900
X0.56000 Y0.77300
X0.54000 Y0.75300
X0.54000 Y0.67200
X0.55800 Y0.65500
X0.55800 Y0.65300
X0.57000 Y0.64100
X0.58800 Y0.64200
X0.60100 Y0.63600
X0.61300 Y0.62400
X0.61300 Y0.62100
X0.61700 Y0.61300
X0.61700 Y0.59700
X0.61600 Y0.59300
X0.61300 Y0.59000
X0.61300 Y0.58600
X0.60000 Y0.57300
X0.58900 Y0.56900
X0.57800 Y0.56800
X0.56100 Y0.57300
X0.55000 Y0.58300
X0.54400 Y0.59700
X0.54300 Y0.60300
X0.54400 Y0.61400
X0.50700 Y0.65000
X0.50700 Y0.65200
X0.50100 Y0.66000
X0.50100 Y0.76500
X0.50300 Y0.77000
X0.54400 Y0.81000
X0.54600 Y0.82100
X0.54800 Y0.82200
X0.54900 Y0.82600
X0.56000 Y0.83700
X0.56300 Y0.83700
X0.56800 Y0.84100
X0.57200 Y0.84200
X0.58800 Y0.84200
X0.59800 Y0.83800
X0.60400 Y0.83200
G04 P0 ( dwell for no time -- G64 should not smooth over this point )
G00 Z0.19685 ( retract )

G00 X0.59800 Y0.73200 ( rapid move to begin. )
F0.98425
G01 Z-0.01969
G04 P0 ( dwell for no time -- G64 should not smooth over this point )
F1.96850
X0.59800 Y0.73200
X0.61000 Y0.72000
X0.66200 Y0.72000
X0.66300 Y0.72200
X0.69700 Y0.72200
X0.69800 Y0.72000
X0.71700 Y0.71900
X0.73900 Y0.69600
X0.74300 Y0.69400
X0.74400 Y0.68800
X0.74700 Y0.68500
X0.74900 Y0.68500
X0.74900 Y0.49100
X0.74700 Y0.49100
X0.74400 Y0.48800
X0.74100 Y0.47900
X0.71100 Y0.45000
X0.71000 Y0.44700
X0.71000 Y0.35000
X0.71700 Y0.34600
X0.71800 Y0.34400
X0.72000 Y0.34400
X0.72800 Y0.33400
X0.73000 Y0.32600
X0.73200 Y0.32400
X0.73200 Y0.30700
X0.73000 Y0.30500
X0.72900 Y0.29800
X0.72600 Y0.29500
X0.72600 Y0.29300
X0.71700 Y0.28400
X0.71000 Y0.28100
X0.70600 Y0.28100
X0.70400 Y0.27900
X0.69700 Y0.27800
X0.68700 Y0.27900
X0.67100 Y0.28600
X0.66200 Y0.29700
X0.65800 Y0.31700
X0.65900 Y0.32400
X0.66100 Y0.32600
X0.66400 Y0.33700
X0.67300 Y0.34600
X0.68100 Y0.35000
X0.68100 Y0.45900
X0.68300 Y0.46100
X0.68300 Y0.46400
X0.71400 Y0.49400
X0.71600 Y0.49900
X0.71600 Y0.53700
X0.71300 Y0.53900
X0.71400 Y0.54400
X0.71300 Y0.57200
X0.71500 Y0.57200
X0.71500 Y0.63700
X0.71300 Y0.63800
X0.71400 Y0.64400
X0.71300 Y0.67400
X0.71000 Y0.67600
X0.70800 Y0.68100
X0.70500 Y0.68400
X0.70100 Y0.68500
X0.69900 Y0.68800
X0.69300 Y0.68900
X0.66400 Y0.68800
X0.66300 Y0.69100
X0.61000 Y0.69100
X0.60200 Y0.68000
X0.58900 Y0.67400
X0.57200 Y0.67400
X0.55900 Y0.68000
X0.55200 Y0.68900
X0.55200 Y0.69200
X0.54900 Y0.69700
X0.54900 Y0.71400
X0.55400 Y0.72500
X0.56100 Y0.73200
X0.56500 Y0.73300
X0.56600 Y0.73500
X0.57100 Y0.73500
X0.57200 Y0.73700
X0.58800 Y0.73700
X0.59000 Y0.73500
X0.59500 Y0.73500
X0.59800 Y0.73200
G04 P0 ( dwell for no time -- G64 should not smooth over this point )
G00 Z0.19685 ( retract )

G00 X0.69800 Y0.78200 ( rapid move to begin. )
F0.98425
G01 Z-0.01969
G04 P0 ( dwell for no time -- G64 should not smooth over this point )
F1.96850
X0.69800 Y0.78200
X0.70700 Y0.77400
X0.71200 Y0.76300
X0.71200 Y0.74700
X0.71000 Y0.74600
X0.71000 Y0.74200
X0.70700 Y0.73600
X0.69900 Y0.72900
X0.69700 Y0.72200
X0.66300 Y0.72200
X0.66100 Y0.73000
X0.65900 Y0.73000
X0.65600 Y0.73300
X0.64900 Y0.74700
X0.64900 Y0.76400
X0.65200 Y0.76900
X0.65200 Y0.77200
X0.66100 Y0.78200
X0.66500 Y0.78300
X0.66600 Y0.78500
X0.67100 Y0.78500
X0.67200 Y0.78700
X0.68800 Y0.78700
X0.69000 Y0.78500
X0.69500 Y0.78500
X0.69800 Y0.78200
G04 P0 ( dwell for no time -- G64 should not smooth over this point )
G00 Z0.19685 ( retract )

G00 X0.70600 Y0.68200 ( rapid move to begin. )
F0.98425
G01 Z-0.01969
G04 P0 ( dwell for no time -- G64 should not smooth over this point )
F1.96850
X0.70600 Y0.68200
X0.71300 Y0.67400
X0.71400 Y0.64400
X0.71300 Y0.63800
X0.70600 Y0.63500
X0.70000 Y0.62800
X0.69600 Y0.62600
X0.69600 Y0.58500
X0.69800 Y0.58200
X0.70200 Y0.58100
X0.70700 Y0.57400
X0.71300 Y0.57200
X0.71400 Y0.56700
X0.71300 Y0.53900
X0.71100 Y0.53700
X0.70600 Y0.53600
X0.70200 Y0.53000
X0.69600 Y0.52800
X0.69500 Y0.52600
X0.68900 Y0.52400
X0.67800 Y0.52400
X0.67500 Y0.52300
X0.67400 Y0.52000
X0.66900 Y0.52000
X0.66600 Y0.52700
X0.65900 Y0.53000
X0.65600 Y0.53300
X0.64900 Y0.54700
X0.64900 Y0.56400
X0.65200 Y0.56900
X0.65200 Y0.57200
X0.66100 Y0.58200
X0.66500 Y0.58300
X0.66600 Y0.58600
X0.66600 Y0.62500
X0.66500 Y0.62800
X0.65900 Y0.63000
X0.65200 Y0.63900
X0.65200 Y0.64200
X0.64900 Y0.64700
X0.64900 Y0.66400
X0.65200 Y0.66900
X0.65200 Y0.67200
X0.66200 Y0.68200
X0.66400 Y0.68800
X0.69300 Y0.68900
X0.69900 Y0.68800
X0.70600 Y0.68200
G04 P0 ( dwell for no time -- G64 should not smooth over this point )
G00 Z0.19685 ( retract )

G00 X0.71500 Y0.63100 ( rapid move to begin. )
F0.98425
G01 Z-0.01969
G04 P0 ( dwell for no time -- G64 should not smooth over this point )
F1.96850
X0.71500 Y0.63100
X0.71500 Y0.57200
X0.71100 Y0.57200
X0.70700 Y0.57400
X0.70500 Y0.57800
X0.70200 Y0.58100
X0.69800 Y0.58200
X0.69600 Y0.58500
X0.69600 Y0.62600
X0.70000 Y0.62800
X0.70600 Y0.63500
X0.71200 Y0.63800
X0.71500 Y0.63700
X0.71500 Y0.63100
G04 P0 ( dwell for no time -- G64 should not smooth over this point )
G00 Z0.19685 ( retract )

G00 X0.67900 Y0.51200 ( rapid move to begin. )
F0.98425
G01 Z-0.01969
G04 P0 ( dwell for no time -- G64 should not smooth over this point )
F1.96850
X0.67900 Y0.51200
X0.68400 Y0.50800
X0.68700 Y0.49700
X0.68500 Y0.48500
X0.68200 Y0.48200
X0.68200 Y0.48000
X0.67000 Y0.47400
X0.66000 Y0.47400
X0.65000 Y0.47900
X0.64400 Y0.49000
X0.64400 Y0.50000
X0.64600 Y0.50200
X0.64600 Y0.50700
X0.65300 Y0.51400
X0.66700 Y0.51700
X0.66900 Y0.52000
X0.67400 Y0.52000
X0.67900 Y0.51200
G04 P0 ( dwell for no time -- G64 should not smooth over this point )
G00 Z0.19685 ( retract )

G00 X0.73600 Y0.24500 ( rapid move to begin. )
F0.98425
G01 Z-0.01969
G04 P0 ( dwell for no time -- G64 should not smooth over this point )
F1.96850
X0.73600 Y0.24500
X0.73600 Y0.17500
X0.65500 Y0.17500
X0.65600 Y0.25600
X0.73500 Y0.25600
X0.73600 Y0.24500
G04 P0 ( dwell for no time -- G64 should not smooth over this point )
G00 Z0.19685 ( retract )

G00 X0.76200 Y1.00500 ( rapid move to begin. )
F0.98425
G01 Z-0.01969
G04 P0 ( dwell for no time -- G64 should not smooth over this point )
F1.96850
X0.76200 Y1.00500
X0.78700 Y0.98000
X0.79700 Y0.98000
X0.80000 Y0.97600
X0.84600 Y0.97500
X0.84600 Y0.89500
X0.76500 Y0.89500
X0.76500 Y0.94100
X0.76100 Y0.94400
X0.76100 Y0.95200
X0.73700 Y0.97600
X0.48800 Y0.97600
X0.48500 Y0.97300
X0.48500 Y0.89200
X0.48300 Y0.88600
X0.40500 Y0.80700
X0.39700 Y0.80300
X0.30500 Y0.80300
X0.27000 Y0.76800
X0.26500 Y0.76600
X0.21800 Y0.76600
X0.20500 Y0.75200
X0.20500 Y0.63400
X0.20300 Y0.62800
X0.17700 Y0.60200
X0.17400 Y0.58900
X0.17200 Y0.58800
X0.17100 Y0.58500
X0.16700 Y0.58100
X0.15900 Y0.57700
X0.15100 Y0.57600
X0.09000 Y0.51500
X0.09000 Y0.32700
X0.10800 Y0.30900
X0.11100 Y0.30900
X0.12800 Y0.32000
X0.13800 Y0.32300
X0.14200 Y0.32600
X0.16400 Y0.33200
X0.17700 Y0.33300
X0.20600 Y0.33200
X0.21200 Y0.32900
X0.22800 Y0.32600
X0.23200 Y0.32300
X0.24400 Y0.31900
X0.25300 Y0.31200
X0.25700 Y0.31100
X0.25800 Y0.30900
X0.26100 Y0.30900
X0.27000 Y0.30000
X0.27200 Y0.30000
X0.28900 Y0.28100
X0.29000 Y0.27700
X0.29200 Y0.27600
X0.29600 Y0.26700
X0.29800 Y0.26600
X0.30000 Y0.25900
X0.30300 Y0.25500
X0.30300 Y0.25200
X0.30600 Y0.24800
X0.31200 Y0.22700
X0.31300 Y0.21500
X0.31200 Y0.18400
X0.30600 Y0.16200
X0.30300 Y0.15800
X0.30300 Y0.15500
X0.30000 Y0.15100
X0.29800 Y0.14400
X0.29600 Y0.14300
X0.28900 Y0.12900
X0.27200 Y0.11100
X0.27000 Y0.11100
X0.26600 Y0.10600
X0.26400 Y0.10600
X0.26000 Y0.10100
X0.25300 Y0.09800
X0.25200 Y0.09600
X0.25000 Y0.09600
X0.24200 Y0.09000
X0.23100 Y0.08700
X0.23100 Y0.08500
X0.20800 Y0.08200
X0.15000 Y0.08300
X0.14500 Y0.08600
X0.14400 Y0.09000
X0.13400 Y0.09200
X0.13300 Y0.09400
X0.12300 Y0.09800
X0.12200 Y0.10000
X0.11200 Y0.10500
X0.09100 Y0.12500
X0.09100 Y0.12700
X0.08500 Y0.13200
X0.08000 Y0.14200
X0.07800 Y0.14300
X0.07000 Y0.16000
X0.07000 Y0.16400
X0.06500 Y0.17700
X0.06500 Y0.18400
X0.06200 Y0.19500
X0.06200 Y0.21600
X0.06600 Y0.23800
X0.07200 Y0.25600
X0.07600 Y0.26400
X0.07800 Y0.26500
X0.07900 Y0.26900
X0.08500 Y0.27600
X0.08600 Y0.28200
X0.06000 Y0.30800
X0.06000 Y0.31000
X0.05300 Y0.31300
X0.05300 Y0.52900
X0.05600 Y0.53000
X0.05700 Y0.53200
X0.06000 Y0.53200
X0.06000 Y0.53400
X0.12700 Y0.60000
X0.12700 Y0.60300
X0.12900 Y0.60400
X0.12900 Y0.61000
X0.13500 Y0.61900
X0.13700 Y0.61900
X0.14000 Y0.62300
X0.14900 Y0.62400
X0.15300 Y0.62600
X0.16900 Y0.64200
X0.17000 Y0.72200
X0.16800 Y0.72300
X0.16800 Y0.76700
X0.17100 Y0.76800
X0.17200 Y0.77000
X0.17500 Y0.77000
X0.17500 Y0.77200
X0.20100 Y0.79700
X0.20400 Y0.80300
X0.25400 Y0.80400
X0.28700 Y0.83700
X0.29100 Y0.83900
X0.38400 Y0.83900
X0.39200 Y0.84300
X0.44200 Y0.89300
X0.44200 Y0.89500
X0.44600 Y0.89900
X0.44800 Y0.90500
X0.44800 Y0.98900
X0.45900 Y1.00200
X0.47200 Y1.01300
X0.75600 Y1.01300
X0.76200 Y1.00500
G04 P0 ( dwell for no time -- G64 should not smooth over this point )
G00 Z0.19685 ( retract )

G00 X0.83800 Y1.06500 ( rapid move to begin. )
F0.98425
G01 Z-0.01969
G04 P0 ( dwell for no time -- G64 should not smooth over this point )
F1.96850
X0.83800 Y1.06500
X0.84300 Y1.05900
X0.84600 Y1.04900
X0.84600 Y1.02200
X0.84400 Y1.01300
X0.83200 Y0.99900
X0.81900 Y0.99500
X0.78600 Y0.99600
X0.77600 Y1.00100
X0.76800 Y1.01100
X0.75800 Y1.01100
X0.75600 Y1.01300
X0.47200 Y1.01300
X0.47100 Y1.01100
X0.46700 Y1.01000
X0.45200 Y0.99500
X0.45200 Y0.99300
X0.44800 Y0.98900
X0.44800 Y0.90500
X0.44600 Y0.89900
X0.44400 Y0.89800
X0.44200 Y0.89300
X0.39200 Y0.84300
X0.38400 Y0.83900
X0.29100 Y0.83900
X0.28700 Y0.83700
X0.25800 Y0.80700
X0.25100 Y0.80300
X0.20400 Y0.80300
X0.20300 Y0.80500
X0.16800 Y0.80500
X0.16600 Y0.80300
X0.16600 Y0.76800
X0.16800 Y0.76700
X0.16800 Y0.72300
X0.16100 Y0.72000
X0.13700 Y0.69600
X0.06300 Y0.69500
X0.06000 Y0.69400
X0.05200 Y0.68600
X0.05100 Y0.53000
X0.05300 Y0.52900
X0.05300 Y0.31300
X0.05100 Y0.31200
X0.05100 Y0.11300
X0.05200 Y0.11000
X0.08000 Y0.08200
X0.14500 Y0.08100
X0.14700 Y0.08400
X0.16300 Y0.08200
X0.20800 Y0.08200
X0.22800 Y0.08500
X0.32300 Y0.08500
X0.36600 Y0.12700
X0.36400 Y0.13300
X0.36200 Y0.13400
X0.36100 Y0.13800
X0.35600 Y0.14400
X0.35400 Y0.15100
X0.35100 Y0.15500
X0.35100 Y0.15800
X0.34800 Y0.16200
X0.34200 Y0.18400
X0.34100 Y0.19600
X0.34200 Y0.22700
X0.34800 Y0.24800
X0.35100 Y0.25200
X0.35400 Y0.26200
X0.35800 Y0.26700
X0.35900 Y0.27100
X0.36100 Y0.27200
X0.36200 Y0.27600
X0.36400 Y0.27700
X0.36500 Y0.28100
X0.38200 Y0.30000
X0.38400 Y0.30000
X0.39300 Y0.30900
X0.40400 Y0.31400
X0.41000 Y0.31900
X0.43100 Y0.32800
X0.44700 Y0.33200
X0.45900 Y0.33300
X0.49000 Y0.33200
X0.51200 Y0.32600
X0.51600 Y0.32300
X0.51900 Y0.32300
X0.52300 Y0.32000
X0.53000 Y0.31800
X0.53100 Y0.31600
X0.54300 Y0.31000
X0.55700 Y0.29600
X0.55900 Y0.29600
X0.56300 Y0.29200
X0.56300 Y0.29000
X0.57200 Y0.28100
X0.57700 Y0.27100
X0.58300 Y0.26400
X0.59400 Y0.23100
X0.59600 Y0.21500
X0.59500 Y0.18400
X0.59100 Y0.16800
X0.58600 Y0.15700
X0.58400 Y0.14800
X0.57700 Y0.13900
X0.57200 Y0.12900
X0.56500 Y0.12300
X0.56500 Y0.12100
X0.55900 Y0.11600
X0.55900 Y0.11400
X0.55700 Y0.11400
X0.54500 Y0.10200
X0.54300 Y0.10200
X0.54200 Y0.10000
X0.54000 Y0.10000
X0.53900 Y0.09800
X0.53200 Y0.09500
X0.52600 Y0.09000
X0.52000 Y0.08900
X0.51800 Y0.08700
X0.50600 Y0.08300
X0.49000 Y0.07900
X0.47300 Y0.07700
X0.44700 Y0.07900
X0.41200 Y0.09000
X0.40400 Y0.09600
X0.40200 Y0.09600
X0.40100 Y0.09800
X0.39700 Y0.09900
X0.39600 Y0.10100
X0.39300 Y0.10100
X0.34300 Y0.05000
X0.33500 Y0.04600
X0.07100 Y0.04600
X0.06000 Y0.05200
X0.02200 Y0.09000
X0.02200 Y0.09200
X0.02000 Y0.09300
X0.01600 Y0.10000
X0.01600 Y0.69500
X0.01800 Y0.70000
X0.04600 Y0.72800
X0.05200 Y0.73000
X0.12300 Y0.73000
X0.13100 Y0.73800
X0.13100 Y0.80300
X0.12700 Y0.80700
X0.12400 Y0.81400
X0.12400 Y0.82600
X0.12800 Y0.83500
X0.13700 Y0.84400
X0.15200 Y0.84700
X0.16300 Y0.84400
X0.16700 Y0.84000
X0.23800 Y0.84000
X0.27100 Y0.87300
X0.27700 Y0.87500
X0.30300 Y0.87600
X0.37300 Y0.87500
X0.41100 Y0.91300
X0.41000 Y0.98100
X0.41200 Y1.00800
X0.45100 Y1.04800
X0.45700 Y1.05000
X0.76300 Y1.05000
X0.76600 Y1.05100
X0.76900 Y1.06200
X0.77800 Y1.07100
X0.78000 Y1.07100
X0.78300 Y1.07400
X0.79200 Y1.07600
X0.82500 Y1.07500
X0.83300 Y1.06900
X0.83500 Y1.06900
X0.83800 Y1.06500

G04 P0 ( dwell for no time -- G64 should not smooth over this point )
G00 Z0.197 ( retract )

M5 ( Spindle off. )
M9 ( Coolant off. )
M2 ( Program end. )

