( pcb2gcode 1.2.2 )
( Software-independent Gcode )
      
G94 ( Inches per minute feed rate. )
G20 ( Units == INCHES. )

G90 ( Absolute coordinates. )
S10000 ( RPM spindle speed. )
G64 P0.00200 ( set maximum deviation from commanded toolpath )
F0.19685 ( Feedrate. )

F0.19685 ( Feedrate. )
M3 ( Spindle on clockwise. )
G04 P0 ( dwell for no time -- G64 should not smooth over this point )
G00 Z0.19685 ( retract )

G00 X0.88100 Y1.08900 ( rapid move to begin. )
G01 Z0.00000 F0.09842 ( plunge. )
G04 P0 ( dwell for no time -- G64 should not smooth over this point )
F0.19685
X0.88100 Y1.08900
X0.88100 Y0.87800
X0.88000 Y0.87800
X0.88000 Y0.87600
X0.87900 Y0.87600
X0.87900 Y0.87500
X0.87800 Y0.87500
X0.87800 Y0.87400
X0.87700 Y0.87400
X0.87700 Y0.87300
X0.87600 Y0.87300
X0.87600 Y0.87200
X0.87500 Y0.87200
X0.87500 Y0.87100
X0.87400 Y0.87100
X0.87400 Y0.87000
X0.87300 Y0.87000
X0.87300 Y0.86900
X0.87200 Y0.86900
X0.87200 Y0.86800
X0.87100 Y0.86800
X0.87100 Y0.86700
X0.87000 Y0.86700
X0.87000 Y0.86600
X0.86900 Y0.86600
X0.86900 Y0.86500
X0.86800 Y0.86500
X0.86800 Y0.86400
X0.86700 Y0.86400
X0.86700 Y0.86300
X0.86600 Y0.86300
X0.86600 Y0.86200
X0.86500 Y0.86200
X0.86500 Y0.86100
X0.86400 Y0.86100
X0.86400 Y0.86000
X0.86300 Y0.86000
X0.86300 Y0.85900
X0.86200 Y0.85900
X0.86200 Y0.85800
X0.86100 Y0.85800
X0.86100 Y0.85700
X0.86000 Y0.85700
X0.86000 Y0.85600
X0.85800 Y0.85600
X0.85800 Y0.85500
X0.77300 Y0.85500
X0.77300 Y0.85400
X0.77200 Y0.85400
X0.77200 Y0.85300
X0.77100 Y0.85300
X0.77100 Y0.85200
X0.77000 Y0.85200
X0.77000 Y0.85100
X0.76900 Y0.85100
X0.76900 Y0.85000
X0.76800 Y0.85000
X0.76800 Y0.84900
X0.76700 Y0.84900
X0.76700 Y0.84800
X0.76600 Y0.84800
X0.76600 Y0.15800
X0.76500 Y0.15800
X0.76500 Y0.15600
X0.76400 Y0.15600
X0.76400 Y0.15500
X0.76300 Y0.15500
X0.76300 Y0.15400
X0.76200 Y0.15400
X0.76200 Y0.15300
X0.76100 Y0.15300
X0.76100 Y0.15200
X0.76000 Y0.15200
X0.76000 Y0.15100
X0.75900 Y0.15100
X0.75900 Y0.15000
X0.75800 Y0.15000
X0.75800 Y0.14900
X0.75700 Y0.14900
X0.75700 Y0.14800
X0.75600 Y0.14800
X0.75600 Y0.14700
X0.75500 Y0.14700
X0.75500 Y0.14600
X0.75400 Y0.14600
X0.75400 Y0.14500
X0.75300 Y0.14500
X0.75300 Y0.14400
X0.75200 Y0.14400
X0.75200 Y0.14300
X0.75100 Y0.14300
X0.75100 Y0.14200
X0.75000 Y0.14200
X0.75000 Y0.14100
X0.74900 Y0.14100
X0.74900 Y0.14000
X0.74800 Y0.14000
X0.74800 Y0.13900
X0.74700 Y0.13900
X0.74700 Y0.13800
X0.74600 Y0.13800
X0.74600 Y0.13700
X0.74500 Y0.13700
X0.74500 Y0.13600
X0.74300 Y0.13600
X0.74300 Y0.13500
X0.66800 Y0.13500
X0.66800 Y0.13400
X0.66700 Y0.13400
X0.66700 Y0.13300
X0.66600 Y0.13300
X0.66600 Y0.13200
X0.66500 Y0.13200
X0.66500 Y0.13100
X0.66400 Y0.13100
X0.66400 Y0.13000
X0.66300 Y0.13000
X0.66300 Y0.12900
X0.66200 Y0.12900
X0.66200 Y0.12800
X0.66100 Y0.12800
X0.66100 Y0.03300
X0.66000 Y0.03300
X0.66000 Y0.03100
X0.65900 Y0.03100
X0.65900 Y0.03000
X0.65800 Y0.03000
X0.65800 Y0.02900
X0.65700 Y0.02900
X0.65700 Y0.02800
X0.65600 Y0.02800
X0.65600 Y0.02700
X0.65500 Y0.02700
X0.65500 Y0.02600
X0.65400 Y0.02600
X0.65400 Y0.02500
X0.65300 Y0.02500
X0.65300 Y0.02400
X0.65200 Y0.02400
X0.65200 Y0.02300
X0.65100 Y0.02300
X0.65100 Y0.02200
X0.65000 Y0.02200
X0.65000 Y0.02100
X0.64900 Y0.02100
X0.64900 Y0.02000
X0.64800 Y0.02000
X0.64800 Y0.01900
X0.64700 Y0.01900
X0.64700 Y0.01800
X0.64600 Y0.01800
X0.64600 Y0.01700
X0.64500 Y0.01700
X0.64500 Y0.01600
X0.64400 Y0.01600
X0.64400 Y0.01500
X0.64300 Y0.01500
X0.64300 Y0.01400
X0.64200 Y0.01400
X0.64200 Y0.01300
X0.64100 Y0.01300
X0.64100 Y0.01200
X0.64000 Y0.01200
X0.64000 Y0.01100
X0.63800 Y0.01100
X0.63800 Y0.01000
X-0.00200 Y0.01000
X-0.00200 Y0.01100
X-0.00300 Y0.01100
X-0.00300 Y0.01200
X-0.00400 Y0.01200
X-0.00400 Y0.01300
X-0.00500 Y0.01300
X-0.00500 Y1.10300
X-0.00400 Y1.10300
X-0.00400 Y1.10400
X-0.00300 Y1.10400
X-0.00300 Y1.10500
X-0.00200 Y1.10500
X-0.00200 Y1.10600
X0.87800 Y1.10600
X0.87800 Y1.10500
X0.87900 Y1.10500
X0.87900 Y1.10400
X0.88000 Y1.10400
X0.88000 Y1.10300
X0.88100 Y1.10300
X0.88100 Y1.08900

G04 P0 ( dwell for no time -- G64 should not smooth over this point )
G00 Z0.19685 ( retract )

M5 ( Spindle off. )
M9 ( Coolant off. )
M2 ( Program end. )

