( pcb2gcode 1.2.2 )
( Software-independent Gcode )

G94 ( Inches per minute feed rate. )
G20 ( Units == INCHES. )

G90 ( Absolute coordinates. )
S10000 ( RPM spindle speed. )
G64 P0.00200 ( set maximum deviation from commanded toolpath )
F0.19685 ( Feedrate. )

F0.19685 ( Feedrate. )
M3 ( Spindle on clockwise. )
G04 P0 ( dwell for no time -- G64 should not smooth over this point )
G00 Z0.19685 ( retract )

G00 X0.88100 Y1.08900 ( rapid move to begin. )
G01 Z0.00000 F0.09842 ( plunge. )
G04 P0 ( dwell for no time -- G64 should not smooth over this point )
F0.19685
X0.88100 Y1.08900
X0.88100 Y0.87800
X0.85800 Y0.85500
X0.77300 Y0.85500
X0.76600 Y0.84800
X0.76500 Y0.15600
X0.74300 Y0.13500
X0.66800 Y0.13500
X0.66100 Y0.12800
X0.66100 Y0.03300
X0.63800 Y0.01000
X-0.00200 Y0.01000
X-0.00500 Y0.01300
X-0.00500 Y1.10300
X-0.00200 Y1.10600
X0.87800 Y1.10600
X0.88100 Y1.10300
X0.88100 Y1.08900

G04 P0 ( dwell for no time -- G64 should not smooth over this point )
G00 Z0.197 ( retract )

M5 ( Spindle off. )
M9 ( Coolant off. )
M2 ( Program end. )

